( Made using CamBam - http://www.cambam.co.uk )
( CutJob01 7/8/2019 9:26:21 PM )
( T0 : 0.15 )
G21 G90 G64 G40
G0 Z0.1
( T0 : 0.15 )
T0 M6
( Inner )
G17
M3 S1000
G0 X436.2856 Y179.8622
G1 F1000.0 Z-0.1
G1 F400.0 Y167.1118
G1 X425.5342
G1 Y179.8622
G1 X436.2856
G0 Z0.1
G0 Y185.5139
G1 F1000.0 Z-0.1
G1 F400.0 X425.5341
G1 Y198.2601
G1 X436.2858
G1 Y185.5139
G1 X436.2856
G0 Z0.1
G0 Y161.4622
G1 F1000.0 Z-0.1
G1 F400.0 Y148.7118
G1 X425.5342
G1 Y161.4622
G1 X436.2856
G0 Z0.1
G0 Y143.0622
G1 F1000.0 Z-0.1
G1 F400.0 Y130.3118
G1 X425.5342
G1 Y143.0622
G1 X436.2856
G0 Z0.1
G0 Y124.6622
G1 F1000.0 Z-0.1
G1 F400.0 Y111.9118
G1 X425.5342
G1 Y124.6622
G1 X436.2856
G0 Z0.1
G0 Y106.2622
G1 F1000.0 Z-0.1
G1 F400.0 Y93.5118
G1 X425.5342
G1 Y106.2622
G1 X436.2856
G0 Z0.1
G0 Y87.8622
G1 F1000.0 Z-0.1
G1 F400.0 Y75.1118
G1 X425.5342
G1 Y87.8622
G1 X436.2856
G0 Z0.1
G0 X417.8591
G1 F1000.0 Z-0.1
G1 F400.0 Y75.1118
G1 X407.1078
G1 Y87.8622
G1 X417.8591
G0 Z0.1
G0 Y93.5118
G1 F1000.0 Z-0.1
G1 F400.0 X407.1078
G1 Y106.2622
G1 X417.8591
G1 Y93.5118
G0 Z0.1
G0 X401.8895
G1 F1000.0 Z-0.1
G1 F400.0 X391.1382
G1 Y106.2622
G1 X401.8895
G1 Y93.5118
G0 Z0.1
G0 Y87.8622
G1 F1000.0 Z-0.1
G1 F400.0 Y75.1118
G1 X391.1382
G1 Y87.8622
G1 X401.8895
G0 Z0.1
G0 X389.8647 Y59.8501
G1 F1000.0 Z-0.1
G2 F400.0 X390.0934 Y59.7096 I-0.3656 J-0.8517
G2 X390.3011 Y59.4624 I-0.5998 J-0.715
G2 X390.4112 Y59.1593 I-0.7949 J-0.4602
G2 Y58.8407 I-0.9364 J-0.1593
G2 X390.3011 Y58.5376 I-0.904 J0.1567
G3 X390.301 Y58.5374 I0.0649 J-0.0376
G2 X390.0935 Y58.2904 I-0.796 J0.4583
G3 X390.0927 Y58.2898 I0.048 J-0.0576
G2 X389.8196 Y58.1319 I-0.5583 J0.6507
G2 X389.6625 Y58.0951 I-0.3002 J0.9267
G3 X389.6587 Y58.0944 I0.011 J-0.0742
G2 X389.5817 Y58.0841 I-0.1183 J0.5895
G3 X389.5789 Y58.0838 I0.0052 J-0.0748
G1 X389.4988 Y58.0753
G2 X389.3391 Y58.0948 I0.131 J1.7332
G3 X389.3374 Y58.0951 I-0.0125 J-0.0739
G2 X389.1804 Y58.1319 I0.1376 J0.9396
G2 X388.9075 Y58.2896 I0.2762 J0.7928
G3 X388.9071 Y58.29 I-0.049 J-0.0567
G2 X388.6988 Y58.5377 I0.631 J0.742
G2 X388.5887 Y58.841 I0.8095 J0.4653
G3 Y58.8411 I-0.0739 J-0.013
G2 Y59.1588 I0.8917 J0.1588
G1 Y59.1589
G2 X388.699 Y59.4626 I0.9235 J-0.1634
G2 X388.9066 Y59.7096 I0.7989 J-0.4608
G2 X389.1821 Y59.8687 I0.5946 J-0.7116
G2 X389.5001 Y59.925 I0.3191 J-0.8758
G2 X389.8178 Y59.8687 I0.0002 J-0.9237
G2 X389.8647 Y59.8501 I-0.3188 J-0.8704
G0 Z0.1
G0 X441.5748 Y59.0146
G1 F1000.0 Z-0.1
G2 F400.0 X441.5887 Y59.1588 I0.9056 J-0.0146
G1 X441.5888 Y59.1589
G2 X441.699 Y59.4626 I0.9235 J-0.1634
G2 X441.9066 Y59.7096 I0.799 J-0.4608
G2 X442.1821 Y59.8687 I0.5946 J-0.7116
G2 X442.5001 Y59.925 I0.3191 J-0.8759
G2 X442.8178 Y59.8687 I0.0002 J-0.9236
G2 X443.0934 Y59.7096 I-0.3188 J-0.8704
G2 X443.3011 Y59.4624 I-0.5998 J-0.715
G2 X443.4112 Y59.1593 I-0.7949 J-0.4602
G2 Y58.8407 I-0.9365 J-0.1593
G2 X443.3011 Y58.5376 I-0.9039 J0.1567
G3 X443.301 Y58.5374 I0.0649 J-0.0376
G2 X443.0935 Y58.2904 I-0.796 J0.4583
G3 X443.0927 Y58.2898 I0.048 J-0.0576
G2 X442.8196 Y58.1319 I-0.5583 J0.6507
G2 X442.6625 Y58.0951 I-0.3002 J0.9267
G3 X442.6587 Y58.0944 I0.011 J-0.0742
G2 X442.5818 Y58.0841 I-0.1183 J0.5895
G3 X442.5789 Y58.0838 I0.0052 J-0.0748
G1 X442.4988 Y58.0753
G2 X442.3391 Y58.0948 I0.1304 J1.7281
G3 X442.3374 Y58.0951 I-0.0126 J-0.0739
G2 X442.1804 Y58.1319 I0.1375 J0.9391
G2 X441.9076 Y58.2896 I0.2762 J0.7929
G3 X441.9071 Y58.29 I-0.049 J-0.0567
G2 X441.6988 Y58.5377 I0.631 J0.742
G2 X441.5888 Y58.841 I0.8094 J0.4653
G3 X441.5887 Y58.8411 I-0.0739 J-0.013
G2 X441.5748 Y59.0146 I0.8917 J0.1588
G0 Z0.1
G0 X406.5385 Y124.1419
G1 F1000.0 Z-0.1
G2 F400.0 X406.1133 Y123.9578 I-1.2928 J2.4032
G2 X405.5389 Y123.8229 I-1.0945 J3.3683
G3 X405.5388 Y123.8228 I0.011 J-0.0742
G2 X405.2427 Y123.7831 I-1.3636 J9.036
G1 X404.9505 Y123.7519
G2 X404.8852 Y123.7587 I0.1861 J2.103
G3 X404.8845 Y123.7588 I-0.0089 J-0.0745
G1 X404.6035 Y123.7898
G3 X404.6031 I-0.0082 J-0.0745
G2 X404.3974 Y123.8176 I0.3576 J3.4182
G3 X404.3955 Y123.8179 I-0.0123 J-0.074
G2 X403.7896 Y123.9577 I0.488 J3.4987
G2 X403.262 Y124.1997 I0.9839 J2.8417
G2 X402.7861 Y124.5375 I1.8549 J3.117
G2 X402.0281 Y125.4393 I2.2045 J2.6223
G2 X401.6262 Y126.5464 I2.9516 J1.6981
G2 Y127.7074 I3.3692 J0.5805
G2 X402.0282 Y128.8146 I3.3674 J-0.596
G2 X402.786 Y129.7162 I2.916 J-1.6817
G2 X403.7914 Y130.2967 I2.1694 J-2.5964
G2 X404.9513 Y130.5022 I1.164 J-3.1944
G2 X406.1111 Y130.2968 I0.0009 J-3.3706
G2 X407.1165 Y129.7163 I-1.1631 J-3.1756
G2 X407.8744 Y128.8145 I-2.1875 J-2.6079
G2 X408.2763 Y127.7075 I-2.9015 J-1.6799
G3 X408.2764 Y127.7073 I0.0739 J0.0128
G2 Y126.5465 I-3.2966 J-0.5804
G3 X408.2763 Y126.5463 I0.0739 J-0.013
G2 X407.8745 Y125.4394 I-3.3 J0.5717
G2 X407.1163 Y124.5373 I-2.9922 J1.7453
G3 X407.1158 Y124.5369 I0.0484 J-0.0573
G2 X406.641 Y124.1999 I-2.0616 J2.4016
G3 X406.6403 Y124.1995 I0.0376 J-0.0649
G2 X406.5385 Y124.1419 I-1.3946 J2.3456
G0 Z0.1
G0 Y148.7139
G1 F1000.0 Z-0.1
G1 F400.0 X399.0758
G1 Y161.4601
G1 X409.8274
G1 Y148.7139
G1 X406.5385
G0 Z0.1
G0 Y167.1139
G1 F1000.0 Z-0.1
G1 F400.0 X399.0758
G1 Y179.8601
G1 X409.8274
G1 Y167.1139
G1 X406.5385
G0 Z0.1
G0 Y185.5139
G1 F1000.0 Z-0.1
G1 F400.0 X399.0757
G1 Y198.2601
G1 X409.8274
G1 Y185.5139
G1 X406.5385
G0 Z0.1
G0 X389.9861 Y212.2118
G1 F1000.0 Z-0.1
G2 F400.0 X389.8196 Y212.1319 I-0.4518 J0.7287
G2 X389.6625 Y212.0951 I-0.3002 J0.9267
G3 X389.6587 Y212.0944 I0.011 J-0.0742
G2 X389.5817 Y212.0841 I-0.1183 J0.5895
G3 X389.5789 Y212.0838 I0.0052 J-0.0748
G1 X389.4988 Y212.0753
G2 X389.3391 Y212.0948 I0.131 J1.7332
G3 X389.3374 Y212.0951 I-0.0125 J-0.0739
G2 X389.1804 Y212.1319 I0.1376 J0.9396
G2 X388.9075 Y212.2896 I0.2762 J0.7928
G3 X388.9071 Y212.29 I-0.049 J-0.0567
G2 X388.6988 Y212.5377 I0.631 J0.742
G2 X388.5887 Y212.841 I0.8095 J0.4653
G3 Y212.8412 I-0.0739 J-0.013
G2 Y213.1588 I0.8917 J0.1588
G1 Y213.1589
G2 X388.699 Y213.4626 I0.9235 J-0.1634
G2 X388.9066 Y213.7096 I0.7989 J-0.4608
G2 X389.1821 Y213.8687 I0.5946 J-0.7116
G2 X389.5001 Y213.925 I0.3191 J-0.8758
G2 X389.8178 Y213.8687 I0.0002 J-0.9237
G2 X390.0934 Y213.7096 I-0.3188 J-0.8704
G2 X390.3011 Y213.4624 I-0.5998 J-0.715
G2 X390.4112 Y213.1593 I-0.7949 J-0.4602
G2 Y212.8407 I-0.9364 J-0.1593
G2 X390.3011 Y212.5376 I-0.904 J0.1567
G3 X390.301 Y212.5374 I0.0649 J-0.0376
G2 X390.0935 Y212.2904 I-0.796 J0.4583
G3 X390.0927 Y212.2898 I0.048 J-0.0576
G2 X389.9861 Y212.2118 I-0.5583 J0.6507
G0 Z0.1
G0 X441.5748 Y212.9864
G1 F1000.0 Z-0.1
G2 F400.0 X441.5887 Y213.1588 I0.9057 J0.0136
G1 Y213.1589
G2 X441.699 Y213.4626 I0.9235 J-0.1634
G2 X441.9066 Y213.7096 I0.7989 J-0.4608
G2 X442.1821 Y213.8687 I0.5946 J-0.7116
G2 X442.5 Y213.925 I0.3191 J-0.8758
G2 X442.8178 Y213.8687 I0.0002 J-0.9237
G2 X443.0933 Y213.7096 I-0.3188 J-0.8704
G2 X443.3011 Y213.4624 I-0.5998 J-0.715
G2 X443.4112 Y213.1593 I-0.7949 J-0.4602
G2 Y212.8407 I-0.9364 J-0.1593
G2 X443.3011 Y212.5376 I-0.904 J0.1567
G3 X443.301 Y212.5374 I0.0649 J-0.0376
G2 X443.0934 Y212.2904 I-0.796 J0.4583
G3 X443.0926 Y212.2898 I0.048 J-0.0576
G2 X442.8196 Y212.1319 I-0.5583 J0.6507
G2 X442.6624 Y212.0951 I-0.3002 J0.9267
G3 X442.6587 Y212.0944 I0.011 J-0.0742
G2 X442.5817 Y212.0841 I-0.1183 J0.5895
G3 X442.5789 Y212.0838 I0.0052 J-0.0748
G1 X442.4987 Y212.0753
G2 X442.3391 Y212.0948 I0.131 J1.7332
G3 X442.3374 Y212.0951 I-0.0125 J-0.0739
G2 X442.1803 Y212.1319 I0.1376 J0.9396
G2 X441.9075 Y212.2896 I0.2762 J0.7928
G3 X441.9071 Y212.29 I-0.049 J-0.0567
G2 X441.6988 Y212.5377 I0.631 J0.742
G2 X441.5887 Y212.841 I0.8095 J0.4653
G3 Y212.8412 I-0.0739 J-0.013
G2 X441.5748 Y212.9864 I0.8917 J0.1588
( Outer PFD_Ctrl_1 )
S1000
G0 Z0.1
G0 X445.5 Y216.075
G1 F1000.0 Z-0.1
G1 F400.0 X430.8096
G1 X416.1197
G1 X401.4293
G1 X386.5
G3 X386.425 Y216.0 I0.0 J-0.075
G1 Y200.6014
G1 Y185.2028
G1 Y169.8037
G1 Y154.4051
G1 Y139.006
G1 Y123.6074
G1 Y108.2083
G1 Y92.8097
G1 Y77.4106
G1 Y62.012
G1 Y56.0
G3 X386.5 Y55.925 I0.075 J0.0
G1 X395.7162
G1 X410.4066
G1 X425.0965
G1 X439.7869
G1 X445.5
G3 X445.575 Y56.0 I0.0 J0.075
G1 Y71.3991
G1 Y86.7977
G1 Y102.1969
G1 Y117.5954
G1 Y120.5442
G1 Y135.9433
G1 Y151.3419
G1 Y166.741
G1 Y182.1396
G1 Y197.5387
G1 Y212.9373
G1 Y216.0
G3 X445.5 Y216.075 I-0.075 J0.0
( Inner )
S1000
G0 Z0.1
G0 X510.2707 Y180.6902
G1 F1000.0 Z-0.1
G1 F400.0 Y167.9399
G1 X499.5193
G1 Y180.6902
G1 X510.2707
G0 Z0.1
G0 Y186.3419
G1 F1000.0 Z-0.1
G1 F400.0 X499.5192
G1 Y199.0882
G1 X510.2709
G1 Y186.3419
G1 X510.2707
G0 Z0.1
G0 Y162.2902
G1 F1000.0 Z-0.1
G1 F400.0 Y149.5399
G1 X499.5193
G1 Y162.2902
G1 X510.2707
G0 Z0.1
G0 Y143.8902
G1 F1000.0 Z-0.1
G1 F400.0 Y131.1399
G1 X499.5193
G1 Y143.8902
G1 X510.2707
G0 Z0.1
G0 Y125.4902
G1 F1000.0 Z-0.1
G1 F400.0 Y112.7399
G1 X499.5193
G1 Y125.4902
G1 X510.2707
G0 Z0.1
G0 Y107.0902
G1 F1000.0 Z-0.1
G1 F400.0 Y94.3399
G1 X499.5193
G1 Y107.0902
G1 X510.2707
G0 Z0.1
G0 Y88.6902
G1 F1000.0 Z-0.1
G1 F400.0 Y75.9399
G1 X499.5193
G1 Y88.6902
G1 X510.2707
G0 Z0.1
G0 X491.8442
G1 F1000.0 Z-0.1
G1 F400.0 Y75.9399
G1 X481.0929
G1 Y88.6902
G1 X491.8442
G0 Z0.1
G0 Y94.3399
G1 F1000.0 Z-0.1
G1 F400.0 X481.0929
G1 Y107.0902
G1 X491.8442
G1 Y94.3399
G0 Z0.1
G0 X475.8746
G1 F1000.0 Z-0.1
G1 F400.0 X465.1233
G1 Y107.0902
G1 X475.8746
G1 Y94.3399
G0 Z0.1
G0 Y88.6902
G1 F1000.0 Z-0.1
G1 F400.0 Y75.9399
G1 X465.1233
G1 Y88.6902
G1 X475.8746
G0 Z0.1
G0 X463.8498 Y60.6781
G1 F1000.0 Z-0.1
G2 F400.0 X464.0785 Y60.5376 I-0.3656 J-0.8517
G2 X464.2862 Y60.2904 I-0.5998 J-0.715
G2 X464.3963 Y59.9873 I-0.7949 J-0.4602
G2 Y59.6687 I-0.9364 J-0.1593
G2 X464.2862 Y59.3656 I-0.904 J0.1567
G3 X464.2861 Y59.3654 I0.0649 J-0.0376
G2 X464.0786 Y59.1185 I-0.796 J0.4583
G3 X464.0778 Y59.1178 I0.048 J-0.0576
G2 X463.8047 Y58.9599 I-0.5583 J0.6507
G2 X463.6476 Y58.9231 I-0.3002 J0.9267
G3 X463.6438 Y58.9224 I0.011 J-0.0742
G2 X463.5668 Y58.9121 I-0.1183 J0.5895
G3 X463.564 Y58.9119 I0.0052 J-0.0748
G1 X463.4839 Y58.9033
G2 X463.3242 Y58.9228 I0.131 J1.7332
G3 X463.3225 Y58.9231 I-0.0125 J-0.0739
G2 X463.1655 Y58.96 I0.1376 J0.9396
G2 X462.8926 Y59.1176 I0.2762 J0.7928
G3 X462.8922 Y59.118 I-0.049 J-0.0567
G2 X462.6839 Y59.3657 I0.631 J0.742
G2 X462.5738 Y59.669 I0.8095 J0.4653
G3 Y59.6692 I-0.0739 J-0.013
G2 Y59.9868 I0.8917 J0.1588
G1 Y59.9869
G2 X462.6841 Y60.2906 I0.9235 J-0.1634
G2 X462.8917 Y60.5376 I0.7989 J-0.4608
G2 X463.1672 Y60.6967 I0.5946 J-0.7116
G2 X463.4852 Y60.753 I0.3191 J-0.8758
G2 X463.8029 Y60.6967 I0.0002 J-0.9237
G2 X463.8498 Y60.6781 I-0.3188 J-0.8704
G0 Z0.1
G0 X515.5599 Y59.8426
G1 F1000.0 Z-0.1
G2 F400.0 X515.5738 Y59.9868 I0.9056 J-0.0146
G1 X515.5739 Y59.9869
G2 X515.6841 Y60.2906 I0.9235 J-0.1634
G2 X515.8917 Y60.5376 I0.799 J-0.4608
G2 X516.1672 Y60.6967 I0.5946 J-0.7116
G2 X516.4852 Y60.753 I0.3191 J-0.8759
G2 X516.8029 Y60.6967 I0.0002 J-0.9236
G2 X517.0785 Y60.5376 I-0.3188 J-0.8704
G2 X517.2862 Y60.2904 I-0.5998 J-0.715
G2 X517.3963 Y59.9873 I-0.7949 J-0.4602
G2 Y59.6687 I-0.9365 J-0.1593
G2 X517.2862 Y59.3656 I-0.9039 J0.1567
G3 X517.2861 Y59.3654 I0.0649 J-0.0376
G2 X517.0786 Y59.1185 I-0.796 J0.4583
G3 X517.0778 Y59.1178 I0.048 J-0.0576
G2 X516.8047 Y58.9599 I-0.5583 J0.6507
G2 X516.6476 Y58.9231 I-0.3002 J0.9267
G3 X516.6438 Y58.9224 I0.011 J-0.0742
G2 X516.5669 Y58.9121 I-0.1183 J0.5895
G3 X516.564 Y58.9119 I0.0052 J-0.0748
G1 X516.4839 Y58.9033
G2 X516.3242 Y58.9228 I0.1304 J1.7281
G3 X516.3225 Y58.9231 I-0.0126 J-0.0739
G2 X516.1655 Y58.96 I0.1375 J0.9391
G2 X515.8927 Y59.1176 I0.2762 J0.7929
G3 X515.8922 Y59.118 I-0.049 J-0.0567
G2 X515.6839 Y59.3657 I0.631 J0.742
G2 X515.5739 Y59.669 I0.8094 J0.4653
G3 X515.5738 Y59.6692 I-0.0739 J-0.013
G2 X515.5599 Y59.8426 I0.8917 J0.1588
G0 Z0.1
G0 X480.5236 Y124.9699
G1 F1000.0 Z-0.1
G2 F400.0 X480.0984 Y124.7859 I-1.2928 J2.4032
G2 X479.524 Y124.6509 I-1.0945 J3.3683
G3 X479.5239 I0.011 J-0.0742
G2 X479.2278 Y124.6111 I-1.3636 J9.036
G1 X478.9356 Y124.58
G2 X478.8703 Y124.5868 I0.1861 J2.103
G3 X478.8696 I-0.0089 J-0.0745
G1 X478.5886 Y124.6178
G3 X478.5882 Y124.6179 I-0.0082 J-0.0745
G2 X478.3825 Y124.6457 I0.3576 J3.4182
G3 X478.3806 Y124.646 I-0.0123 J-0.074
G2 X477.7747 Y124.7857 I0.488 J3.4987
G2 X477.2471 Y125.0277 I0.9839 J2.8417
G2 X476.7712 Y125.3655 I1.8549 J3.117
G2 X476.0132 Y126.2673 I2.2045 J2.6223
G2 X475.6113 Y127.3744 I2.9516 J1.6981
G2 Y128.5354 I3.3692 J0.5805
G2 X476.0133 Y129.6427 I3.3674 J-0.596
G2 X476.7711 Y130.5443 I2.916 J-1.6817
G2 X477.7765 Y131.1248 I2.1694 J-2.5964
G2 X478.9364 Y131.3302 I1.164 J-3.1944
G2 X480.0962 Y131.1248 I0.0009 J-3.3706
G2 X481.1016 Y130.5443 I-1.1631 J-3.1756
G2 X481.8595 Y129.6425 I-2.1875 J-2.6079
G2 X482.2614 Y128.5355 I-2.9015 J-1.6799
G3 X482.2615 Y128.5353 I0.0739 J0.0128
G2 Y127.3745 I-3.2966 J-0.5804
G3 X482.2614 Y127.3743 I0.0739 J-0.013
G2 X481.8596 Y126.2675 I-3.3 J0.5717
G2 X481.1014 Y125.3654 I-2.9922 J1.7453
G3 X481.1009 Y125.365 I0.0484 J-0.0573
G2 X480.6261 Y125.0279 I-2.0616 J2.4016
G3 X480.6254 Y125.0275 I0.0376 J-0.0649
G2 X480.5236 Y124.9699 I-1.3946 J2.3456
G0 Z0.1
G0 Y149.5419
G1 F1000.0 Z-0.1
G1 F400.0 X473.0609
G1 Y162.2882
G1 X483.8125
G1 Y149.5419
G1 X480.5236
G0 Z0.1
G0 Y167.9419
G1 F1000.0 Z-0.1
G1 F400.0 X473.0609
G1 Y180.6882
G1 X483.8125
G1 Y167.9419
G1 X480.5236
G0 Z0.1
G0 Y186.3419
G1 F1000.0 Z-0.1
G1 F400.0 X473.0608
G1 Y199.0882
G1 X483.8125
G1 Y186.3419
G1 X480.5236
G0 Z0.1
G0 X463.9712 Y213.0398
G1 F1000.0 Z-0.1
G2 F400.0 X463.8047 Y212.9599 I-0.4518 J0.7287
G2 X463.6476 Y212.9231 I-0.3002 J0.9267
G3 X463.6438 Y212.9224 I0.011 J-0.0742
G2 X463.5668 Y212.9121 I-0.1183 J0.5895
G3 X463.564 Y212.9119 I0.0052 J-0.0748
G1 X463.4839 Y212.9033
G2 X463.3242 Y212.9229 I0.131 J1.7332
G3 X463.3225 Y212.9231 I-0.0125 J-0.0739
G2 X463.1655 Y212.96 I0.1376 J0.9396
G2 X462.8926 Y213.1176 I0.2762 J0.7928
G3 X462.8922 Y213.118 I-0.049 J-0.0567
G2 X462.6839 Y213.3657 I0.631 J0.742
G2 X462.5738 Y213.669 I0.8095 J0.4653
G3 Y213.6692 I-0.0739 J-0.013
G2 Y213.9869 I0.8917 J0.1588
G2 X462.6841 Y214.2906 I0.9235 J-0.1634
G2 X462.8917 Y214.5376 I0.7989 J-0.4608
G2 X463.1672 Y214.6967 I0.5946 J-0.7116
G2 X463.4852 Y214.753 I0.3191 J-0.8758
G2 X463.8029 Y214.6967 I0.0002 J-0.9237
G2 X464.0785 Y214.5377 I-0.3188 J-0.8704
G2 X464.2862 Y214.2904 I-0.5998 J-0.715
G2 X464.3963 Y213.9873 I-0.7949 J-0.4602
G2 Y213.6687 I-0.9364 J-0.1593
G2 X464.2862 Y213.3656 I-0.904 J0.1567
G3 X464.2861 Y213.3654 I0.0649 J-0.0376
G2 X464.0786 Y213.1185 I-0.796 J0.4583
G3 X464.0778 Y213.1178 I0.048 J-0.0576
G2 X463.9712 Y213.0398 I-0.5583 J0.6507
G0 Z0.1
G0 X515.5599 Y213.8144
G1 F1000.0 Z-0.1
G2 F400.0 X515.5738 Y213.9869 I0.9057 J0.0136
G2 X515.6841 Y214.2906 I0.9235 J-0.1634
G2 X515.8917 Y214.5376 I0.7989 J-0.4608
G2 X516.1672 Y214.6967 I0.5946 J-0.7116
G2 X516.4851 Y214.753 I0.3191 J-0.8758
G2 X516.8029 Y214.6967 I0.0002 J-0.9237
G2 X517.0784 Y214.5377 I-0.3188 J-0.8704
G2 X517.2862 Y214.2904 I-0.5998 J-0.715
G2 X517.3963 Y213.9873 I-0.7949 J-0.4602
G2 Y213.6687 I-0.9364 J-0.1593
G2 X517.2862 Y213.3656 I-0.904 J0.1567
G3 X517.2861 Y213.3654 I0.0649 J-0.0376
G2 X517.0785 Y213.1185 I-0.796 J0.4583
G3 X517.0777 Y213.1178 I0.048 J-0.0576
G2 X516.8047 Y212.9599 I-0.5583 J0.6507
G2 X516.6475 Y212.9231 I-0.3002 J0.9267
G3 X516.6438 Y212.9224 I0.011 J-0.0742
G2 X516.5668 Y212.9121 I-0.1183 J0.5895
G3 X516.564 Y212.9119 I0.0052 J-0.0748
G1 X516.4838 Y212.9033
G2 X516.3242 Y212.9229 I0.131 J1.7332
G3 X516.3225 Y212.9231 I-0.0125 J-0.0739
G2 X516.1654 Y212.96 I0.1376 J0.9396
G2 X515.8926 Y213.1176 I0.2762 J0.7928
G3 X515.8922 Y213.118 I-0.049 J-0.0567
G2 X515.6839 Y213.3657 I0.631 J0.742
G2 X515.5738 Y213.669 I0.8095 J0.4653
G3 Y213.6692 I-0.0739 J-0.013
G2 X515.5599 Y213.8144 I0.8917 J0.1588
( Outer PFD_Ctrl_2 )
S1000
G0 Z0.1
G0 X519.4851 Y216.903
G1 F1000.0 Z-0.1
G1 F400.0 X504.7947
G1 X490.1048
G1 X475.4144
G1 X460.4851
G3 X460.4101 Y216.828 I0.0 J-0.075
G1 Y201.4295
G1 Y186.0309
G1 Y170.6317
G1 Y155.2332
G1 Y139.834
G1 Y124.4354
G1 Y109.0363
G1 Y93.6377
G1 Y78.2386
G1 Y62.84
G1 Y56.828
G3 X460.4851 Y56.753 I0.075 J0.0
G1 X469.7013
G1 X484.3917
G1 X499.0816
G1 X513.772
G1 X519.4851
G3 X519.5601 Y56.828 I0.0 J0.075
G1 Y72.2272
G1 Y87.6258
G1 Y103.0249
G1 Y118.4235
G1 Y121.3722
G1 Y136.7714
G1 Y152.1699
G1 Y167.5691
G1 Y182.9676
G1 Y198.3668
G1 Y213.7654
G1 Y216.828
G3 X519.4851 Y216.903 I-0.075 J0.0
( Inner )
S1000
G0 Z0.1
G0 X407.658 Y25.5512
G1 F1000.0 Z-0.1
G1 F400.0 X419.4089
G1 Y13.8004
G1 X407.658
G1 Y25.5512
G0 Z0.1
G0 X394.8299
G1 F1000.0 Z-0.1
G1 F400.0 Y14.079
G1 X383.0791
G1 Y25.8299
G1 X394.8299
G1 Y25.5512
G0 Z0.1
G0 X371.4285 Y15.8103
G1 F1000.0 Z-0.1
G2 F400.0 X371.4455 Y15.766 I-0.7915 J-0.3295
G2 X371.4823 Y15.6089 I-0.9267 J-0.3002
G3 X371.483 Y15.6051 I0.0742 J0.011
G2 X371.4933 Y15.5282 I-0.5895 J-0.1183
G3 X371.4935 Y15.5254 I0.0748 J0.0052
G1 X371.5021 Y15.4452
G2 X371.4826 Y15.2855 I-1.7281 J0.1304
G3 X371.4823 Y15.2838 I0.0739 J-0.0126
G2 X371.4455 Y15.1268 I-0.9392 J0.1375
G2 X371.2878 Y14.854 I-0.7929 J0.2762
G3 X371.2874 Y14.8535 I0.0567 J-0.049
G2 X371.0397 Y14.6452 I-0.742 J0.631
G2 X370.7364 Y14.5352 I-0.4653 J0.8095
G3 X370.7362 I0.013 J-0.0739
G2 X370.4186 I-0.1588 J0.8917
G1 X370.4185
G2 X370.1148 Y14.6454 I0.1634 J0.9235
G2 X369.8678 Y14.853 I0.4608 J0.799
G2 X369.7087 Y15.1286 I0.7116 J0.5946
G2 X369.6524 Y15.4465 I0.8759 J0.3191
G2 X369.7087 Y15.7643 I0.9236 J0.0002
G1 Y15.7642
G1 Y15.7643
G2 X369.8678 Y16.0398 I0.8704 J-0.3188
G2 X370.115 Y16.2476 I0.715 J-0.5998
G2 X370.4181 Y16.3576 I0.4602 J-0.7948
G2 X370.7367 I0.1593 J-0.9365
G2 X371.0398 Y16.2476 I-0.1567 J-0.9039
G3 X371.04 Y16.2475 I0.0376 J0.0649
G2 X371.2869 Y16.0399 I-0.4583 J-0.796
G3 X371.2876 Y16.0391 I0.0576 J0.048
G2 X371.4285 Y15.8103 I-0.6507 J-0.5583
G0 Z0.1
G0 X428.5555
G1 F1000.0 Z-0.1
G1 F400.0 Y25.5596
G1 X440.3064
G1 Y13.8088
G1 X428.5555
G1 Y15.8103
G0 Z0.1
G0 X449.9985
G1 F1000.0 Z-0.1
G1 F400.0 Y25.5512
G1 X461.7493
G1 Y13.8004
G1 X449.9985
G1 Y15.8103
G0 Z0.1
G0 X471.5004
G1 F1000.0 Z-0.1
G1 F400.0 Y25.5512
G1 X483.2512
G1 Y13.8004
G1 X471.5004
G1 Y15.8103
G0 Z0.1
G0 X492.5173
G1 F1000.0 Z-0.1
G1 F400.0 Y25.5512
G1 X504.2681
G1 Y13.8004
G1 X492.5173
G1 Y15.8103
G0 Z0.1
G0 X519.8725 Y19.2978
G1 F1000.0 Z-0.1
G2 F400.0 X519.8452 Y19.7236 I3.3726 J0.43
G2 X520.0506 Y20.8834 I3.3706 J0.0009
G2 X520.6311 Y21.8888 I3.1756 J-1.1631
G2 X521.5329 Y22.6468 I2.6079 J-2.1875
G2 X522.6399 Y23.0487 I1.6799 J-2.9015
G3 X522.6401 I-0.0128 J0.0739
G2 X523.8009 I0.5804 J-3.2967
G3 X523.8011 Y23.0486 I0.013 J0.0739
G2 X524.908 Y22.6468 I-0.5717 J-3.3001
G2 X525.8101 Y21.8886 I-1.7452 J-2.9922
G3 X525.8105 Y21.8881 I0.0573 J0.0484
G2 X526.1475 Y21.4133 I-2.4016 J-2.0617
G3 X526.1479 Y21.4126 I0.0649 J0.0376
G2 X526.3896 Y20.8857 I-2.3456 J-1.3946
G2 X526.5245 Y20.3112 I-3.3682 J-1.0945
G3 X526.5246 Y20.3111 I0.0742 J0.011
G2 X526.5643 Y20.015 I-9.0345 J-1.3634
G1 X526.5955 Y19.7228
G2 X526.5887 Y19.6575 I-2.1033 J0.1861
G3 X526.5886 Y19.6568 I0.0745 J-0.0089
G1 X526.5576 Y19.3758
G3 Y19.3754 I0.0745 J-0.0082
G2 X526.5298 Y19.1697 I-3.4185 J0.3576
G3 X526.5295 Y19.1678 I0.074 J-0.0123
G2 X526.3897 Y18.5619 I-3.4988 J0.488
G2 X526.1477 Y18.0343 I-2.8416 J0.9838
G2 X525.8099 Y17.5584 I-3.117 J1.8548
G2 X524.9081 Y16.8005 I-2.6223 J2.2045
G2 X523.801 Y16.3985 I-1.6981 J2.9517
G2 X522.64 I-0.5805 J3.3692
G2 X521.5328 Y16.8005 I0.596 J3.3674
G2 X520.6312 Y17.5583 I1.6816 J2.916
G2 X520.0507 Y18.5638 I2.5963 J2.1693
G2 X519.8725 Y19.2978 I3.1944 J1.164
G0 Z0.1
G0 X538.6695 Y15.6239
G1 F1000.0 Z-0.1
G2 F400.0 X538.7087 Y15.7643 I0.9064 J-0.1772
G1 Y15.7642
G1 Y15.7643
G2 X538.8677 Y16.0398 I0.8704 J-0.3188
G2 X539.115 Y16.2476 I0.715 J-0.5998
G2 X539.4181 Y16.3576 I0.4602 J-0.7948
G2 X539.7367 I0.1593 J-0.9365
G2 X540.0398 Y16.2476 I-0.1567 J-0.9039
G3 X540.04 Y16.2475 I0.0376 J0.0649
G2 X540.2869 Y16.0399 I-0.4583 J-0.796
G3 X540.2876 Y16.0391 I0.0576 J0.048
G2 X540.4455 Y15.766 I-0.6507 J-0.5583
G2 X540.4823 Y15.6089 I-0.9267 J-0.3002
G3 X540.483 Y15.6051 I0.0742 J0.011
G2 X540.4933 Y15.5282 I-0.5895 J-0.1183
G3 X540.4935 Y15.5254 I0.0748 J0.0052
G1 X540.5021 Y15.4452
G2 X540.4825 Y15.2855 I-1.7281 J0.1304
G3 X540.4823 Y15.2838 I0.0739 J-0.0126
G2 X540.4454 Y15.1268 I-0.9392 J0.1375
G2 X540.2878 Y14.854 I-0.7929 J0.2762
G3 X540.2874 Y14.8535 I0.0567 J-0.049
G2 X540.0397 Y14.6452 I-0.742 J0.631
G2 X539.7364 Y14.5352 I-0.4653 J0.8095
G3 X539.7362 I0.013 J-0.0739
G2 X539.4185 I-0.1588 J0.8917
G2 X539.1148 Y14.6454 I0.1634 J0.9235
G2 X538.8678 Y14.853 I0.4608 J0.799
G2 X538.7087 Y15.1286 I0.7116 J0.5946
G2 X538.6524 Y15.4465 I0.8759 J0.3191
G2 X538.6695 Y15.6239 I0.9236 J0.0002
G0 Z0.1
G0 X539.5734 Y221.5211
G1 F1000.0 Z-0.1
G2 F400.0 X539.4185 Y221.5352 I0.004 J0.9058
G2 X539.1148 Y221.6454 I0.1634 J0.9235
G2 X538.8678 Y221.853 I0.4608 J0.799
G2 X538.7087 Y222.1286 I0.7116 J0.5946
G2 X538.6524 Y222.4465 I0.8759 J0.3191
G2 X538.7087 Y222.7643 I0.9236 J0.0002
G1 Y222.7642
G1 Y222.7643
G2 X538.8677 Y223.0398 I0.8704 J-0.3188
G2 X539.115 Y223.2476 I0.715 J-0.5998
G2 X539.4181 Y223.3576 I0.4602 J-0.7948
G2 X539.7367 I0.1593 J-0.9365
G2 X540.0398 Y223.2476 I-0.1567 J-0.9039
G3 X540.04 Y223.2475 I0.0376 J0.0649
G2 X540.2869 Y223.0399 I-0.4583 J-0.796
G3 X540.2876 Y223.0391 I0.0576 J0.048
G2 X540.4455 Y222.766 I-0.6507 J-0.5583
G2 X540.4823 Y222.6089 I-0.9267 J-0.3002
G3 X540.483 Y222.6051 I0.0742 J0.011
G2 X540.4933 Y222.5282 I-0.5895 J-0.1183
G3 X540.4935 Y222.5254 I0.0748 J0.0052
G1 X540.5021 Y222.4452
G2 X540.4825 Y222.2855 I-1.7281 J0.1304
G3 X540.4823 Y222.2838 I0.0739 J-0.0126
G2 X540.4454 Y222.1268 I-0.9392 J0.1375
G2 X540.2878 Y221.854 I-0.7929 J0.2762
G3 X540.2874 Y221.8535 I0.0567 J-0.049
G2 X540.0397 Y221.6452 I-0.742 J0.631
G2 X539.7364 Y221.5352 I-0.4653 J0.8095
G3 X539.7362 I0.013 J-0.0739
G2 X539.5734 Y221.5211 I-0.1588 J0.8917
G0 Z0.1
G0 X371.5021 Y222.4452
G1 F1000.0 Z-0.1
G2 F400.0 X371.4826 Y222.2855 I-1.7281 J0.1304
G3 X371.4823 Y222.2838 I0.0739 J-0.0126
G2 X371.4455 Y222.1268 I-0.9392 J0.1375
G2 X371.2878 Y221.854 I-0.7929 J0.2762
G3 X371.2874 Y221.8535 I0.0567 J-0.049
G2 X371.0397 Y221.6452 I-0.742 J0.631
G2 X370.7364 Y221.5352 I-0.4653 J0.8095
G3 X370.7362 I0.013 J-0.0739
G2 X370.4186 I-0.1588 J0.8917
G1 X370.4185
G2 X370.1148 Y221.6454 I0.1634 J0.9235
G2 X369.8678 Y221.853 I0.4608 J0.799
G2 X369.7087 Y222.1286 I0.7116 J0.5946
G2 X369.6524 Y222.4465 I0.8759 J0.3191
G2 X369.7087 Y222.7643 I0.9236 J0.0002
G1 Y222.7642
G1 Y222.7643
G2 X369.8678 Y223.0398 I0.8704 J-0.3188
G2 X370.115 Y223.2476 I0.715 J-0.5998
G2 X370.4181 Y223.3576 I0.4602 J-0.7948
G2 X370.7367 I0.1593 J-0.9365
G2 X371.0398 Y223.2476 I-0.1567 J-0.9039
G3 X371.04 Y223.2475 I0.0376 J0.0649
G2 X371.2869 Y223.0399 I-0.4583 J-0.796
G3 X371.2876 Y223.0391 I0.0576 J0.048
G2 X371.4455 Y222.766 I-0.6507 J-0.5583
G2 X371.4823 Y222.6089 I-0.9267 J-0.3002
G3 X371.483 Y222.6051 I0.0742 J0.011
G2 X371.4933 Y222.5282 I-0.5895 J-0.1183
G3 X371.4935 Y222.5254 I0.0748 J0.0052
G1 X371.5021 Y222.4452
( Screen3_inner )
S1000
G0 Z0.1
G0 X531.5024 Y226.4154
G1 F1000.0 Z-0.1
G1 F400.0 X531.3876 Y45.5075
G1 X527.4627 Y41.5826
G1 X381.6084 Y41.5214
G1 X377.6524 Y45.4775
G1 Y226.4154
G1 X381.6084 Y230.3714
G1 X527.5463
G1 X531.5024 Y226.4154
( Screen_3 outer )
S1000
G0 Z0.1
G0 X544.6304 Y238.4995
G1 F1000.0 Z-0.1
G1 F400.0 X539.6304 Y243.4995
G3 X539.5774 Y243.5214 I-0.053 J-0.053
G1 X370.5774
G3 X370.5294 Y243.504 I0.0 J-0.075
G1 X364.5294 Y238.504
G3 X364.5024 Y238.4461 I0.048 J-0.0576
G1 X365.5024 Y5.4461
G3 X365.5243 Y5.3934 I0.075 J0.0003
G1 X370.5243 Y0.3934
G3 X370.5774 Y0.3714 I0.053 J0.053
G1 X539.4001 Y0.4221
G3 X539.4519 Y0.4429 I0.0 J0.075
G1 X544.6292 Y5.3922
G3 X544.6524 Y5.4464 I-0.0518 J0.0542
G1 Y238.4464
G3 X544.6304 Y238.4995 I-0.075 J0.0
G0 Z0.1
M5
M30
