( Made using CamBam - http://www.cambam.co.uk )
( CutJob01 7/8/2019 9:27:04 PM )
( T0 : 0.0 )
G21 G90 G64 G40
G0 Z0.1
( T0 : 0.0 )
T0 M6
( Text )
G61 G17
M3 S1000
G0 X477.1104 Y315.3615
G1 F1000.0 Z-0.1
G1 F1500.0 X476.6871 Y315.1498
G1 X476.2637 Y314.7265
G1 X476.0521 Y314.3031
G1 X475.8404 Y313.6681
G1 Y312.6098
G1 X476.0521 Y311.9748
G1 X476.2637 Y311.5515
G1 X476.6871 Y311.1281
G1 X477.1104 Y310.9165
G1 X477.9571
G1 X478.3804 Y311.1281
G1 X478.8037 Y311.5515
G1 X479.0154 Y311.9748
G1 X479.2271 Y312.6098
G1 Y313.6681
G1 X479.0154 Y314.3031
G1 X478.8037 Y314.7265
G1 X478.3804 Y315.1498
G1 X477.9571 Y315.3615
G1 X477.1104
G0 Z0.1
G0 X474.3587
G1 F1000.0 Z-0.1
G1 F1500.0 Y310.9165
G1 X471.3954 Y315.3615
G1 Y310.9165
G0 Z0.1
G0 X475.7875 Y310.0698
G1 F1000.0 Z-0.1
G1 F1500.0 X477.2692
G1 X477.9042 Y309.8581
G1 X478.3275 Y309.4348
G1 X478.5392 Y309.0115
G1 X478.7508 Y308.3765
G1 Y307.3181
G1 X478.5392 Y306.6831
G1 X478.3275 Y306.2598
G1 X477.9042 Y305.8365
G1 X477.2692 Y305.6248
G1 X475.7875
G1 Y310.0698
G0 Z0.1
G0 X480.4971 Y311.5515
G1 F1000.0 Z-0.1
G1 F1500.0 X480.9204 Y311.1281
G1 X481.5554 Y310.9165
G1 X482.4021
G1 X483.0371 Y311.1281
G1 X483.4604 Y311.5515
G1 Y312.1865
G1 X483.2487 Y312.6098
G1 X483.0371 Y312.8215
G1 X482.6137 Y313.0331
G1 X481.3437 Y313.4565
G1 X480.9204 Y313.6681
G1 X480.7087 Y313.8798
G1 X480.4971 Y314.3031
G1 Y314.7265
G1 X480.9204 Y315.1498
G1 X481.5554 Y315.3615
G1 X482.4021
G1 X483.0371 Y315.1498
G1 X483.4604 Y314.7265
G0 Z0.1
G0 X484.9421 Y313.2448
G1 F1000.0 Z-0.1
G1 F1500.0 X486.6354
G0 Z0.1
G0 X487.6937 Y315.3615
G1 F1000.0 Z-0.1
G1 F1500.0 X484.9421
G1 Y310.9165
G1 X487.6937
G0 Z0.1
G0 X483.1958 Y310.0698
G1 F1000.0 Z-0.1
G1 F1500.0 Y305.6248
G1 X480.2325 Y310.0698
G1 Y305.6248
G0 Z0.1
G0 X478.4107 Y270.3407
G1 F1000.0 Z-0.1
G1 F1500.0 X477.564
G1 X477.1407 Y270.1291
G1 X476.7174 Y269.7057
G1 X476.5057 Y269.2824
G1 X476.294 Y268.6474
G1 Y267.5891
G1 X476.5057 Y266.9541
G1 X476.7174 Y266.5307
G1 X477.1407 Y266.1074
G1 X477.564 Y265.8957
G1 X478.4107
G1 X478.834 Y266.1074
G1 X479.2574 Y266.5307
G1 X479.469 Y266.9541
G1 X479.6807 Y267.5891
G1 Y268.6474
G1 X479.469 Y269.2824
G1 X479.2574 Y269.7057
G1 X478.834 Y270.1291
G1 X478.4107 Y270.3407
G0 Z0.1
G0 X474.8124
G1 F1000.0 Z-0.1
G1 F1500.0 Y265.8957
G1 X471.849 Y270.3407
G1 Y265.8957
G0 Z0.1
G0 X476.1353 Y265.2607
G1 F1000.0 Z-0.1
G1 F1500.0 Y262.0857
G1 X476.3469 Y261.4507
G1 X476.7703 Y261.0274
G1 X477.4053 Y260.8157
G1 X477.8286
G1 X478.4636 Y261.0274
G1 X478.8869 Y261.4507
G1 X479.0986 Y262.0857
G1 Y265.2607
G0 Z0.1
G0 X480.9507 Y266.5307
G1 F1000.0 Z-0.1
G1 F1500.0 X481.374 Y266.1074
G1 X482.009 Y265.8957
G1 X482.8557
G1 X483.4907 Y266.1074
G1 X483.914 Y266.5307
G1 Y267.1657
G1 X483.7024 Y267.5891
G1 X483.4907 Y267.8007
G1 X483.0674 Y268.0124
G1 X481.7974 Y268.4357
G1 X481.374 Y268.6474
G1 X481.1624 Y268.8591
G1 X480.9507 Y269.2824
G1 Y269.7057
G1 X481.374 Y270.1291
G1 X482.009 Y270.3407
G1 X482.8557
G1 X483.4907 Y270.1291
G1 X483.914 Y269.7057
G0 Z0.1
G0 X485.3957 Y268.2241
G1 F1000.0 Z-0.1
G1 F1500.0 X487.089
G0 Z0.1
G0 X488.1474 Y270.3407
G1 F1000.0 Z-0.1
G1 F1500.0 X485.3957
G1 Y265.8957
G1 X488.1474
G0 Z0.1
G0 X480.7919 Y262.9324
G1 F1000.0 Z-0.1
G1 F1500.0 X482.6969
G1 X483.3319 Y263.1441
G1 X483.5436 Y263.3557
G1 X483.7553 Y263.7791
G1 Y264.4141
G1 X483.5436 Y264.8374
G1 X483.3319 Y265.0491
G1 X482.6969 Y265.2607
G1 X480.7919
G1 Y260.8157
( Inner )
G64
S1000
G0 Z0.1
G0 X382.586 Y273.714
G1 F1000.0 Z-0.1
G1 F400.0 X401.436
G1 Y259.864
G1 X382.586
G1 Y273.714
G0 Z0.1
G0 Y275.0062
G1 F1000.0 Z-0.1
G1 F400.0 Y288.8562
G1 X401.436
G1 Y275.0062
G1 X382.586
G0 Z0.1
G0 Y290.4373
G1 F1000.0 Z-0.1
G1 F400.0 Y304.2873
G1 X401.436
G1 Y290.4373
G1 X382.586
G0 Z0.1
G0 Y305.4373
G1 F1000.0 Z-0.1
G1 F400.0 Y319.2873
G1 X401.436
G1 Y305.4373
G1 X382.586
G0 Z0.1
G0 X374.679 Y318.0354
G1 F1000.0 Z-0.1
G2 F400.0 X374.6555 Y318.0211 I-0.5178 J0.825
G2 X374.3521 Y317.911 I-0.4653 J0.8095
G3 X374.352 I0.013 J-0.0739
G2 X374.0343 I-0.1588 J0.8917
G2 X373.7306 Y318.0212 I0.1634 J0.9235
G2 X373.4836 Y318.2289 I0.4608 J0.799
G2 X373.3245 Y318.5044 I0.7116 J0.5946
G2 X373.2682 Y318.8223 I0.8759 J0.3191
G2 X373.3245 Y319.1401 I0.9236 J0.0002
G2 X373.4835 Y319.4156 I0.8704 J-0.3188
G2 X373.7308 Y319.6234 I0.715 J-0.5998
G2 X374.0339 Y319.7335 I0.4602 J-0.7948
G2 X374.3525 I0.1593 J-0.9365
G2 X374.6556 Y319.6234 I-0.1567 J-0.9039
G3 X374.6557 Y319.6233 I0.0376 J0.0649
G2 X374.9027 Y319.4157 I-0.4583 J-0.796
G3 X374.9034 Y319.4149 I0.0576 J0.048
G2 X375.0612 Y319.1418 I-0.6507 J-0.5583
G2 X375.0981 Y318.9847 I-0.9267 J-0.3002
G3 X375.0987 Y318.981 I0.0742 J0.011
G2 X375.1091 Y318.904 I-0.5895 J-0.1183
G3 X375.1093 Y318.9012 I0.0748 J0.0052
G1 X375.1179 Y318.821
G2 X375.0983 Y318.6614 I-1.7281 J0.1304
G3 X375.0981 Y318.6597 I0.0739 J-0.0126
G2 X375.0612 Y318.5026 I-0.9392 J0.1375
G2 X374.9036 Y318.2298 I-0.7929 J0.2762
G3 X374.9032 Y318.2294 I0.0567 J-0.049
G2 X374.679 Y318.0354 I-0.742 J0.631
G0 Z0.1
G0 X370.0225 Y325.7263
G1 F1000.0 Z-0.1
G2 F400.0 X370.0123 Y325.7202 I-0.5044 J0.8332
G2 X369.709 Y325.6101 I-0.4653 J0.8095
G3 X369.7088 I0.013 J-0.0739
G2 X369.3912 I-0.1588 J0.8917
G1 X369.3911
G2 X369.0874 Y325.7204 I0.1634 J0.9235
G2 X368.8404 Y325.928 I0.4608 J0.799
G2 X368.6813 Y326.2035 I0.7116 J0.5946
G2 X368.625 Y326.5214 I0.8759 J0.3191
G2 X368.6813 Y326.8392 I0.9236 J0.0002
G2 X368.8404 Y327.1147 I0.8704 J-0.3188
G2 X369.0876 Y327.3225 I0.715 J-0.5998
G2 X369.3907 Y327.4326 I0.4602 J-0.7948
G2 X369.7093 I0.1593 J-0.9365
G2 X370.0124 Y327.3225 I-0.1567 J-0.9039
G3 X370.0126 Y327.3224 I0.0376 J0.0649
G2 X370.2596 Y327.1148 I-0.4583 J-0.796
G3 X370.2602 Y327.114 I0.0576 J0.048
G2 X370.4181 Y326.841 I-0.6507 J-0.5583
G2 X370.4549 Y326.6838 I-0.9267 J-0.3002
G3 X370.4556 Y326.6801 I0.0742 J0.011
G2 X370.4659 Y326.6031 I-0.5895 J-0.1183
G3 X370.4662 Y326.6003 I0.0748 J0.0052
G1 X370.4747 Y326.5201
G2 X370.4552 Y326.3605 I-1.7281 J0.1304
G3 X370.4549 Y326.3588 I0.0739 J-0.0126
G2 X370.4181 Y326.2017 I-0.9392 J0.1375
G2 X370.2604 Y325.9289 I-0.7929 J0.2762
G3 X370.26 Y325.9285 I0.0567 J-0.049
G2 X370.0225 Y325.7263 I-0.742 J0.631
G0 Z0.1
G0 X402.7993 Y319.2873
G1 F1000.0 Z-0.1
G1 F400.0 X421.6493
G1 Y305.4373
G1 X402.7993
G1 Y319.2873
G0 Z0.1
G0 Y304.2873
G1 F1000.0 Z-0.1
G1 F400.0 X421.6493
G1 Y290.4373
G1 X402.7993
G1 Y304.2873
G0 Z0.1
G0 Y288.8562
G1 F1000.0 Z-0.1
G1 F400.0 X421.6493
G1 Y275.0062
G1 X402.7993
G1 Y288.8562
G0 Z0.1
G0 Y273.714
G1 F1000.0 Z-0.1
G1 F400.0 X421.6493
G1 Y259.864
G1 X402.7993
G1 Y273.714
G0 Z0.1
G0 X423.0004
G1 F1000.0 Z-0.1
G1 F400.0 X441.8504
G1 Y259.864
G1 X423.0004
G1 Y273.714
G0 Z0.1
G0 Y275.0062
G1 F1000.0 Z-0.1
G1 F400.0 Y288.8562
G1 X441.8504
G1 Y275.0062
G1 X423.0004
G0 Z0.1
G0 Y290.4373
G1 F1000.0 Z-0.1
G1 F400.0 Y304.2873
G1 X441.8504
G1 Y290.4373
G1 X423.0004
G0 Z0.1
G0 Y305.4373
G1 F1000.0 Z-0.1
G1 F400.0 Y319.2873
G1 X441.8504
G1 Y305.4373
G1 X423.0004
G0 Z0.1
G0 X445.7785 Y318.3657
G1 F1000.0 Z-0.1
G2 F400.0 X445.7143 Y318.5044 I0.8065 J0.4577
G2 X445.658 Y318.8223 I0.8759 J0.3191
G2 X445.7143 Y319.1401 I0.9236 J0.0002
G1 X445.7142
G1 X445.7143
G2 X445.8733 Y319.4156 I0.8704 J-0.3188
G2 X446.1205 Y319.6234 I0.715 J-0.5998
G2 X446.4237 Y319.7335 I0.4602 J-0.7948
G2 X446.7422 I0.1593 J-0.9365
G2 X447.0454 Y319.6234 I-0.1567 J-0.9039
G3 X447.0455 Y319.6233 I0.0376 J0.0649
G2 X447.2925 Y319.4157 I-0.4583 J-0.796
G3 X447.2932 Y319.4149 I0.0576 J0.048
G2 X447.451 Y319.1418 I-0.6507 J-0.5583
G2 X447.4879 Y318.9847 I-0.9267 J-0.3002
G3 X447.4885 Y318.981 I0.0742 J0.011
G2 X447.4989 Y318.904 I-0.5895 J-0.1183
G3 X447.4991 Y318.9012 I0.0748 J0.0052
G1 X447.5077 Y318.821
G2 X447.4881 Y318.6614 I-1.7281 J0.1304
G3 X447.4879 Y318.6597 I0.0739 J-0.0126
G2 X447.451 Y318.5026 I-0.9392 J0.1375
G2 X447.2934 Y318.2298 I-0.7929 J0.2762
G3 X447.293 Y318.2294 I0.0567 J-0.049
G2 X447.0452 Y318.0211 I-0.742 J0.631
G2 X446.7419 Y317.911 I-0.4653 J0.8095
G3 X446.7418 I0.013 J-0.0739
G2 X446.4241 I-0.1588 J0.8917
G1 X446.424
G2 X446.1204 Y318.0212 I0.1634 J0.9235
G2 X445.8734 Y318.2289 I0.4608 J0.799
G2 X445.7785 Y318.3657 I0.7116 J0.5946
G0 Z0.1
G0 X462.2438 Y300.3193
G1 F1000.0 Z-0.1
G1 F400.0 X464.9938
G1 Y294.5693
G1 X462.2438
G1 Y300.3193
G0 Z0.1
G0 X474.2038
G1 F1000.0 Z-0.1
G1 F400.0 Y302.3093
G1 X484.7796
G1 Y274.7335
G1 X474.2038
G1 Y300.3193
G0 Z0.1
G0 X464.9938 Y287.2835
G1 F1000.0 Z-0.1
G1 F400.0 Y280.5335
G1 X462.2438
G1 Y287.2835
G1 X464.9938
G0 Z0.1
G0 X447.1062 Y261.1653
G1 F1000.0 Z-0.1
G2 F400.0 X447.2925 Y260.9959 I-0.519 J-0.7579
G3 X447.2932 Y260.9951 I0.0576 J0.048
G2 X447.451 Y260.722 I-0.6507 J-0.5583
G2 X447.4879 Y260.5649 I-0.9267 J-0.3002
G3 X447.4885 Y260.5612 I0.0742 J0.011
G2 X447.4989 Y260.4842 I-0.5895 J-0.1183
G3 X447.4991 Y260.4814 I0.0748 J0.0052
G1 X447.5077 Y260.4012
G2 X447.4881 Y260.2415 I-1.7281 J0.1304
G3 X447.4879 Y260.2398 I0.0739 J-0.0126
G2 X447.451 Y260.0828 I-0.9392 J0.1375
G2 X447.2934 Y259.81 I-0.7929 J0.2762
G3 X447.293 Y259.8095 I0.0567 J-0.049
G2 X447.0452 Y259.6012 I-0.742 J0.631
G2 X446.7419 Y259.4912 I-0.4653 J0.8095
G3 X446.7418 I0.013 J-0.0739
G2 X446.4241 I-0.1588 J0.8917
G1 X446.424
G2 X446.1204 Y259.6014 I0.1634 J0.9235
G2 X445.8734 Y259.809 I0.4608 J0.799
G2 X445.7143 Y260.0846 I0.7116 J0.5946
G2 X445.658 Y260.4025 I0.8759 J0.3191
G2 X445.7143 Y260.7203 I0.9236 J0.0002
G1 X445.7142
G1 X445.7143
G2 X445.8733 Y260.9958 I0.8704 J-0.3188
G2 X446.1205 Y261.2036 I0.715 J-0.5998
G2 X446.4237 Y261.3136 I0.4602 J-0.7948
G2 X446.7422 I0.1593 J-0.9365
G2 X447.0454 Y261.2036 I-0.1567 J-0.9039
G3 X447.0455 Y261.2035 I0.0376 J0.0649
G2 X447.1062 Y261.1653 I-0.4583 J-0.796
G0 Z0.1
G0 X494.7456 Y259.7042
G1 F1000.0 Z-0.1
G2 F400.0 X494.8014 Y259.9934 I0.9231 J-0.0283
G2 X494.9605 Y260.2689 I0.8704 J-0.3188
G2 X495.2077 Y260.4767 I0.715 J-0.5998
G2 X495.5108 Y260.5868 I0.4602 J-0.7948
G2 X495.8294 I0.1593 J-0.9365
G2 X496.1325 Y260.4767 I-0.1567 J-0.9039
G3 X496.1327 Y260.4766 I0.0376 J0.0649
G2 X496.3797 Y260.269 I-0.4583 J-0.796
G3 X496.3803 Y260.2682 I0.0576 J0.048
G2 X496.5382 Y259.9951 I-0.6507 J-0.5583
G2 X496.575 Y259.838 I-0.9267 J-0.3002
G3 X496.5757 Y259.8343 I0.0742 J0.011
G2 X496.586 Y259.7573 I-0.5895 J-0.1183
G3 X496.5863 Y259.7545 I0.0748 J0.0052
G1 X496.5948 Y259.6743
G2 X496.5753 Y259.5147 I-1.7281 J0.1304
G3 X496.575 Y259.513 I0.0739 J-0.0126
G2 X496.5382 Y259.3559 I-0.9392 J0.1375
G2 X496.3805 Y259.0831 I-0.7929 J0.2762
G3 X496.3801 Y259.0827 I0.0567 J-0.049
G2 X496.1324 Y258.8744 I-0.742 J0.631
G2 X495.8291 Y258.7643 I-0.4653 J0.8095
G3 X495.829 I0.013 J-0.0739
G2 X495.5113 I-0.1588 J0.8917
G1 X495.5112
G2 X495.2075 Y258.8745 I0.1634 J0.9235
G2 X494.9605 Y259.0822 I0.4608 J0.799
G2 X494.8014 Y259.3577 I0.7116 J0.5946
G2 X494.7451 Y259.6756 I0.8759 J0.3191
G2 X494.7456 Y259.7042 I0.9236 J0.0002
G0 Z0.1
G0 X496.6649 Y263.1871
G1 F1000.0 Z-0.1
G1 F400.0 Y268.9371
G1 X499.7552
G1 Y263.1871
G1 X496.6649
G0 Z0.1
G0 X501.524
G1 F1000.0 Z-0.1
G1 F400.0 Y272.9871
G1 X520.374
G1 Y259.1371
G1 X501.524
G1 Y263.1871
G0 Z0.1
G0 Y274.2794
G1 F1000.0 Z-0.1
G1 F400.0 Y288.1294
G1 X520.374
G1 Y274.2794
G1 X501.524
G0 Z0.1
G0 X499.7333 Y278.3294
G1 F1000.0 Z-0.1
G1 F400.0 X496.643
G1 Y284.0794
G1 X499.7333
G1 Y278.3294
G0 Z0.1
G0 X501.524 Y289.7104
G1 F1000.0 Z-0.1
G1 F400.0 Y303.5604
G1 X520.374
G1 Y289.7104
G1 X501.524
G0 Z0.1
G0 X499.7333 Y293.6095
G1 F1000.0 Z-0.1
G1 F400.0 X496.643
G1 Y299.3595
G1 X499.7333
G1 Y293.6095
G0 Z0.1
G0 X501.524 Y304.7104
G1 F1000.0 Z-0.1
G1 F400.0 Y318.5604
G1 X520.374
G1 Y304.7104
G1 X501.524
G0 Z0.1
G0 X499.6655 Y308.861
G1 F1000.0 Z-0.1
G1 F400.0 X496.5752
G1 Y314.611
G1 X499.6655
G1 Y308.861
G0 Z0.1
G0 X496.0378 Y317.2467
G1 F1000.0 Z-0.1
G2 F400.0 X495.8291 Y317.1841 I-0.3707 J0.857
G3 X495.829 I0.013 J-0.0739
G2 X495.5113 I-0.1588 J0.8917
G1 X495.5112
G2 X495.2075 Y317.2944 I0.1634 J0.9235
G2 X494.9605 Y317.502 I0.4608 J0.799
G2 X494.8014 Y317.7775 I0.7116 J0.5946
G2 X494.7451 Y318.0954 I0.8759 J0.3191
G2 X494.8014 Y318.4132 I0.9236 J0.0002
G2 X494.9605 Y318.6887 I0.8704 J-0.3188
G2 X495.2077 Y318.8965 I0.715 J-0.5998
G2 X495.5108 Y319.0066 I0.4602 J-0.7948
G2 X495.8294 I0.1593 J-0.9365
G2 X496.1325 Y318.8965 I-0.1567 J-0.9039
G3 X496.1327 Y318.8964 I0.0376 J0.0649
G2 X496.3797 Y318.6888 I-0.4583 J-0.796
G3 X496.3803 Y318.6881 I0.0576 J0.048
G2 X496.5382 Y318.415 I-0.6507 J-0.5583
G2 X496.575 Y318.2578 I-0.9267 J-0.3002
G3 X496.5757 Y318.2541 I0.0742 J0.011
G2 X496.586 Y318.1771 I-0.5895 J-0.1183
G3 X496.5863 Y318.1743 I0.0748 J0.0052
G1 X496.5948 Y318.0941
G2 X496.5753 Y317.9345 I-1.7281 J0.1304
G3 X496.575 Y317.9328 I0.0739 J-0.0126
G2 X496.5382 Y317.7757 I-0.9392 J0.1375
G2 X496.3805 Y317.5029 I-0.7929 J0.2762
G3 X496.3801 Y317.5025 I0.0567 J-0.049
G2 X496.1324 Y317.2942 I-0.742 J0.631
G2 X496.0378 Y317.2467 I-0.4653 J0.8095
G0 Z0.1
G0 X522.0429 Y314.611
G1 F1000.0 Z-0.1
G1 F400.0 X525.1333
G1 Y308.861
G1 X522.0429
G1 Y314.611
G0 Z0.1
G0 X531.6228 Y317.802
G1 F1000.0 Z-0.1
G2 F400.0 X531.575 Y318.0954 I0.8844 J0.2946
G2 X531.6313 Y318.4132 I0.9236 J0.0002
G2 X531.7904 Y318.6887 I0.8704 J-0.3188
G2 X532.0376 Y318.8965 I0.715 J-0.5998
G2 X532.3407 Y319.0066 I0.4602 J-0.7948
G2 X532.6593 I0.1593 J-0.9365
G2 X532.9624 Y318.8965 I-0.1567 J-0.9039
G3 X532.9626 Y318.8964 I0.0376 J0.0649
G2 X533.2096 Y318.6888 I-0.4583 J-0.796
G3 X533.2102 Y318.6881 I0.0576 J0.048
G2 X533.3681 Y318.415 I-0.6507 J-0.5583
G2 X533.4049 Y318.2578 I-0.9267 J-0.3002
G3 X533.4056 Y318.2541 I0.0742 J0.011
G2 X533.4159 Y318.1771 I-0.5895 J-0.1183
G3 X533.4162 Y318.1743 I0.0748 J0.0052
G1 X533.4247 Y318.0941
G2 X533.4052 Y317.9345 I-1.7281 J0.1304
G3 X533.4049 Y317.9328 I0.0739 J-0.0126
G2 X533.3681 Y317.7757 I-0.9392 J0.1375
G2 X533.2104 Y317.5029 I-0.7929 J0.2762
G3 X533.21 Y317.5025 I0.0567 J-0.049
G2 X532.9623 Y317.2942 I-0.742 J0.631
G2 X532.659 Y317.1841 I-0.4653 J0.8095
G3 X532.6589 I0.013 J-0.0739
G2 X532.3412 I-0.1588 J0.8917
G1 X532.3411
G2 X532.0374 Y317.2944 I0.1634 J0.9235
G2 X531.7904 Y317.502 I0.4608 J0.799
G2 X531.6313 Y317.7775 I0.7116 J0.5946
G2 X531.6228 Y317.802 I0.8759 J0.3191
G0 Z0.1
G0 X539.1793 Y325.847
G1 F1000.0 Z-0.1
G2 F400.0 X539.1029 Y325.928 I0.6315 J0.6723
G2 X538.9438 Y326.2035 I0.7116 J0.5946
G2 X538.8875 Y326.5214 I0.8759 J0.3191
G2 X538.9438 Y326.8392 I0.9236 J0.0002
G2 X539.1029 Y327.1147 I0.8704 J-0.3188
G2 X539.3501 Y327.3225 I0.715 J-0.5998
G2 X539.6532 Y327.4326 I0.4602 J-0.7948
G2 X539.9718 I0.1593 J-0.9365
G2 X540.2749 Y327.3225 I-0.1567 J-0.9039
G3 X540.2751 Y327.3224 I0.0376 J0.0649
G2 X540.522 Y327.1148 I-0.4583 J-0.796
G3 X540.5227 Y327.114 I0.0576 J0.048
G2 X540.6806 Y326.841 I-0.6507 J-0.5583
G2 X540.7174 Y326.6838 I-0.9267 J-0.3002
G3 X540.7181 Y326.6801 I0.0742 J0.011
G2 X540.7284 Y326.6031 I-0.5895 J-0.1183
G3 X540.7286 Y326.6003 I0.0748 J0.0052
G1 X540.7372 Y326.5201
G2 X540.7177 Y326.3605 I-1.7281 J0.1304
G3 X540.7174 Y326.3588 I0.0739 J-0.0126
G2 X540.6806 Y326.2017 I-0.9392 J0.1375
G2 X540.5229 Y325.9289 I-0.7929 J0.2762
G3 X540.5225 Y325.9285 I0.0567 J-0.049
G2 X540.2748 Y325.7202 I-0.742 J0.631
G2 X539.9715 Y325.6101 I-0.4653 J0.8095
G3 X539.9713 I0.013 J-0.0739
G2 X539.6537 I-0.1588 J0.8917
G1 X539.6536
G2 X539.3499 Y325.7204 I0.1634 J0.9235
G2 X539.1793 Y325.847 I0.4608 J0.799
G0 Z0.1
G0 X525.1333 Y299.3595
G1 F1000.0 Z-0.1
G1 F400.0 Y293.6095
G1 X522.0429
G1 Y299.3595
G1 X525.1333
G0 Z0.1
G0 Y284.0794
G1 F1000.0 Z-0.1
G1 F400.0 Y278.3294
G1 X522.0429
G1 Y284.0794
G1 X525.1333
G0 Z0.1
G0 Y268.9371
G1 F1000.0 Z-0.1
G1 F400.0 Y263.1871
G1 X522.0429
G1 Y268.9371
G1 X525.1333
G0 Z0.1
G0 X531.9244 Y260.3995
G1 F1000.0 Z-0.1
G2 F400.0 X532.0376 Y260.4767 I0.581 J-0.7304
G2 X532.3407 Y260.5868 I0.4602 J-0.7948
G2 X532.6593 I0.1593 J-0.9365
G2 X532.9624 Y260.4767 I-0.1567 J-0.9039
G3 X532.9626 Y260.4766 I0.0376 J0.0649
G2 X533.2096 Y260.269 I-0.4583 J-0.796
G3 X533.2102 Y260.2682 I0.0576 J0.048
G2 X533.3681 Y259.9951 I-0.6507 J-0.5583
G2 X533.4049 Y259.838 I-0.9267 J-0.3002
G3 X533.4056 Y259.8343 I0.0742 J0.011
G2 X533.4159 Y259.7573 I-0.5895 J-0.1183
G3 X533.4162 Y259.7545 I0.0748 J0.0052
G1 X533.4247 Y259.6743
G2 X533.4052 Y259.5147 I-1.7281 J0.1304
G3 X533.4049 Y259.513 I0.0739 J-0.0126
G2 X533.3681 Y259.3559 I-0.9392 J0.1375
G2 X533.2104 Y259.0831 I-0.7929 J0.2762
G3 X533.21 Y259.0827 I0.0567 J-0.049
G2 X532.9623 Y258.8744 I-0.742 J0.631
G2 X532.659 Y258.7643 I-0.4653 J0.8095
G3 X532.6589 I0.013 J-0.0739
G2 X532.3412 I-0.1588 J0.8917
G1 X532.3411
G2 X532.0374 Y258.8745 I0.1634 J0.9235
G2 X531.7904 Y259.0822 I0.4608 J0.799
G2 X531.6313 Y259.3577 I0.7116 J0.5946
G2 X531.575 Y259.6756 I0.8759 J0.3191
G2 X531.6313 Y259.9934 I0.9236 J0.0002
G2 X531.7904 Y260.2689 I0.8704 J-0.3188
G2 X531.9244 Y260.3995 I0.715 J-0.5998
G0 Z0.1
G0 X539.1576 Y253.1745
G1 F1000.0 Z-0.1
G2 F400.0 X539.3501 Y253.3225 I0.6603 J-0.6596
G2 X539.6532 Y253.4326 I0.4602 J-0.7948
G2 X539.9718 I0.1593 J-0.9365
G2 X540.2749 Y253.3225 I-0.1567 J-0.9039
G3 X540.2751 Y253.3224 I0.0376 J0.0649
G2 X540.522 Y253.1148 I-0.4583 J-0.796
G3 X540.5227 Y253.1141 I0.0576 J0.048
G2 X540.6806 Y252.841 I-0.6507 J-0.5583
G2 X540.7174 Y252.6838 I-0.9267 J-0.3002
G3 X540.7181 Y252.6801 I0.0742 J0.011
G2 X540.7284 Y252.6031 I-0.5895 J-0.1183
G3 X540.7286 Y252.6003 I0.0748 J0.0052
G1 X540.7372 Y252.5201
G2 X540.7177 Y252.3605 I-1.7281 J0.1304
G3 X540.7174 Y252.3588 I0.0739 J-0.0126
G2 X540.6806 Y252.2017 I-0.9392 J0.1375
G2 X540.5229 Y251.9289 I-0.7929 J0.2762
G3 X540.5225 Y251.9285 I0.0567 J-0.049
G2 X540.2748 Y251.7202 I-0.742 J0.631
G2 X539.9715 Y251.6101 I-0.4653 J0.8095
G3 X539.9713 I0.013 J-0.0739
G2 X539.6537 I-0.1588 J0.8917
G1 X539.6536
G2 X539.3499 Y251.7204 I0.1634 J0.9235
G2 X539.1029 Y251.928 I0.4608 J0.799
G2 X538.9438 Y252.2035 I0.7116 J0.5946
G2 X538.8875 Y252.5214 I0.8759 J0.3191
G2 X538.9438 Y252.8392 I0.9236 J0.0002
G2 X539.1029 Y253.1147 I0.8704 J-0.3188
G2 X539.1576 Y253.1745 I0.715 J-0.5998
G0 Z0.1
G0 X375.1179 Y260.4012
G1 F1000.0 Z-0.1
G2 F400.0 X375.0983 Y260.2415 I-1.7281 J0.1304
G3 X375.0981 Y260.2398 I0.0739 J-0.0126
G2 X375.0612 Y260.0828 I-0.9392 J0.1375
G2 X374.9036 Y259.81 I-0.7929 J0.2762
G3 X374.9032 Y259.8095 I0.0567 J-0.049
G2 X374.6555 Y259.6012 I-0.742 J0.631
G2 X374.3521 Y259.4912 I-0.4653 J0.8095
G3 X374.352 I0.013 J-0.0739
G2 X374.0343 I-0.1588 J0.8917
G2 X373.7306 Y259.6014 I0.1634 J0.9235
G2 X373.4836 Y259.809 I0.4608 J0.799
G2 X373.3245 Y260.0846 I0.7116 J0.5946
G2 X373.2682 Y260.4025 I0.8759 J0.3191
G2 X373.3245 Y260.7203 I0.9236 J0.0002
G2 X373.4835 Y260.9958 I0.8704 J-0.3188
G2 X373.7308 Y261.2036 I0.715 J-0.5998
G2 X374.0339 Y261.3136 I0.4602 J-0.7948
G2 X374.3525 I0.1593 J-0.9365
G2 X374.6556 Y261.2036 I-0.1567 J-0.9039
G3 X374.6557 Y261.2035 I0.0376 J0.0649
G2 X374.9027 Y260.9959 I-0.4583 J-0.796
G3 X374.9034 Y260.9951 I0.0576 J0.048
G2 X375.0612 Y260.722 I-0.6507 J-0.5583
G2 X375.0981 Y260.5649 I-0.9267 J-0.3002
G3 X375.0987 Y260.5612 I0.0742 J0.011
G2 X375.1091 Y260.4842 I-0.5895 J-0.1183
G3 X375.1093 Y260.4814 I0.0748 J0.0052
G1 X375.1179 Y260.4012
G0 Z0.1
G0 X370.0843 Y253.2766
G1 F1000.0 Z-0.1
G2 F400.0 X370.2596 Y253.1148 I-0.53 J-0.7502
G3 X370.2602 Y253.1141 I0.0576 J0.048
G2 X370.4181 Y252.841 I-0.6507 J-0.5583
G2 X370.4549 Y252.6838 I-0.9267 J-0.3002
G3 X370.4556 Y252.6801 I0.0742 J0.011
G2 X370.4659 Y252.6031 I-0.5895 J-0.1183
G3 X370.4662 Y252.6003 I0.0748 J0.0052
G1 X370.4747 Y252.5201
G2 X370.4552 Y252.3605 I-1.7281 J0.1304
G3 X370.4549 Y252.3588 I0.0739 J-0.0126
G2 X370.4181 Y252.2017 I-0.9392 J0.1375
G2 X370.2604 Y251.9289 I-0.7929 J0.2762
G3 X370.26 Y251.9285 I0.0567 J-0.049
G2 X370.0123 Y251.7202 I-0.742 J0.631
G2 X369.709 Y251.6101 I-0.4653 J0.8095
G3 X369.7088 I0.013 J-0.0739
G2 X369.3912 I-0.1588 J0.8917
G1 X369.3911
G2 X369.0874 Y251.7204 I0.1634 J0.9235
G2 X368.8404 Y251.928 I0.4608 J0.799
G2 X368.6813 Y252.2035 I0.7116 J0.5946
G2 X368.625 Y252.5214 I0.8759 J0.3191
G2 X368.6813 Y252.8392 I0.9236 J0.0002
G2 X368.8404 Y253.1147 I0.8704 J-0.3188
G2 X369.0876 Y253.3225 I0.715 J-0.5998
G2 X369.3907 Y253.4326 I0.4602 J-0.7948
G2 X369.7093 I0.1593 J-0.9365
G2 X370.0124 Y253.3225 I-0.1567 J-0.9039
G3 X370.0126 Y253.3224 I0.0376 J0.0649
G2 X370.0843 Y253.2766 I-0.4583 J-0.796
( AP outer )
S1000
G0 Z0.1
G0 X366.6268 Y329.5214
G1 F1000.0 Z-0.1
G1 F400.0 X366.6253 Y311.8003
G1 Y294.0793
G1 X366.6238 Y276.3582
G1 Y258.6371
G1 X366.6223 Y249.5214
G3 X366.6973 Y249.4464 I0.075 J0.0
G1 X383.2484
G1 X399.7995
G1 X416.3506
G1 X432.9017
G1 X449.4528
G1 X466.0039
G1 X482.555
G1 X499.1061
G1 X515.6588
G1 X532.2099
G1 X542.8406
G3 X542.9156 Y249.5214 I0.0 J0.075
G1 Y267.2425
G1 X542.9136 Y284.9635
G1 Y302.6846
G1 X542.9116 Y320.4057
G1 Y329.5214
G3 X542.8366 Y329.5964 I-0.075 J0.0
G1 X526.2867
G1 X509.7356
G1 X493.1845
G1 X476.6334
G1 X460.0823
G1 X443.5312
G1 X426.9801
G1 X410.429
G1 X393.8779
G1 X377.3271
G1 X366.7029
G1 X366.7018
G3 X366.6268 Y329.5214 I0.0 J-0.075
G0 Z0.1
M5
M30
