( Made using CamBam - http://www.cambam.co.uk )
( CutJob01 7/8/2019 9:28:32 PM )
( T0 : 0.15 )
G21 G90 G64 G40
G0 Z0.1
( T0 : 0.15 )
T0 M6
( Copilot_side inner )
G17
M3 S1000
G0 X649.3234 Y462.7437
G1 F1000.0 Z-0.1
G1 F400.0 Y373.3445
G1 X561.6236
G1 Y462.7437
G1 X649.3234
G0 Z0.1
G0 Y483.23
G1 F1000.0 Z-0.1
G1 F400.0 X562.0385
G1 Y520.6416
G1 X653.6849
G1 Y483.23
G1 X649.3234
G0 Z0.1
G0 Y354.7325
G1 F1000.0 Z-0.1
G1 F400.0 Y265.3333
G1 X561.6236
G1 Y354.7325
G1 X649.3234
G0 Z0.1
G0 X648.887 Y240.5774
G1 F1000.0 Z-0.1
G1 F400.0 X649.0362 Y192.1296
G1 X595.059 Y191.8254
G3 X594.9845 Y191.7514 I0.0004 J-0.075
G1 X594.1515 Y127.2111
G1 X562.0602 Y127.2918
G1 Y240.5769
G1 X648.887 Y240.5774
( Copilot_side outer )
S1000
G0 Z0.1
G0 X665.6274 Y533.925
G1 F1000.0 Z-0.1
G1 F400.0 X547.65
G3 X547.575 Y533.85 I0.0 J-0.075
G1 Y0.3544
G3 X547.65 Y0.2794 I0.075 J0.0
G1 X665.6274
G3 X665.7024 Y0.3544 I0.0 J0.075
G1 Y533.85
G3 X665.6274 Y533.925 I-0.075 J0.0
G0 Z0.1
M5
M30
