( Made using CamBam - http://www.cambam.co.uk )
( CutJob01 7/8/2019 9:26:04 PM )
( T0 : 0.0 )
G21 G90 G64 G40
G0 Z0.1
( T0 : 0.0 )
T0 M6
( Text )
G61 G17
M3 S1000
G0 X208.464 Y163.4669
G1 F1000.0 Z-0.1
G1 F1500.0 X208.1913 Y163.3305
G1 X207.9186 Y163.0578
G1 X207.7822 Y162.7851
G1 Y162.2396
G1 X207.9186 Y161.9669
G1 X208.1913 Y161.6942
G1 X208.464 Y161.5578
G1 X208.8731 Y161.4215
G1 X209.5549
G1 X209.964 Y161.5578
G1 X210.2367 Y161.6942
G1 X210.5095 Y161.9669
G1 X210.6458 Y162.2396
G1 Y162.7851
G1 X210.5095 Y163.0578
G1 X210.2367 Y163.3305
G1 X209.964 Y163.4669
G0 Z0.1
G0 X210.6458 Y164.4215
G1 F1000.0 Z-0.1
G1 F1500.0 X207.7822
G1 Y165.6487
G1 X207.9186 Y166.0578
G1 X208.0549 Y166.1942
G1 X208.3276 Y166.3305
G1 X208.6004
G1 X208.8731 Y166.1942
G1 X209.0095 Y166.0578
G1 X209.1458 Y165.6487
G1 Y164.4215
G0 Z0.1
G0 Y165.376
G1 F1000.0 Z-0.1
G1 F1500.0 X210.6458 Y166.3305
G0 Z0.1
G0 X210.2367 Y167.1487
G1 F1000.0 Z-0.1
G1 F1500.0 X210.5095 Y167.4215
G1 X210.6458 Y167.8305
G1 Y168.376
G1 X210.5095 Y168.7851
G1 X210.2367 Y169.0578
G1 X209.8276
G1 X209.5549 Y168.9215
G1 X209.4186 Y168.7851
G1 X209.2822 Y168.5124
G1 X209.0095 Y167.6942
G1 X208.8731 Y167.4215
G1 X208.7367 Y167.2851
G1 X208.464 Y167.1487
G1 X208.1913
G1 X207.9186 Y167.4215
G1 X207.7822 Y167.8305
G1 Y168.376
G1 X207.9186 Y168.7851
G1 X208.1913 Y169.0578
G0 Z0.1
G0 X207.7822 Y194.2146
G1 F1000.0 Z-0.1
G1 F1500.0 X210.6458
G0 Z0.1
G0 X209.1458
G1 F1000.0 Z-0.1
G1 F1500.0 Y196.1237
G0 Z0.1
G0 Y197.2146
G1 F1000.0 Z-0.1
G1 F1500.0 X207.7822
G1 Y198.1691
G1 X207.9186 Y198.5782
G1 X208.1913 Y198.851
G1 X208.464 Y198.9873
G1 X208.8731 Y199.1237
G1 X209.5549
G1 X209.964 Y198.9873
G1 X210.2367 Y198.851
G1 X210.5095 Y198.5782
G1 X210.6458 Y198.1691
G1 Y197.2146
G1 X209.1458
G0 Z0.1
G0 X207.7822 Y196.1237
G1 F1000.0 Z-0.1
G1 F1500.0 X210.6458
G0 Z0.1
G0 X209.5549 Y201.3055
G1 F1000.0 Z-0.1
G1 F1500.0 Y201.9873
G1 X209.964
G1 X210.2367 Y201.851
G1 X210.5095 Y201.5782
G1 X210.6458 Y201.3055
G1 Y200.76
G1 X210.5095 Y200.4873
G1 X210.2367 Y200.2146
G1 X209.964 Y200.0782
G1 X209.5549 Y199.9419
G1 X208.8731
G1 X208.464 Y200.0782
G1 X208.1913 Y200.2146
G1 X207.9186 Y200.4873
G1 X207.7822 Y200.76
G1 Y201.3055
G1 X207.9186 Y201.5782
G1 X208.1913 Y201.851
G1 X208.464 Y201.9873
( Inner )
G64
S1000
G0 Z0.1
G0 X209.5012 Y212.9247
G1 F1000.0 Z-0.1
G2 F400.0 X209.6609 Y212.9052 I-0.1304 J-1.7281
G3 X209.6626 Y212.9049 I0.0126 J0.0739
G2 X209.8196 Y212.8681 I-0.1375 J-0.9392
G2 X210.0925 Y212.7104 I-0.2762 J-0.7929
G3 X210.0929 Y212.71 I0.049 J0.0567
G2 X210.3012 Y212.4623 I-0.631 J-0.742
G2 X210.4112 Y212.159 I-0.8095 J-0.4653
G3 X210.4113 Y212.1588 I0.0739 J0.013
G2 Y211.8412 I-0.8917 J-0.1588
G1 Y211.8411
G2 X210.301 Y211.5374 I-0.9235 J0.1634
G2 X210.0934 Y211.2904 I-0.799 J0.4608
G2 X209.8179 Y211.1313 I-0.5946 J0.7116
G2 X209.4999 Y211.075 I-0.3191 J0.8759
G2 X209.1822 Y211.1313 I-0.0002 J0.9236
G2 X208.9066 Y211.2904 I0.3188 J0.8704
G2 X208.6989 Y211.5376 I0.5998 J0.715
G2 X208.5888 Y211.8407 I0.7948 J0.4602
G2 Y212.1593 I0.9365 J0.1593
G2 X208.6989 Y212.4624 I0.9039 J-0.1567
G3 X208.699 Y212.4626 I-0.0649 J0.0376
G2 X208.9065 Y212.7096 I0.796 J-0.4583
G3 X208.9073 Y212.7102 I-0.048 J0.0576
G2 X209.1804 Y212.8681 I0.5583 J-0.6507
G2 X209.3375 Y212.9049 I0.3002 J-0.9267
G3 X209.3413 Y212.9056 I-0.011 J0.0742
G2 X209.4183 Y212.9159 I0.1183 J-0.5895
G3 X209.4211 Y212.9162 I-0.0052 J0.0748
G1 X209.5012 Y212.9247
G0 Z0.1
G0 X218.5394 Y200.8251
G1 F1000.0 Z-0.1
G2 F400.0 X218.8467 Y201.0279 I1.8942 J-2.5358
G3 X218.8474 Y201.0284 I-0.0376 J0.0649
G2 X219.3744 Y201.27 I1.3946 J-2.3456
G2 X219.9488 Y201.405 I1.0945 J-3.3682
G3 X219.949 I-0.011 J0.0742
G2 X220.245 Y201.4448 I1.3634 J-9.0345
G1 X220.5372 Y201.4759
G2 X220.6025 Y201.4691 I-0.1861 J-2.1033
G3 X220.6032 Y201.469 I0.0089 J0.0745
G1 X220.8842 Y201.4381
G3 X220.8846 Y201.438 I0.0082 J0.0745
G2 X221.0903 Y201.4102 I-0.3576 J-3.4185
G3 X221.0922 Y201.4099 I0.0123 J0.074
G2 X221.6981 Y201.2701 I-0.488 J-3.4988
G2 X222.2257 Y201.0282 I-0.9838 J-2.8416
G2 X222.7016 Y200.6904 I-1.8548 J-3.117
G2 X223.4596 Y199.7886 I-2.2045 J-2.6223
G2 X223.8615 Y198.6815 I-2.9517 J-1.6981
G2 Y197.5205 I-3.3692 J-0.5805
G2 X223.4595 Y196.4132 I-3.3674 J0.596
G2 X222.7017 Y195.5116 I-2.916 J1.6816
G2 X221.6963 Y194.9311 I-2.1693 J2.5963
G2 X220.5364 Y194.7256 I-1.164 J3.1944
G2 X219.3766 Y194.9311 I-0.0009 J3.3706
G2 X218.3712 Y195.5116 I1.1631 J3.1756
G2 X217.6133 Y196.4134 I2.1875 J2.6079
G2 X217.2114 Y197.5204 I2.9015 J1.6799
G3 X217.2113 Y197.5206 I-0.0739 J-0.0128
G2 Y198.6814 I3.2967 J0.5804
G3 X217.2114 Y198.6816 I-0.0739 J0.013
G2 X217.6132 Y199.7884 I3.3001 J-0.5717
G2 X218.3714 Y200.6905 I2.9922 J-1.7452
G3 X218.3719 Y200.6909 I-0.0484 J0.0573
G2 X218.5394 Y200.8251 I2.0617 J-2.4016
G0 Z0.1
G0 X225.9632 Y211.2467
G1 F1000.0 Z-0.1
G2 F400.0 X225.9066 Y211.2904 I0.5378 J0.7549
G2 X225.6989 Y211.5376 I0.5998 J0.715
G2 X225.5888 Y211.8407 I0.7948 J0.4602
G2 Y212.1593 I0.9365 J0.1593
G2 X225.6989 Y212.4624 I0.9039 J-0.1567
G3 X225.699 Y212.4626 I-0.0649 J0.0376
G2 X225.9065 Y212.7096 I0.796 J-0.4583
G3 X225.9073 Y212.7102 I-0.048 J0.0576
G2 X226.1804 Y212.8681 I0.5583 J-0.6507
G2 X226.3375 Y212.9049 I0.3002 J-0.9267
G3 X226.3413 Y212.9056 I-0.011 J0.0742
G2 X226.4183 Y212.9159 I0.1183 J-0.5895
G3 X226.4211 Y212.9162 I-0.0052 J0.0748
G1 X226.5012 Y212.9247
G2 X226.6609 Y212.9052 I-0.1304 J-1.7281
G3 X226.6626 Y212.9049 I0.0126 J0.0739
G2 X226.8196 Y212.8681 I-0.1375 J-0.9392
G2 X227.0925 Y212.7104 I-0.2762 J-0.7929
G3 X227.0929 Y212.71 I0.049 J0.0567
G2 X227.3012 Y212.4623 I-0.631 J-0.742
G2 X227.4113 Y212.159 I-0.8095 J-0.4653
G3 Y212.1588 I0.0739 J0.013
G2 Y211.8412 I-0.8917 J-0.1588
G1 Y211.8411
G2 X227.301 Y211.5374 I-0.9235 J0.1634
G2 X227.0934 Y211.2904 I-0.799 J0.4608
G2 X226.8179 Y211.1313 I-0.5946 J0.7116
G2 X226.4999 Y211.075 I-0.3191 J0.8759
G2 X226.1822 Y211.1313 I-0.0002 J0.9236
G2 X225.9632 Y211.2467 I0.3188 J0.8704
G0 Z0.1
G0 X220.9296 Y168.5717
G1 F1000.0 Z-0.1
G2 F400.0 X221.0903 Y168.5489 I-0.4026 J-3.4135
G3 X221.0922 Y168.5486 I0.0123 J0.074
G2 X221.6981 Y168.4088 I-0.488 J-3.4988
G2 X222.2257 Y168.1669 I-0.9838 J-2.8416
G2 X222.7016 Y167.8291 I-1.8548 J-3.117
G2 X223.4596 Y166.9273 I-2.2045 J-2.6223
G2 X223.8615 Y165.8202 I-2.9517 J-1.6981
G2 Y164.6591 I-3.3692 J-0.5805
G2 X223.4595 Y163.5519 I-3.3674 J0.596
G2 X222.7017 Y162.6503 I-2.916 J1.6816
G2 X221.6963 Y162.0698 I-2.1693 J2.5963
G2 X220.5364 Y161.8643 I-1.164 J3.1944
G2 X219.3766 Y162.0698 I-0.0009 J3.3706
G2 X218.3712 Y162.6503 I1.1631 J3.1756
G2 X217.6133 Y163.5521 I2.1875 J2.6079
G2 X217.2114 Y164.659 I2.9015 J1.6799
G3 X217.2113 Y164.6592 I-0.0739 J-0.0128
G2 Y165.82 I3.2967 J0.5804
G3 X217.2114 Y165.8202 I-0.0739 J0.013
G2 X217.6132 Y166.9271 I3.3001 J-0.5717
G2 X218.3714 Y167.8292 I2.9922 J-1.7452
G3 X218.3719 Y167.8296 I-0.0484 J0.0573
G2 X218.8467 Y168.1666 I2.0617 J-2.4016
G3 X218.8474 Y168.167 I-0.0376 J0.0649
G2 X219.3744 Y168.4087 I1.3946 J-2.3456
G2 X219.9488 Y168.5437 I1.0945 J-3.3682
G3 X219.949 I-0.011 J0.0742
G2 X220.245 Y168.5834 I1.3634 J-9.0345
G1 X220.5372 Y168.6146
G2 X220.6025 Y168.6078 I-0.1861 J-2.1033
G3 X220.6032 Y168.6077 I0.0089 J0.0745
G1 X220.8842 Y168.5768
G3 X220.8846 Y168.5767 I0.0082 J0.0745
G2 X220.9296 Y168.5717 I-0.3576 J-3.4185
G0 Z0.1
G0 X226.1881 Y151.8705
G1 F1000.0 Z-0.1
G2 F400.0 X226.3375 Y151.9049 I0.2926 J-0.9292
G3 X226.3413 Y151.9056 I-0.011 J0.0742
G2 X226.4183 Y151.9159 I0.1183 J-0.5895
G3 X226.4211 Y151.9162 I-0.0052 J0.0748
G1 X226.5012 Y151.9247
G2 X226.6609 Y151.9052 I-0.1304 J-1.7281
G3 X226.6626 Y151.9049 I0.0126 J0.0739
G2 X226.8196 Y151.8681 I-0.1375 J-0.9392
G2 X227.0925 Y151.7104 I-0.2762 J-0.7929
G3 X227.0929 Y151.71 I0.049 J0.0567
G2 X227.3012 Y151.4623 I-0.631 J-0.742
G2 X227.4113 Y151.159 I-0.8095 J-0.4653
G3 Y151.1588 I0.0739 J0.013
G2 Y150.8412 I-0.8917 J-0.1588
G1 Y150.8411
G2 X227.301 Y150.5374 I-0.9235 J0.1634
G2 X227.0934 Y150.2904 I-0.799 J0.4608
G2 X226.8179 Y150.1313 I-0.5946 J0.7116
G2 X226.4999 Y150.075 I-0.3191 J0.8759
G2 X226.1822 Y150.1313 I-0.0002 J0.9236
G2 X225.9066 Y150.2904 I0.3188 J0.8704
G2 X225.6989 Y150.5376 I0.5998 J0.715
G2 X225.5888 Y150.8407 I0.7948 J0.4602
G2 Y151.1593 I0.9365 J0.1593
G2 X225.6989 Y151.4624 I0.9039 J-0.1567
G3 X225.699 Y151.4626 I-0.0649 J0.0376
G2 X225.9065 Y151.7096 I0.796 J-0.4583
G3 X225.9073 Y151.7102 I-0.048 J0.0576
G2 X226.1804 Y151.8681 I0.5583 J-0.6507
G2 X226.1881 Y151.8705 I0.3002 J-0.9267
G0 Z0.1
G0 X210.4241 Y151.0472
G1 F1000.0 Z-0.1
G2 F400.0 X210.4113 Y150.8412 I-0.9045 J-0.0472
G1 Y150.8411
G2 X210.301 Y150.5374 I-0.9235 J0.1634
G2 X210.0934 Y150.2904 I-0.799 J0.4608
G2 X209.8179 Y150.1313 I-0.5946 J0.7116
G2 X209.4999 Y150.075 I-0.3191 J0.8759
G2 X209.1822 Y150.1313 I-0.0002 J0.9236
G2 X208.9066 Y150.2904 I0.3188 J0.8704
G2 X208.6989 Y150.5376 I0.5998 J0.715
G2 X208.5888 Y150.8407 I0.7948 J0.4602
G2 Y151.1593 I0.9365 J0.1593
G2 X208.6989 Y151.4624 I0.9039 J-0.1567
G3 X208.699 Y151.4626 I-0.0649 J0.0376
G2 X208.9065 Y151.7096 I0.796 J-0.4583
G3 X208.9073 Y151.7102 I-0.048 J0.0576
G2 X209.1804 Y151.8681 I0.5583 J-0.6507
G2 X209.3375 Y151.9049 I0.3002 J-0.9267
G3 X209.3413 Y151.9056 I-0.011 J0.0742
G2 X209.4183 Y151.9159 I0.1183 J-0.5895
G3 X209.4211 Y151.9162 I-0.0052 J0.0748
G1 X209.5012 Y151.9247
G2 X209.6609 Y151.9052 I-0.1304 J-1.7281
G3 X209.6626 Y151.9049 I0.0126 J0.0739
G2 X209.8196 Y151.8681 I-0.1375 J-0.9392
G2 X210.0925 Y151.7104 I-0.2762 J-0.7929
G3 X210.0929 Y151.71 I0.049 J0.0567
G2 X210.3012 Y151.4623 I-0.631 J-0.742
G2 X210.4113 Y151.159 I-0.8095 J-0.4653
G3 Y151.1588 I0.0739 J0.013
G2 X210.4241 Y151.0472 I-0.8917 J-0.1588
( Outer CRS_HDG )
S1000
G0 Z0.1
G0 X229.575 Y148.0417
G1 F1000.0 Z-0.1
G1 F400.0 Y150.0048
G1 Y164.6118
G1 Y179.2188
G1 Y193.8257
G1 Y208.4327
G1 Y215.0
G3 X229.5 Y215.075 I-0.075 J0.0
G1 X215.4867
G1 X207.6098
G1 X206.5
G3 X206.425 Y215.0 I0.0 J-0.075
G1 Y200.3931
G1 Y185.7861
G1 Y171.1791
G1 Y156.5721
G1 Y148.0417
G3 X206.5 Y147.9667 I0.075 J0.0
G1 X220.5133
G1 X229.5
G3 X229.575 Y148.0417 I0.0 J0.075
( Text )
G61
S1000
G0 Z0.1
G0 X290.9993 Y206.8295
G1 F1000.0 Z-0.1
G1 F1500.0 X291.2621 Y206.9581
G1 X291.6563 Y207.3441
G1 Y204.6424
G0 Z0.1
G0 X293.233
G1 F1000.0 Z-0.1
G1 F1500.0 X295.5981 Y207.3441
G1 X295.3353 Y207.2154
G1 X294.9411 Y207.0868
G1 X294.5469
G1 X294.1527 Y207.2154
G1 X293.89 Y207.3441
G1 X293.6272
G1 X293.3644 Y207.2154
G1 X293.233 Y206.9581
G1 Y206.7008
G1 X293.4958 Y206.4435
G1 X293.7586
G1 X294.0213 Y206.5722
G1 X294.1527 Y206.8295
G1 Y207.0868
G1 X293.89 Y207.3441
G0 Z0.1
G0 X294.8298 Y205.4242
G1 F1000.0 Z-0.1
G1 F1500.0 X294.8097 Y205.4143
G1 X294.6783 Y205.157
G1 Y204.8997
G1 X294.9411 Y204.6424
G1 X295.2039
G1 X295.4667 Y204.7711
G1 X295.5981 Y205.0284
G1 Y205.2857
G1 X295.3353 Y205.543
G1 X295.0725
G1 X294.8298 Y205.4242
G0 Z0.1
G0 X289.6853 Y207.3441
G1 F1000.0 Z-0.1
G1 F1500.0 Y204.6424
G1 X287.8458 Y207.3441
G1 Y204.6424
G0 Z0.1
G0 X287.8607 Y184.4078
G1 F1000.0 Z-0.1
G1 F1500.0 X289.7168
G0 Z0.1
G0 X289.9819
G1 F1000.0 Z-0.1
G1 F1500.0 X291.838
G0 Z0.1
G0 X290.91
G1 F1000.0 Z-0.1
G1 F1500.0 Y181.6445
G0 Z0.1
G0 X288.7887
G1 F1000.0 Z-0.1
G1 F1500.0 Y184.4078
G0 Z0.1
G0 X287.1978
G1 F1000.0 Z-0.1
G1 F1500.0 Y181.6445
G0 Z0.1
G0 X292.9746 Y184.1023
G1 F1000.0 Z-0.1
G2 F1500.0 X292.9694 Y184.1154 I0.2662 J0.1133
G2 X292.9517 Y184.2148 I0.2717 J0.0998
G2 X292.9694 Y184.3143 I0.2875 J0.0
G2 X293.0196 Y184.4005 I0.2719 J-0.1005
G2 X293.0975 Y184.4655 I0.2244 J-0.1898
G2 X293.1932 Y184.5 I0.1451 J-0.2527
G2 X293.2935 I0.0502 J-0.2971
G2 X293.3892 Y184.4655 I-0.0434 J-0.2703
G2 X293.4671 Y184.4005 I-0.1438 J-0.2516
G2 X293.5173 Y184.3143 I-0.1898 J-0.1681
G2 X293.535 Y184.2148 I-0.4242 J-0.127
G2 X293.5173 Y184.1154 I-0.4643 J0.0316
G2 X293.4671 Y184.0291 I-0.2652 J0.0966
G2 X293.3892 Y183.9641 I-0.2315 J0.1983
G2 X293.2935 Y183.9296 I-0.1541 J0.2776
G2 X293.1932 I-0.0502 J0.2836
G2 X293.0975 Y183.9641 I0.0512 J0.2921
G2 X293.0196 Y184.0291 I0.1439 J0.2517
G2 X292.9746 Y184.1023 I0.2212 J0.1864
G0 Z0.1
G0 X295.7358 Y183.7499
G1 F1000.0 Z-0.1
G1 F1500.0 X295.6032 Y184.013
G1 X295.3381 Y184.2762
G1 X295.0729 Y184.4078
G1 X294.5426
G1 X294.2774 Y184.2762
G1 X294.0123 Y184.013
G1 X293.8797 Y183.7499
G1 X293.7471 Y183.3551
G1 Y182.6972
G1 X293.8797 Y182.3024
G1 X294.0123 Y182.0393
G1 X294.2774 Y181.7761
G1 X294.5426 Y181.6445
G1 X295.0729
G1 X295.3381 Y181.7761
G1 X295.6032 Y182.0393
G1 X295.7358 Y182.3024
G0 Z0.1
G0 X293.9185 Y161.4642
G1 F1000.0 Z-0.1
G1 F1500.0 X294.1897 Y161.1957
G1 Y160.9271
G1 X294.0541 Y160.6586
G1 X293.7829 Y160.5243
G1 X293.5117
G1 X293.2404 Y160.7929
G1 Y161.0614
G1 X293.376 Y161.3299
G1 X293.6473 Y161.4642
G1 X293.9185
G1 X294.1897 Y161.3299
G1 X294.5966 Y161.1957
G1 X295.0034
G1 X295.4103 Y161.3299
G1 X295.6815 Y161.4642
G1 X293.2404 Y158.6446
G0 Z0.1
G0 X292.4267
G1 F1000.0 Z-0.1
G1 F1500.0 X290.5281
G1 X291.8842 Y159.9873
G1 X292.1555 Y160.3901
G1 X292.2911 Y160.6586
G1 Y160.9271
G1 X292.1555 Y161.1957
G1 X292.0199 Y161.3299
G1 X291.7486 Y161.4642
G1 X291.2062
G1 X290.9349 Y161.3299
G1 X290.7993 Y161.1957
G1 X290.6637 Y160.9271
G1 Y160.7929
G0 Z0.1
G0 X289.5787 Y161.4642
G1 F1000.0 Z-0.1
G1 F1500.0 Y158.6446
G1 X287.6801 Y161.4642
G1 Y158.6446
G0 Z0.1
G0 X294.7322 Y158.9131
G1 F1000.0 Z-0.1
G1 F1500.0 X295.0034 Y158.6446
G1 X295.2747
G1 X295.5459 Y158.7789
G1 X295.6815 Y159.0474
G1 Y159.3159
G1 X295.4103 Y159.5845
G1 X295.1391
G1 X294.8678 Y159.4502
G1 X294.7322 Y159.1817
G1 Y158.9131
( Inner )
G64
S1000
G0 Z0.1
G0 X253.0749 Y214.4142
G1 F1000.0 Z-0.1
G1 F400.0 X284.9249
G1 Y198.5642
G1 X253.0749
G1 Y214.4142
G0 Z0.1
G0 X240.9247 Y215.2434
G1 F1000.0 Z-0.1
G2 F400.0 X240.9051 Y215.0837 I-1.7281 J0.1304
G3 X240.9049 Y215.082 I0.0739 J-0.0126
G2 X240.868 Y214.925 I-0.9392 J0.1375
G2 X240.7104 Y214.6522 I-0.7929 J0.2762
G3 X240.71 Y214.6517 I0.0567 J-0.049
G2 X240.4622 Y214.4434 I-0.742 J0.631
G2 X240.1589 Y214.3334 I-0.4653 J0.8095
G3 X240.1588 Y214.3333 I0.013 J-0.0739
G2 X239.8411 I-0.1588 J0.8917
G1 X239.841
G2 X239.5374 Y214.4436 I0.1634 J0.9235
G2 X239.2904 Y214.6512 I0.4608 J0.799
G2 X239.1313 Y214.9267 I0.7116 J0.5946
G2 X239.075 Y215.2447 I0.8759 J0.3191
G2 X239.1313 Y215.5624 I0.9236 J0.0002
G1 X239.1312
G1 X239.1313
G2 X239.2903 Y215.838 I0.8704 J-0.3188
G2 X239.5375 Y216.0457 I0.715 J-0.5998
G2 X239.8407 Y216.1558 I0.4602 J-0.7948
G2 X240.1592 I0.1593 J-0.9365
G2 X240.4624 Y216.0457 I-0.1567 J-0.9039
G3 X240.4625 Y216.0456 I0.0376 J0.0649
G2 X240.7095 Y215.8381 I-0.4583 J-0.796
G3 X240.7102 Y215.8373 I0.0576 J0.048
G2 X240.868 Y215.5642 I-0.6507 J-0.5583
G2 X240.9049 Y215.4071 I-0.9267 J-0.3002
G3 X240.9055 Y215.4033 I0.0742 J0.011
G2 X240.9159 Y215.3263 I-0.5895 J-0.1183
G3 X240.9161 Y215.3235 I0.0748 J0.0052
G1 X240.9247 Y215.2434
G0 Z0.1
G0 X253.0749 Y191.4142
G1 F1000.0 Z-0.1
G1 F400.0 X284.9249
G1 Y175.5642
G1 X253.0749
G1 Y191.4142
G0 Z0.1
G0 Y168.4142
G1 F1000.0 Z-0.1
G1 F400.0 X284.9249
G1 Y152.5642
G1 X253.0749
G1 Y168.4142
G0 Z0.1
G0 X240.5607 Y151.9804
G1 F1000.0 Z-0.1
G2 F400.0 X240.7095 Y151.8381 I-0.5565 J-0.7308
G3 X240.7102 Y151.8373 I0.0576 J0.048
G2 X240.868 Y151.5642 I-0.6507 J-0.5583
G2 X240.9049 Y151.4071 I-0.9267 J-0.3002
G3 X240.9055 Y151.4033 I0.0742 J0.011
G2 X240.9159 Y151.3264 I-0.5895 J-0.1183
G3 X240.9161 Y151.3236 I0.0748 J0.0052
G1 X240.9247 Y151.2434
G2 X240.9051 Y151.0837 I-1.7281 J0.1304
G3 X240.9049 Y151.082 I0.0739 J-0.0126
G2 X240.868 Y150.925 I-0.9392 J0.1375
G2 X240.7104 Y150.6522 I-0.7929 J0.2762
G3 X240.71 Y150.6517 I0.0567 J-0.049
G2 X240.4622 Y150.4434 I-0.742 J0.631
G2 X240.1589 Y150.3334 I-0.4653 J0.8095
G3 X240.1588 Y150.3333 I0.013 J-0.0739
G2 X239.8411 I-0.1588 J0.8917
G1 X239.841 Y150.3334
G2 X239.5374 Y150.4436 I0.1634 J0.9235
G2 X239.2904 Y150.6512 I0.4608 J0.799
G2 X239.1313 Y150.9267 I0.7116 J0.5946
G2 X239.075 Y151.2447 I0.8759 J0.3191
G2 X239.1313 Y151.5624 I0.9236 J0.0002
G1 X239.1312
G1 X239.1313
G2 X239.2903 Y151.838 I0.8704 J-0.3188
G2 X239.5375 Y152.0457 I0.715 J-0.5998
G2 X239.8407 Y152.1558 I0.4602 J-0.7948
G2 X240.1592 I0.1593 J-0.9365
G2 X240.4624 Y152.0457 I-0.1567 J-0.9039
G3 X240.4625 Y152.0456 I0.0376 J0.0649
G2 X240.5607 Y151.9804 I-0.4583 J-0.796
G0 Z0.1
G0 X299.0749 Y152.5642
G1 F1000.0 Z-0.1
G1 F400.0 Y168.4142
G1 X330.9249
G1 Y152.5642
G1 X299.0749
G0 Z0.1
G0 Y175.5642
G1 F1000.0 Z-0.1
G1 F400.0 Y191.4142
G1 X330.9249
G1 Y175.5642
G1 X299.0749
G0 Z0.1
G0 Y198.5642
G1 F1000.0 Z-0.1
G1 F400.0 Y214.4142
G1 X330.9249
G1 Y198.5642
G1 X299.0749
G0 Z0.1
G0 X338.1464 Y214.8883
G1 F1000.0 Z-0.1
G2 F400.0 X338.1313 Y214.9267 I0.8556 J0.3575
G2 X338.075 Y215.2447 I0.8759 J0.3191
G2 X338.1313 Y215.5624 I0.9236 J0.0002
G2 X338.2903 Y215.838 I0.8704 J-0.3188
G2 X338.5376 Y216.0457 I0.715 J-0.5998
G2 X338.8407 Y216.1558 I0.4602 J-0.7948
G2 X339.1593 I0.1593 J-0.9365
G2 X339.4624 Y216.0457 I-0.1567 J-0.9039
G3 X339.4625 Y216.0456 I0.0376 J0.0649
G2 X339.7095 Y215.8381 I-0.4583 J-0.796
G3 X339.7102 Y215.8373 I0.0576 J0.048
G2 X339.868 Y215.5642 I-0.6507 J-0.5583
G2 X339.9049 Y215.4071 I-0.9267 J-0.3002
G3 X339.9055 Y215.4033 I0.0742 J0.011
G2 X339.9159 Y215.3263 I-0.5895 J-0.1183
G3 X339.9161 Y215.3235 I0.0748 J0.0052
G1 X339.9247 Y215.2434
G2 X339.9051 Y215.0837 I-1.7281 J0.1304
G3 X339.9049 Y215.082 I0.0739 J-0.0126
G2 X339.868 Y214.925 I-0.9392 J0.1375
G2 X339.7104 Y214.6522 I-0.7929 J0.2762
G3 X339.71 Y214.6517 I0.0567 J-0.049
G2 X339.4622 Y214.4434 I-0.742 J0.631
G2 X339.1589 Y214.3334 I-0.4653 J0.8095
G3 X339.1588 Y214.3333 I0.013 J-0.0739
G2 X338.8411 I-0.1588 J0.8917
G2 X338.5374 Y214.4436 I0.1634 J0.9235
G2 X338.2904 Y214.6512 I0.4608 J0.799
G2 X338.1464 Y214.8883 I0.7116 J0.5946
G0 Z0.1
G0 X338.9874 Y151.1692
G1 F1000.0 Z-0.1
G2 F400.0 X339.1593 Y151.1558 I0.0125 J-0.9498
G2 X339.4624 Y151.0457 I-0.1567 J-0.9039
G3 X339.4625 Y151.0456 I0.0376 J0.0649
G2 X339.7095 Y150.8381 I-0.4583 J-0.796
G3 X339.7102 Y150.8373 I0.0576 J0.048
G2 X339.868 Y150.5642 I-0.6507 J-0.5583
G2 X339.9049 Y150.4071 I-0.9267 J-0.3002
G3 X339.9055 Y150.4033 I0.0742 J0.011
G2 X339.9159 Y150.3264 I-0.5895 J-0.1183
G3 X339.9161 Y150.3236 I0.0748 J0.0052
G1 X339.9247 Y150.2434
G2 X339.9051 Y150.0837 I-1.7281 J0.1304
G3 X339.9049 Y150.082 I0.0739 J-0.0126
G2 X339.868 Y149.925 I-0.9392 J0.1375
G2 X339.7104 Y149.6522 I-0.7929 J0.2762
G3 X339.71 Y149.6517 I0.0567 J-0.049
G2 X339.4622 Y149.4434 I-0.742 J0.631
G2 X339.1589 Y149.3334 I-0.4653 J0.8095
G3 X339.1588 Y149.3333 I0.013 J-0.0739
G2 X338.8411 I-0.1588 J0.8917
G1 Y149.3334
G2 X338.5374 Y149.4436 I0.1634 J0.9235
G2 X338.2904 Y149.6512 I0.4608 J0.799
G2 X338.1313 Y149.9267 I0.7116 J0.5946
G2 X338.075 Y150.2447 I0.8759 J0.3191
G2 X338.1313 Y150.5624 I0.9236 J0.0002
G2 X338.2903 Y150.838 I0.8704 J-0.3188
G2 X338.5376 Y151.0457 I0.715 J-0.5998
G2 X338.8407 Y151.1558 I0.4602 J-0.7948
G2 X338.9874 Y151.1692 I0.1593 J-0.9365
( Outer Temp )
S1000
G0 Z0.1
G0 X335.053 Y141.1916
G1 F1000.0 Z-0.1
G1 F400.0 X342.053 Y148.1916
G3 X342.0749 Y148.2446 I-0.053 J0.053
G1 Y218.2446
G3 X342.053 Y218.2976 I-0.075 J0.0
G1 X335.053 Y225.2976
G3 X335.0 Y225.3196 I-0.053 J-0.053
G1 X242.9999
G3 X242.943 Y225.2934 I0.0 J-0.075
G1 X236.943 Y218.2934
G3 X236.925 Y218.2446 I0.0569 J-0.0488
G1 Y148.2446
G3 X236.943 Y148.1958 I0.075 J0.0
G1 X242.943 Y141.1958
G3 X242.9999 Y141.1696 I0.0569 J0.0488
G1 X335.0
G3 X335.053 Y141.1916 I0.0 J0.075
( Text )
G61
S1000
G0 Z0.1
G0 X238.6363 Y131.8
G1 F1000.0 Z-0.1
G1 F1500.0 X238.4999 Y132.0727
G1 X238.2272 Y132.3455
G1 X237.9545 Y132.4818
G1 X237.409
G1 X237.1363 Y132.3455
G1 X236.8636 Y132.0727
G1 X236.7272 Y131.8
G1 X236.5908 Y131.3909
G1 Y130.7091
G1 X236.7272 Y130.3
G1 X236.8636 Y130.0273
G1 X237.1363 Y129.7546
G1 X237.409 Y129.6182
G1 X237.9545
G1 X238.2272 Y129.7546
G1 X238.4999 Y130.0273
G1 X238.6363 Y130.3
G0 Z0.1
G0 X239.5908 Y129.6182
G1 F1000.0 Z-0.1
G1 F1500.0 Y132.4818
G1 X240.8181
G1 X241.2272 Y132.3455
G1 X241.3636 Y132.2091
G1 X241.4999 Y131.9364
G1 Y131.6636
G1 X241.3636 Y131.3909
G1 X241.2272 Y131.2546
G1 X240.8181 Y131.1182
G1 X239.5908
G0 Z0.1
G0 X240.5454
G1 F1000.0 Z-0.1
G1 F1500.0 X241.4999 Y129.6182
G0 Z0.1
G0 X242.3181 Y130.0273
G1 F1000.0 Z-0.1
G1 F1500.0 X242.5908 Y129.7546
G1 X242.9999 Y129.6182
G1 X243.5454
G1 X243.9545 Y129.7546
G1 X244.2272 Y130.0273
G1 Y130.4364
G1 X244.0908 Y130.7091
G1 X243.9545 Y130.8455
G1 X243.6818 Y130.9818
G1 X242.8636 Y131.2546
G1 X242.5908 Y131.3909
G1 X242.4545 Y131.5273
G1 X242.3181 Y131.8
G1 Y132.0727
G1 X242.5908 Y132.3455
G1 X242.9999 Y132.4818
G1 X243.5454
G1 X243.9545 Y132.3455
G1 X244.2272 Y132.0727
G0 Z0.1
G0 X265.1625 Y129.6182
G1 F1000.0 Z-0.1
G1 F1500.0 X266.2535 Y132.4818
G1 X267.3444 Y129.6182
G0 Z0.1
G0 X266.9353 Y130.5727
G1 F1000.0 Z-0.1
G1 F1500.0 X265.5716
G0 Z0.1
G0 X268.0262 Y132.4818
G1 F1000.0 Z-0.1
G1 F1500.0 Y129.6182
G1 X269.6625
G0 Z0.1
G0 X270.8898
G1 F1000.0 Z-0.1
G1 F1500.0 Y132.4818
G0 Z0.1
G0 X269.9353
G1 F1000.0 Z-0.1
G1 F1500.0 X271.8444
G0 Z0.1
G0 X274.5716 Y130.0273
G1 F1000.0 Z-0.1
G1 F1500.0 X274.8444 Y129.7546
G1 X275.2535 Y129.6182
G1 X275.7989
G1 X276.208 Y129.7546
G1 X276.4807 Y130.0273
G1 Y130.4364
G1 X276.3444 Y130.7091
G1 X276.208 Y130.8455
G1 X275.9353 Y130.9818
G1 X275.1171 Y131.2546
G1 X274.8444 Y131.3909
G1 X274.708 Y131.5273
G1 X274.5716 Y131.8
G1 Y132.0727
G1 X274.8444 Y132.3455
G1 X275.2535 Y132.4818
G1 X275.7989
G1 X276.208 Y132.3455
G1 X276.4807 Y132.0727
G0 Z0.1
G0 X277.4353 Y131.1182
G1 F1000.0 Z-0.1
G1 F1500.0 X278.5262
G0 Z0.1
G0 X279.208 Y132.4818
G1 F1000.0 Z-0.1
G1 F1500.0 X277.4353
G1 Y129.6182
G1 X279.208
G0 Z0.1
G0 X281.6625
G1 F1000.0 Z-0.1
G1 F1500.0 X280.0262
G1 Y132.4818
G0 Z0.1
G0 X302.4658
G1 F1000.0 Z-0.1
G1 F1500.0 Y129.6182
G0 Z0.1
G0 Y131.1182
G1 F1000.0 Z-0.1
G1 F1500.0 X304.3749
G0 Z0.1
G0 X305.4658
G1 F1000.0 Z-0.1
G1 F1500.0 Y132.4818
G1 X306.4204
G1 X306.8295 Y132.3455
G1 X307.1022 Y132.0727
G1 X307.2386 Y131.8
G1 X307.3749 Y131.3909
G1 Y130.7091
G1 X307.2386 Y130.3
G1 X307.1022 Y130.0273
G1 X306.8295 Y129.7546
G1 X306.4204 Y129.6182
G1 X305.4658
G1 Y131.1182
G0 Z0.1
G0 X304.3749 Y132.4818
G1 F1000.0 Z-0.1
G1 F1500.0 Y129.6182
G0 Z0.1
G0 X309.5568 Y130.7091
G1 F1000.0 Z-0.1
G1 F1500.0 X310.2386
G1 Y130.3
G1 X310.1022 Y130.0273
G1 X309.8295 Y129.7546
G1 X309.5568 Y129.6182
G1 X309.0113
G1 X308.7386 Y129.7546
G1 X308.4658 Y130.0273
G1 X308.3295 Y130.3
G1 X308.1931 Y130.7091
G1 Y131.3909
G1 X308.3295 Y131.8
G1 X308.4658 Y132.0727
G1 X308.7386 Y132.3455
G1 X309.0113 Y132.4818
G1 X309.5568
G1 X309.8295 Y132.3455
G1 X310.1022 Y132.0727
G1 X310.2386 Y131.8
( Inner )
G64
S1000
G0 Z0.1
G0 X243.784 Y120.4659
G1 F1000.0 Z-0.1
G2 F400.0 X243.7772 Y120.4006 I-2.1033 J0.1861
G3 X243.7771 Y120.3999 I0.0745 J-0.0089
G1 X243.7462 Y120.1189
G3 X243.7461 Y120.1185 I0.0745 J-0.0082
G2 X243.7183 Y119.9128 I-3.4185 J0.3576
G3 X243.718 Y119.9109 I0.074 J-0.0123
G2 X243.5782 Y119.305 I-3.4988 J0.488
G2 X243.3363 Y118.7774 I-2.8416 J0.9838
G2 X242.9985 Y118.3015 I-3.117 J1.8548
G2 X242.0967 Y117.5435 I-2.6223 J2.2045
G2 X240.9896 Y117.1416 I-1.6981 J2.9517
G2 X239.8286 I-0.5805 J3.3692
G2 X238.7213 Y117.5436 I0.596 J3.3674
G2 X237.8197 Y118.3014 I1.6816 J2.916
G2 X237.2392 Y119.3068 I2.5963 J2.1693
G2 X237.0337 Y120.4667 I3.1944 J1.164
G2 X237.2392 Y121.6265 I3.3706 J0.0009
G1 Y121.6264
G1 Y121.6265
G2 X237.8197 Y122.6319 I3.1756 J-1.1631
G2 X238.7215 Y123.3898 I2.6079 J-2.1875
G2 X239.8285 Y123.7917 I1.6799 J-2.9015
G3 X239.8287 Y123.7918 I-0.0128 J0.0739
G2 X240.9895 I0.5804 J-3.2967
G3 X240.9897 Y123.7917 I0.013 J0.0739
G2 X242.0965 Y123.3899 I-0.5717 J-3.3001
G2 X242.9986 Y122.6317 I-1.7452 J-2.9922
G3 X242.999 Y122.6312 I0.0573 J0.0484
G2 X243.336 Y122.1564 I-2.4016 J-2.0617
G3 X243.3365 Y122.1557 I0.0649 J0.0376
G2 X243.5781 Y121.6287 I-2.3456 J-1.3946
G2 X243.7131 Y121.0543 I-3.3682 J-1.0945
G3 Y121.0541 I0.0742 J0.011
G2 X243.7529 Y120.7581 I-9.0345 J-1.3634
G1 X243.784 Y120.4659
G0 Z0.1
G0 X226.9159 Y114.3755
G1 F1000.0 Z-0.1
G2 F400.0 X226.9181 Y114.3696 I-0.8064 J-0.2912
G2 X226.9549 Y114.2124 I-0.9267 J-0.3002
G3 X226.9556 Y114.2087 I0.0742 J0.011
G2 X226.9659 Y114.1317 I-0.5895 J-0.1183
G3 X226.9661 Y114.1289 I0.0748 J0.0052
G1 X226.9747 Y114.0487
G2 X226.9552 Y113.8891 I-1.7281 J0.1304
G3 X226.9549 Y113.8874 I0.0739 J-0.0126
G2 X226.9181 Y113.7303 I-0.9392 J0.1375
G2 X226.7604 Y113.4575 I-0.7929 J0.2762
G3 X226.76 Y113.4571 I0.0567 J-0.049
G2 X226.5123 Y113.2488 I-0.742 J0.631
G2 X226.209 Y113.1387 I-0.4653 J0.8095
G3 X226.2088 I0.013 J-0.0739
G2 X225.8912 I-0.1588 J0.8917
G1 X225.8911
G2 X225.5874 Y113.249 I0.1634 J0.9235
G2 X225.3404 Y113.4566 I0.4608 J0.799
G2 X225.1813 Y113.7321 I0.7116 J0.5946
G2 X225.125 Y114.05 I0.8759 J0.3191
G2 X225.1813 Y114.3678 I0.9236 J0.0002
G2 X225.3404 Y114.6433 I0.8704 J-0.3188
G2 X225.5876 Y114.8511 I0.715 J-0.5998
G2 X225.8907 Y114.9612 I0.4602 J-0.7948
G2 X226.2093 I0.1593 J-0.9365
G2 X226.5124 Y114.8511 I-0.1567 J-0.9039
G3 X226.5126 Y114.851 I0.0376 J0.0649
G2 X226.7595 Y114.6434 I-0.4583 J-0.796
G3 X226.7602 Y114.6426 I0.0576 J0.048
G2 X226.9159 Y114.3755 I-0.6507 J-0.5583
G0 Z0.1
G0 X226.0944 Y131.1258
G1 F1000.0 Z-0.1
G2 F400.0 X225.8912 Y131.1387 I-0.0444 J0.9047
G1 X225.8911
G2 X225.5874 Y131.249 I0.1634 J0.9235
G2 X225.3404 Y131.4566 I0.4608 J0.799
G2 X225.1813 Y131.7321 I0.7116 J0.5946
G2 X225.125 Y132.0501 I0.8759 J0.3191
G2 X225.1813 Y132.3678 I0.9236 J0.0002
G2 X225.3404 Y132.6434 I0.8704 J-0.3188
G2 X225.5876 Y132.8511 I0.715 J-0.5998
G2 X225.8907 Y132.9612 I0.4602 J-0.7948
G2 X226.2093 I0.1593 J-0.9365
G2 X226.5124 Y132.8511 I-0.1567 J-0.9039
G3 X226.5126 Y132.851 I0.0376 J0.0649
G2 X226.7595 Y132.6435 I-0.4583 J-0.796
G3 X226.7602 Y132.6427 I0.0576 J0.048
G2 X226.9181 Y132.3696 I-0.6507 J-0.5583
G2 X226.9549 Y132.2125 I-0.9267 J-0.3002
G3 X226.9556 Y132.2087 I0.0742 J0.011
G2 X226.9659 Y132.1317 I-0.5895 J-0.1183
G3 X226.9661 Y132.1289 I0.0748 J0.0052
G1 X226.9747 Y132.0488
G2 X226.9552 Y131.8891 I-1.7281 J0.1304
G3 X226.9549 Y131.8874 I0.0739 J-0.0126
G2 X226.9181 Y131.7304 I-0.9392 J0.1375
G2 X226.7604 Y131.4575 I-0.7929 J0.2762
G3 X226.76 Y131.4571 I0.0567 J-0.049
G2 X226.5123 Y131.2488 I-0.742 J0.631
G2 X226.209 Y131.1388 I-0.4653 J0.8095
G3 X226.2088 Y131.1387 I0.013 J-0.0739
G2 X226.0944 Y131.1258 I-0.1588 J0.8917
G0 Z0.1
G0 X270.0922 Y121.0221
G1 F1000.0 Z-0.1
G2 F400.0 X270.4663 Y121.9715 I3.3371 J-0.7663
G2 X271.6771 Y123.1823 I2.9208 J-1.7101
G2 X273.3806 Y123.6431 I1.7089 J-2.9379
G2 X275.0846 Y123.1821 I-0.0125 J-3.426
G3 X275.085 Y123.1819 I0.0376 J0.0649
G2 X275.7736 Y122.66 I-1.6525 J-2.8959
G3 X275.774 Y122.6596 I0.0527 J0.0534
G2 X276.294 Y121.9735 I-1.9862 J-2.0454
G3 X276.2954 Y121.9711 I0.0659 J0.0358
G2 X276.318 Y121.9277 I-0.4011 J-0.2371
G3 X276.3195 Y121.9247 I0.0682 J0.0312
G2 X276.4841 Y121.5305 I-2.4588 J-1.2585
G1 X276.5334 Y121.3748
G2 X276.6045 Y121.1013 I-4.7315 J-1.3775
G1 X276.6277 Y120.9967
G2 X276.6972 Y120.6285 I-10.6529 J-2.2002
G1 X276.7126 Y120.5357
G1 X276.7555 Y120.2651
G2 X276.7489 Y120.2017 I-2.1042 J0.1881
G3 X276.7488 Y120.201 I0.0745 J-0.0089
G1 X276.7178 Y119.92
G3 Y119.9196 I0.0745 J-0.0082
G2 X276.69 Y119.714 I-3.419 J0.3577
G3 X276.6897 Y119.712 I0.074 J-0.0123
G2 X276.5499 Y119.1061 I-3.4986 J0.488
G2 X276.3079 Y118.5785 I-2.8415 J0.9838
G2 X275.9702 Y118.1026 I-3.1171 J1.8549
G2 X275.0683 Y117.3447 I-2.6222 J2.2044
G2 X273.9612 Y116.9427 I-1.6983 J2.9522
G2 X272.8002 I-0.5805 J3.3677
G2 X271.693 Y117.3447 I0.5969 J3.3699
G2 X270.7914 Y118.1025 I1.6825 J2.917
G2 X270.2108 Y119.108 I2.6063 J2.1751
G2 X270.0054 Y120.2676 I3.155 J1.157
G2 X270.0922 Y121.0221 I3.4239 J-0.0119
G0 Z0.1
G0 X302.9773 Y120.5192
G1 F1000.0 Z-0.1
G2 F400.0 X303.1824 Y121.6265 I3.3702 J-0.0515
G1 Y121.6264
G1 Y121.6265
G2 X303.7628 Y122.6319 I3.1756 J-1.1631
G2 X304.6646 Y123.3898 I2.6079 J-2.1875
G2 X305.7716 Y123.7917 I1.6799 J-2.9015
G3 X305.7718 Y123.7918 I-0.0128 J0.0739
G2 X306.9326 I0.5804 J-3.2967
G3 X306.9328 Y123.7917 I0.013 J0.0739
G2 X308.0397 Y123.3899 I-0.5717 J-3.3001
G2 X308.9418 Y122.6317 I-1.7452 J-2.9922
G3 X308.9422 Y122.6312 I0.0573 J0.0484
G2 X309.2792 Y122.1564 I-2.4016 J-2.0617
G3 X309.2796 Y122.1557 I0.0649 J0.0376
G2 X309.5213 Y121.6287 I-2.3456 J-1.3946
G2 X309.6562 Y121.0543 I-3.3682 J-1.0945
G3 X309.6563 Y121.0541 I0.0742 J0.011
G2 X309.696 Y120.7581 I-9.0345 J-1.3634
G1 X309.7272 Y120.4659
G2 X309.7204 Y120.4006 I-2.1033 J0.1861
G3 X309.7203 Y120.3999 I0.0745 J-0.0089
G1 X309.6893 Y120.1189
G3 Y120.1185 I0.0745 J-0.0082
G2 X309.6615 Y119.9128 I-3.4185 J0.3576
G3 X309.6612 Y119.9109 I0.074 J-0.0123
G2 X309.5214 Y119.305 I-3.4988 J0.488
G2 X309.2795 Y118.7774 I-2.8416 J0.9838
G2 X308.9417 Y118.3015 I-3.117 J1.8548
G2 X308.0398 Y117.5435 I-2.6223 J2.2045
G2 X306.9327 Y117.1416 I-1.6981 J2.9517
G2 X305.7717 I-0.5805 J3.3692
G2 X304.6645 Y117.5436 I0.596 J3.3674
G2 X303.7629 Y118.3014 I1.6816 J2.916
G2 X303.1824 Y119.3068 I2.5963 J2.1693
G2 X302.9769 Y120.4667 I3.1944 J1.164
G2 X302.9773 Y120.5192 I3.3706 J0.0009
G0 Z0.1
G0 X321.1739 Y114.347
G1 F1000.0 Z-0.1
G2 F400.0 X321.1813 Y114.3678 I0.8746 J-0.2967
G2 X321.3403 Y114.6433 I0.8704 J-0.3188
G2 X321.5876 Y114.8511 I0.715 J-0.5998
G2 X321.8907 Y114.9612 I0.4602 J-0.7948
G2 X322.2093 I0.1593 J-0.9365
G2 X322.5124 Y114.8511 I-0.1567 J-0.9039
G3 X322.5126 Y114.851 I0.0376 J0.0649
G2 X322.7595 Y114.6434 I-0.4583 J-0.796
G3 X322.7602 Y114.6426 I0.0576 J0.048
G2 X322.9181 Y114.3696 I-0.6507 J-0.5583
G2 X322.9549 Y114.2124 I-0.9267 J-0.3002
G3 X322.9556 Y114.2087 I0.0742 J0.011
G2 X322.9659 Y114.1317 I-0.5895 J-0.1183
G3 X322.9661 Y114.1289 I0.0748 J0.0052
G1 X322.9747 Y114.0487
G2 X322.9551 Y113.8891 I-1.7281 J0.1304
G3 X322.9549 Y113.8874 I0.0739 J-0.0126
G2 X322.918 Y113.7303 I-0.9392 J0.1375
G2 X322.7604 Y113.4575 I-0.7929 J0.2762
G3 X322.76 Y113.4571 I0.0567 J-0.049
G2 X322.5123 Y113.2488 I-0.742 J0.631
G2 X322.209 Y113.1387 I-0.4653 J0.8095
G3 X322.2088 I0.013 J-0.0739
G2 X321.8911 I-0.1588 J0.8917
G2 X321.5874 Y113.249 I0.1634 J0.9235
G2 X321.3404 Y113.4566 I0.4608 J0.799
G2 X321.1813 Y113.7321 I0.7116 J0.5946
G2 X321.125 Y114.05 I0.8759 J0.3191
G2 X321.1739 Y114.347 I0.9236 J0.0002
G0 Z0.1
G0 X322.0052 Y131.1258
G1 F1000.0 Z-0.1
G2 F400.0 X321.8911 Y131.1387 I0.0448 J0.9047
G2 X321.5874 Y131.249 I0.1634 J0.9235
G2 X321.3404 Y131.4566 I0.4608 J0.799
G2 X321.1813 Y131.7321 I0.7116 J0.5946
G2 X321.125 Y132.05 I0.8759 J0.3191
G2 X321.1813 Y132.3678 I0.9236 J0.0002
G2 X321.3403 Y132.6433 I0.8704 J-0.3188
G2 X321.5876 Y132.8511 I0.715 J-0.5998
G2 X321.8907 Y132.9612 I0.4602 J-0.7948
G2 X322.2093 I0.1593 J-0.9365
G2 X322.5124 Y132.8511 I-0.1567 J-0.9039
G3 X322.5126 Y132.851 I0.0376 J0.0649
G2 X322.7595 Y132.6434 I-0.4583 J-0.796
G3 X322.7602 Y132.6427 I0.0576 J0.048
G2 X322.9181 Y132.3696 I-0.6507 J-0.5583
G2 X322.9549 Y132.2124 I-0.9267 J-0.3002
G3 X322.9556 Y132.2087 I0.0742 J0.011
G2 X322.9659 Y132.1317 I-0.5895 J-0.1183
G3 X322.9661 Y132.1289 I0.0748 J0.0052
G1 X322.9747 Y132.0488
G2 X322.9551 Y131.8891 I-1.7281 J0.1304
G3 X322.9549 Y131.8874 I0.0739 J-0.0126
G2 X322.918 Y131.7304 I-0.9392 J0.1375
G2 X322.7604 Y131.4575 I-0.7929 J0.2762
G3 X322.76 Y131.4571 I0.0567 J-0.049
G2 X322.5123 Y131.2488 I-0.742 J0.631
G2 X322.209 Y131.1387 I-0.4653 J0.8095
G3 X322.2088 I0.013 J-0.0739
G2 X322.0052 Y131.1258 I-0.1588 J0.8917
( Outer CRS_ALT_HDG )
S1000
G0 Z0.1
G0 X222.975 Y135.05
G1 F1000.0 Z-0.1
G1 F400.0 Y111.05
G3 X223.05 Y110.975 I0.075 J0.0
G1 X325.05
G3 X325.125 Y111.05 I0.0 J0.075
G1 Y135.05
G3 X325.05 Y135.125 I-0.075 J0.0
G1 X223.05
G3 X222.975 Y135.05 I0.0 J-0.075
( Text )
G61
S1000
G0 Z0.1
G0 X217.9817 Y91.4591
G1 F1000.0 Z-0.1
G1 F1500.0 Y88.5954
G0 Z0.1
G0 X217.1635
G1 F1000.0 Z-0.1
G1 F1500.0 X215.3908
G1 Y91.4591
G1 X217.1635
G0 Z0.1
G0 X216.4817 Y90.0954
G1 F1000.0 Z-0.1
G1 F1500.0 X215.3908
G0 Z0.1
G0 X220.9817 Y90.7773
G1 F1000.0 Z-0.1
G1 F1500.0 X220.8453 Y91.05
G1 X220.5726 Y91.3227
G1 X220.2999 Y91.4591
G1 X219.7544
G1 X219.4817 Y91.3227
G1 X219.209 Y91.05
G1 X219.0726 Y90.7773
G1 X218.9362 Y90.3682
G1 Y89.6864
G1 X219.0726 Y89.2773
G1 X219.209 Y89.0045
G1 X219.4817 Y88.7318
G1 X219.7544 Y88.5954
G1 X220.2999
G1 X220.5726 Y88.7318
G1 X220.8453 Y89.0045
G1 X220.9817 Y89.2773
G0 Z0.1
G0 X221.5272 Y88.5954
G1 F1000.0 Z-0.1
G1 F1500.0 X222.6181 Y91.4591
G1 X223.709 Y88.5954
G0 Z0.1
G0 X224.2544 Y89.0045
G1 F1000.0 Z-0.1
G1 F1500.0 X224.5272 Y88.7318
G1 X224.9362 Y88.5954
G1 X225.4817
G1 X225.8908 Y88.7318
G1 X226.1635 Y89.0045
G1 Y89.4136
G1 X226.0272 Y89.6864
G1 X225.8908 Y89.8227
G1 X225.6181 Y89.9591
G1 X224.7999 Y90.2318
G1 X224.5272 Y90.3682
G1 X224.3908 Y90.5045
G1 X224.2544 Y90.7773
G1 Y91.05
G1 X224.5272 Y91.3227
G1 X224.9362 Y91.4591
G1 X225.4817
G1 X225.8908 Y91.3227
G1 X226.1635 Y91.05
G0 Z0.1
G0 X229.2999
G1 F1000.0 Z-0.1
G1 F1500.0 Y91.4591
G1 X230.2544
G1 X230.6635 Y91.3227
G1 X230.9362 Y91.05
G1 X231.0726 Y90.7773
G1 X231.209 Y90.3682
G1 Y89.6864
G1 X231.0726 Y89.2773
G1 X230.9362 Y89.0045
G1 X230.6635 Y88.7318
G1 X230.2544 Y88.5954
G1 X229.2999
G1 Y91.05
G0 Z0.1
G0 X232.1635 Y91.4591
G1 F1000.0 Z-0.1
G1 F1500.0 Y88.5954
G0 Z0.1
G0 X233.1181 Y89.0045
G1 F1000.0 Z-0.1
G1 F1500.0 X233.3908 Y88.7318
G1 X233.7999 Y88.5954
G1 X234.3453
G1 X234.7544 Y88.7318
G1 X235.0272 Y89.0045
G1 Y89.4136
G1 X234.8908 Y89.6864
G1 X234.7544 Y89.8227
G1 X234.4817 Y89.9591
G1 X233.6635 Y90.2318
G1 X233.3908 Y90.3682
G1 X233.2544 Y90.5045
G1 X233.1181 Y90.7773
G1 Y91.05
G1 X233.3908 Y91.3227
G1 X233.7999 Y91.4591
G1 X234.3453
G1 X234.7544 Y91.3227
G1 X235.0272 Y91.05
G0 Z0.1
G0 X235.9817 Y89.9591
G1 F1000.0 Z-0.1
G1 F1500.0 X237.209
G1 X237.6181 Y90.0954
G1 X237.7544 Y90.2318
G1 X237.8908 Y90.5045
G1 Y90.9136
G1 X237.7544 Y91.1864
G1 X237.6181 Y91.3227
G1 X237.209 Y91.4591
G1 X235.9817
G1 Y88.5954
G0 Z0.1
G0 X238.8453 Y91.4591
G1 F1000.0 Z-0.1
G1 F1500.0 Y88.5954
G1 X240.4817
G0 Z0.1
G0 X240.7544
G1 F1000.0 Z-0.1
G1 F1500.0 X241.8453 Y91.4591
G1 X242.9362 Y88.5954
G0 Z0.1
G0 X242.5272 Y89.55
G1 F1000.0 Z-0.1
G1 F1500.0 X241.1635
G0 Z0.1
G0 X243.209 Y91.4591
G1 F1000.0 Z-0.1
G1 F1500.0 X244.2999 Y90.0954
G1 Y88.5954
G0 Z0.1
G0 Y90.0954
G1 F1000.0 Z-0.1
G1 F1500.0 X245.3908 Y91.4591
G0 Z0.1
G0 X255.2196 Y89.2858
G1 F1000.0 Z-0.1
G1 F1500.0 X255.4839 Y89.0215
G1 X255.8802 Y88.8894
G1 X256.4087
G1 X256.8051 Y89.0215
G1 X257.0693 Y89.2858
G1 Y89.6821
G1 X256.9372 Y89.9463
G1 X256.8051 Y90.0785
G1 X256.5408 Y90.2106
G1 X255.7481 Y90.4748
G1 X255.4839 Y90.6069
G1 X255.3518 Y90.739
G1 X255.2196 Y91.0033
G1 Y91.2675
G1 X255.4839 Y91.5317
G1 X255.8802 Y91.6639
G1 X256.4087
G1 X256.8051 Y91.5317
G1 X257.0693 Y91.2675
G0 Z0.1
G0 X259.1832 Y89.9463
G1 F1000.0 Z-0.1
G1 F1500.0 X259.8438
G1 Y89.55
G1 X259.7116 Y89.2858
G1 X259.4474 Y89.0215
G1 X259.1832 Y88.8894
G1 X258.6547
G1 X258.3905 Y89.0215
G1 X258.1262 Y89.2858
G1 X257.9941 Y89.55
G1 X257.862 Y89.9463
G1 Y90.6069
G1 X257.9941 Y91.0033
G1 X258.1262 Y91.2675
G1 X258.3905 Y91.5317
G1 X258.6547 Y91.6639
G1 X259.1832
G1 X259.4474 Y91.5317
G1 X259.7116 Y91.2675
G1 X259.8438 Y91.0033
G0 Z0.1
G0 X262.8824 Y90.3427
G1 F1000.0 Z-0.1
G1 F1500.0 X264.0715
G1 X264.4679 Y90.4748
G1 X264.6 Y90.6069
G1 X264.7321 Y90.8712
G1 Y91.1354
G1 X264.6 Y91.3996
G1 X264.4679 Y91.5317
G1 X264.0715 Y91.6639
G1 X262.8824
G1 Y88.8894
G0 Z0.1
G0 X263.8073 Y90.3427
G1 F1000.0 Z-0.1
G1 F1500.0 X264.7321 Y88.8894
G0 Z0.1
G0 X265.6569 Y90.3427
G1 F1000.0 Z-0.1
G1 F1500.0 X266.7138
G0 Z0.1
G0 X267.3744 Y91.6639
G1 F1000.0 Z-0.1
G1 F1500.0 X265.6569
G1 Y88.8894
G1 X267.3744
G0 Z0.1
G0 X267.7708 Y91.6639
G1 F1000.0 Z-0.1
G1 F1500.0 X268.8277 Y88.8894
G1 X269.8847 Y91.6639
G0 Z0.1
G0 X268.0727 Y83.55
G1 F1000.0 Z-0.1
G1 F1500.0 Y86.4136
G1 X266.9818 Y83.55
G1 X265.8909 Y86.4136
G1 Y83.55
G0 Z0.1
G0 X264.9364
G1 F1000.0 Z-0.1
G1 F1500.0 X263.9818 Y85.05
G0 Z0.1
G0 X263.0273
G1 F1000.0 Z-0.1
G1 F1500.0 X264.2545
G1 X264.6636 Y85.1864
G1 X264.8 Y85.3227
G1 X264.9364 Y85.5954
G1 Y85.8682
G1 X264.8 Y86.1409
G1 X264.6636 Y86.2773
G1 X264.2545 Y86.4136
G1 X263.0273
G1 Y83.55
G0 Z0.1
G0 X261.8818 Y84.1227
G1 F1000.0 Z-0.1
G1 F1500.0 X261.9364 Y84.2318
G1 X262.0727 Y84.6409
G1 Y85.3227
G1 X261.9364 Y85.7318
G1 X261.8 Y86.0045
G1 X261.5273 Y86.2773
G1 X261.2545 Y86.4136
G1 X260.7091
G1 X260.4364 Y86.2773
G1 X260.1636 Y86.0045
G1 X260.0273 Y85.7318
G1 X259.8909 Y85.3227
G1 Y84.6409
G1 X260.0273 Y84.2318
G1 X260.1636 Y83.9591
G1 X260.4364 Y83.6864
G1 X260.7091 Y83.55
G1 X261.2545
G1 X261.5273 Y83.6864
G1 X261.8 Y83.9591
G1 X261.8818 Y84.1227
G0 Z0.1
G0 X258.9364 Y86.4136
G1 F1000.0 Z-0.1
G1 F1500.0 Y83.55
G1 X257.0273 Y86.4136
G1 Y83.55
G0 Z0.1
G0 X254.3996 Y80.796
G1 F1000.0 Z-0.1
G1 F1500.0 X254.6639 Y80.9281
G1 X255.0602 Y81.3244
G1 Y78.55
G0 Z0.1
G0 X252.55 Y79.6069
G1 F1000.0 Z-0.1
G1 F1500.0 X253.2106
G1 Y79.2106
G1 X253.0785 Y78.9463
G1 X252.8142 Y78.6821
G1 X252.55 Y78.55
G1 X252.0215
G1 X251.7573 Y78.6821
G1 X251.493 Y78.9463
G1 X251.3609 Y79.2106
G1 X251.2288 Y79.6069
G1 Y80.2675
G1 X251.3609 Y80.6639
G1 X251.493 Y80.9281
G1 X251.7573 Y81.1923
G1 X252.0215 Y81.3244
G1 X252.55
G1 X252.8142 Y81.1923
G1 X253.0785 Y80.9281
G1 X253.2106 Y80.6639
G0 Z0.1
G0 X250.4361 Y80.9281
G1 F1000.0 Z-0.1
G1 F1500.0 X250.1719 Y81.1923
G1 X249.7755 Y81.3244
G1 X249.2471
G1 X248.8507 Y81.1923
G1 X248.5865 Y80.9281
G1 Y80.6639
G1 X248.7186 Y80.3996
G1 X248.8507 Y80.2675
G1 X249.1149 Y80.1354
G1 X249.9076 Y79.8712
G1 X250.1719 Y79.739
G1 X250.304 Y79.6069
G1 X250.4361 Y79.3427
G1 Y78.9463
G1 X250.1719 Y78.6821
G1 X249.7755 Y78.55
G1 X249.2471
G1 X248.8507 Y78.6821
G1 X248.5865 Y78.9463
G0 Z0.1
G0 X241.085 Y78.5241
G1 F1000.0 Z-0.1
G1 F1500.0 X240.1305 Y80.0241
G0 Z0.1
G0 X239.1759
G1 F1000.0 Z-0.1
G1 F1500.0 X240.4032
G1 X240.8123 Y80.1605
G1 X240.9486 Y80.2968
G1 X241.085 Y80.5695
G1 Y80.8423
G1 X240.9486 Y81.115
G1 X240.8123 Y81.2514
G1 X240.4032 Y81.3877
G1 X239.1759
G1 Y78.5241
G0 Z0.1
G0 X235.9061 Y84.1257
G1 F1000.0 Z-0.1
G1 F1500.0 Y86.9894
G1 X234.8151 Y84.1257
G1 X233.7242 Y86.9894
G1 Y84.1257
G0 Z0.1
G0 X232.7697
G1 F1000.0 Z-0.1
G1 F1500.0 X231.8151 Y85.6257
G0 Z0.1
G0 X230.8606
G1 F1000.0 Z-0.1
G1 F1500.0 X232.0879
G1 X232.497 Y85.7621
G1 X232.6333 Y85.8985
G1 X232.7697 Y86.1712
G1 Y86.4439
G1 X232.6333 Y86.7167
G1 X232.497 Y86.853
G1 X232.0879 Y86.9894
G1 X230.8606
G1 Y84.1257
G0 Z0.1
G0 X229.7151 Y84.6985
G1 F1000.0 Z-0.1
G1 F1500.0 X229.7697 Y84.8076
G1 X229.9061 Y85.2167
G1 Y85.8985
G1 X229.7697 Y86.3076
G1 X229.6333 Y86.5803
G1 X229.3606 Y86.853
G1 X229.0879 Y86.9894
G1 X228.5424
G1 X228.2697 Y86.853
G1 X227.997 Y86.5803
G1 X227.8606 Y86.3076
G1 X227.7242 Y85.8985
G1 Y85.2167
G1 X227.8606 Y84.8076
G1 X227.997 Y84.5348
G1 X228.2697 Y84.2621
G1 X228.5424 Y84.1257
G1 X229.0879
G1 X229.3606 Y84.2621
G1 X229.6333 Y84.5348
G1 X229.7151 Y84.6985
G0 Z0.1
G0 X226.7697 Y86.9894
G1 F1000.0 Z-0.1
G1 F1500.0 Y84.1257
G1 X224.8606 Y86.9894
G1 Y84.1257
G0 Z0.1
G0 X223.2999 Y89.55
G1 F1000.0 Z-0.1
G1 F1500.0 X221.9362
G0 Z0.1
G0 X219.7659 Y81.4376
G1 F1000.0 Z-0.1
G1 F1500.0 Y78.574
G1 X221.4023
G0 Z0.1
G0 X269.2816 Y78.9463
G1 F1000.0 Z-0.1
G1 F1500.0 X269.5458 Y78.6821
G1 X269.9422 Y78.55
G1 X270.4706
G1 X270.867 Y78.6821
G1 X271.1312 Y78.9463
G1 Y79.3427
G1 X270.9991 Y79.6069
G1 X270.867 Y79.739
G1 X270.6028 Y79.8712
G1 X269.8101 Y80.1354
G1 X269.5458 Y80.2675
G1 X269.4137 Y80.3996
G1 X269.2816 Y80.6639
G1 Y80.9281
G1 X269.5458 Y81.1923
G1 X269.9422 Y81.3244
G1 X270.4706
G1 X270.867 Y81.1923
G1 X271.1312 Y80.9281
G0 Z0.1
G0 X273.2451 Y79.6069
G1 F1000.0 Z-0.1
G1 F1500.0 X273.9057
G1 Y79.2106
G1 X273.7736 Y78.9463
G1 X273.5093 Y78.6821
G1 X273.2451 Y78.55
G1 X272.7166
G1 X272.4524 Y78.6821
G1 X272.1882 Y78.9463
G1 X272.0561 Y79.2106
G1 X271.9239 Y79.6069
G1 Y80.2675
G1 X272.0561 Y80.6639
G1 X272.1882 Y80.9281
G1 X272.4524 Y81.1923
G1 X272.7166 Y81.3244
G1 X273.2451
G1 X273.5093 Y81.1923
G1 X273.7736 Y80.9281
G1 X273.9057 Y80.6639
G0 Z0.1
G0 X274.8305
G1 F1000.0 Z-0.1
G1 F1500.0 Y80.796
G1 X274.9626 Y81.0602
G1 X275.0948 Y81.1923
G1 X275.359 Y81.3244
G1 X275.8875
G1 X276.1517 Y81.1923
G1 X276.2838 Y81.0602
G1 X276.4159 Y80.796
G1 Y80.5317
G1 X276.2838 Y80.2675
G1 X276.0196 Y79.8712
G1 X274.6984 Y78.55
G1 X276.548
( Inner )
G64
S1000
G0 Z0.1
G0 X233.7583 Y72.5492
G1 F1000.0 Z-0.1
G2 F400.0 X233.7515 Y72.4839 I-2.1033 J0.1861
G3 X233.7514 Y72.4832 I0.0745 J-0.0089
G1 X233.7205 Y72.2022
G3 X233.7204 Y72.2018 I0.0745 J-0.0082
G2 X233.6926 Y71.9961 I-3.4185 J0.3576
G3 X233.6923 Y71.9942 I0.074 J-0.0123
G2 X233.5525 Y71.3883 I-3.4988 J0.488
G2 X233.3106 Y70.8607 I-2.8416 J0.9838
G2 X232.9728 Y70.3848 I-3.117 J1.8548
G2 X232.071 Y69.6268 I-2.6223 J2.2045
G2 X230.9639 Y69.2249 I-1.6981 J2.9517
G2 X229.8028 I-0.5805 J3.3692
G2 X228.6956 Y69.6269 I0.596 J3.3674
G2 X227.794 Y70.3847 I1.6816 J2.916
G2 X227.2135 Y71.3901 I2.5963 J2.1693
G2 X227.008 Y72.55 I3.1944 J1.164
G2 X227.2135 Y73.7098 I3.3706 J0.0009
G2 X227.794 Y74.7152 I3.1756 J-1.1631
G2 X228.6958 Y75.4731 I2.6079 J-2.1875
G2 X229.8028 Y75.875 I1.6799 J-2.9015
G3 X229.8029 Y75.8751 I-0.0128 J0.0739
G2 X230.9637 I0.5804 J-3.2967
G3 X230.9639 Y75.875 I0.013 J0.0739
G2 X232.0708 Y75.4732 I-0.5717 J-3.3001
G2 X232.9729 Y74.715 I-1.7452 J-2.9922
G3 X232.9733 Y74.7145 I0.0573 J0.0484
G2 X233.3103 Y74.2397 I-2.4016 J-2.0617
G3 X233.3107 Y74.239 I0.0649 J0.0376
G2 X233.5524 Y73.712 I-2.3456 J-1.3946
G2 X233.6874 Y73.1376 I-3.3682 J-1.0945
G3 Y73.1374 I0.0742 J0.011
G2 X233.7271 Y72.8414 I-9.0345 J-1.3634
G1 X233.7583 Y72.5492
G0 Z0.1
G0 X259.1747 Y72.5508
G1 F1000.0 Z-0.1
G2 F400.0 X259.3801 Y73.7098 I3.3706 J0.0002
G2 X259.9606 Y74.7152 I3.1756 J-1.1631
G2 X260.8624 Y75.4731 I2.6079 J-2.1875
G2 X261.9694 Y75.875 I1.6799 J-2.9015
G3 X261.9696 Y75.8751 I-0.0128 J0.0739
G2 X263.1304 I0.5804 J-3.2967
G3 X263.1306 Y75.875 I0.013 J0.0739
G2 X264.2375 Y75.4732 I-0.5717 J-3.3001
G2 X265.1396 Y74.715 I-1.7452 J-2.9922
G3 X265.14 Y74.7145 I0.0573 J0.0484
G2 X265.477 Y74.2397 I-2.4016 J-2.0617
G3 X265.4774 Y74.239 I0.0649 J0.0376
G2 X265.7191 Y73.712 I-2.3456 J-1.3946
G2 X265.854 Y73.1376 I-3.3682 J-1.0945
G3 X265.8541 Y73.1374 I0.0742 J0.011
G2 X265.8938 Y72.8414 I-9.0345 J-1.3634
G1 X265.925 Y72.5492
G2 X265.9182 Y72.4839 I-2.1033 J0.1861
G3 X265.9181 Y72.4832 I0.0745 J-0.0089
G1 X265.8871 Y72.2022
G3 Y72.2018 I0.0745 J-0.0082
G2 X265.8593 Y71.9961 I-3.4185 J0.3576
G3 X265.859 Y71.9942 I0.074 J-0.0123
G2 X265.7192 Y71.3883 I-3.4988 J0.488
G2 X265.4772 Y70.8607 I-2.8416 J0.9838
G2 X265.1394 Y70.3848 I-3.117 J1.8548
G2 X264.2376 Y69.6268 I-2.6223 J2.2045
G2 X263.1305 Y69.2249 I-1.6981 J2.9517
G2 X261.9695 I-0.5805 J3.3692
G2 X260.8622 Y69.6269 I0.596 J3.3674
G2 X259.9607 Y70.3847 I1.6816 J2.916
G2 X259.3802 Y71.3901 I2.5963 J2.1693
G2 X259.1747 Y72.55 I3.1944 J1.164
G2 Y72.5508 I3.3706 J0.0009
G0 Z0.1
G0 X288.625
G1 F1000.0 Z-0.1
G1 F400.0 Y80.475
G1 X301.3754
G1 Y69.7236
G1 X288.625
G1 Y72.5508
G0 Z0.1
G0 X311.625
G1 F1000.0 Z-0.1
G1 F400.0 Y80.475
G1 X324.3753
G1 Y69.7236
G1 X311.625 Y69.7237
G1 Y72.5508
G0 Z0.1
G0 X334.7812 Y57.0643
G1 F1000.0 Z-0.1
G2 F400.0 X334.8403 Y57.1433 I0.7705 J-0.5153
G2 X335.0876 Y57.3511 I0.715 J-0.5998
G2 X335.3907 Y57.4612 I0.4602 J-0.7948
G2 X335.7093 I0.1593 J-0.9365
G2 X336.0124 Y57.3511 I-0.1567 J-0.9039
G3 X336.0125 Y57.351 I0.0376 J0.0649
G2 X336.2595 Y57.1434 I-0.4583 J-0.796
G3 X336.2602 Y57.1426 I0.0576 J0.048
G2 X336.418 Y56.8696 I-0.6507 J-0.5583
G2 X336.4549 Y56.7124 I-0.9267 J-0.3002
G3 X336.4555 Y56.7087 I0.0742 J0.011
G2 X336.4659 Y56.6317 I-0.5895 J-0.1183
G3 X336.4661 Y56.6289 I0.0748 J0.0052
G1 X336.4747 Y56.5487
G2 X336.4551 Y56.3891 I-1.7281 J0.1304
G3 X336.4549 Y56.3874 I0.0739 J-0.0126
G2 X336.418 Y56.2303 I-0.9392 J0.1375
G2 X336.2604 Y55.9575 I-0.7929 J0.2762
G3 X336.26 Y55.9571 I0.0567 J-0.049
G2 X336.0123 Y55.7488 I-0.742 J0.631
G2 X335.7089 Y55.6387 I-0.4653 J0.8095
G3 X335.7088 I0.013 J-0.0739
G2 X335.3911 I-0.1588 J0.8917
G2 X335.0874 Y55.749 I0.1634 J0.9235
G2 X334.8404 Y55.9566 I0.4608 J0.799
G2 X334.6813 Y56.2321 I0.7116 J0.5946
G2 X334.625 Y56.55 I0.8759 J0.3191
G2 X334.6813 Y56.8678 I0.9236 J0.0002
G2 X334.7812 Y57.0643 I0.8704 J-0.3188
G0 Z0.1
G0 X335.5298 Y90.6249
G1 F1000.0 Z-0.1
G2 F400.0 X335.3911 Y90.6387 I0.0202 J0.9055
G2 X335.0874 Y90.749 I0.1634 J0.9235
G2 X334.8404 Y90.9566 I0.4608 J0.799
G2 X334.6813 Y91.2321 I0.7116 J0.5946
G2 X334.625 Y91.55 I0.8759 J0.3191
G2 X334.6813 Y91.8678 I0.9236 J0.0002
G2 X334.8403 Y92.1433 I0.8704 J-0.3188
G2 X335.0876 Y92.3511 I0.715 J-0.5998
G2 X335.3907 Y92.4612 I0.4602 J-0.7948
G2 X335.7093 I0.1593 J-0.9365
G2 X336.0124 Y92.3511 I-0.1567 J-0.9039
G3 X336.0125 Y92.351 I0.0376 J0.0649
G2 X336.2595 Y92.1434 I-0.4583 J-0.796
G3 X336.2602 Y92.1426 I0.0576 J0.048
G2 X336.418 Y91.8696 I-0.6507 J-0.5583
G2 X336.4549 Y91.7124 I-0.9267 J-0.3002
G3 X336.4555 Y91.7087 I0.0742 J0.011
G2 X336.4659 Y91.6317 I-0.5895 J-0.1183
G3 X336.4661 Y91.6289 I0.0748 J0.0052
G1 X336.4747 Y91.5487
G2 X336.4551 Y91.3891 I-1.7281 J0.1304
G3 X336.4549 Y91.3874 I0.0739 J-0.0126
G2 X336.418 Y91.2303 I-0.9392 J0.1375
G2 X336.2604 Y90.9575 I-0.7929 J0.2762
G3 X336.26 Y90.9571 I0.0567 J-0.049
G2 X336.0123 Y90.7488 I-0.742 J0.631
G2 X335.7089 Y90.6387 I-0.4653 J0.8095
G3 X335.7088 I0.013 J-0.0739
G2 X335.5298 Y90.6249 I-0.1588 J0.8917
G0 Z0.1
G0 X212.4747 Y91.5487
G1 F1000.0 Z-0.1
G2 F400.0 X212.4551 Y91.3891 I-1.7281 J0.1304
G3 X212.4549 Y91.3874 I0.0739 J-0.0126
G2 X212.418 Y91.2303 I-0.9392 J0.1375
G2 X212.2604 Y90.9575 I-0.7929 J0.2762
G3 X212.26 Y90.9571 I0.0567 J-0.049
G2 X212.0123 Y90.7488 I-0.742 J0.631
G2 X211.709 Y90.6387 I-0.4653 J0.8095
G3 X211.7088 I0.013 J-0.0739
G2 X211.3911 I-0.1588 J0.8917
G2 X211.0874 Y90.749 I0.1634 J0.9235
G2 X210.8404 Y90.9566 I0.4608 J0.799
G2 X210.6813 Y91.2321 I0.7116 J0.5946
G2 X210.625 Y91.55 I0.8759 J0.3191
G2 X210.6813 Y91.8678 I0.9236 J0.0002
G2 X210.8403 Y92.1433 I0.8704 J-0.3188
G2 X211.0876 Y92.3511 I0.715 J-0.5998
G2 X211.3907 Y92.4612 I0.4602 J-0.7948
G2 X211.7093 I0.1593 J-0.9365
G2 X212.0124 Y92.3511 I-0.1567 J-0.9039
G3 X212.0126 Y92.351 I0.0376 J0.0649
G2 X212.2595 Y92.1434 I-0.4583 J-0.796
G3 X212.2602 Y92.1426 I0.0576 J0.048
G2 X212.4181 Y91.8696 I-0.6507 J-0.5583
G2 X212.4549 Y91.7124 I-0.9267 J-0.3002
G3 X212.4556 Y91.7087 I0.0742 J0.011
G2 X212.4659 Y91.6317 I-0.5895 J-0.1183
G3 X212.4661 Y91.6289 I0.0748 J0.0052
G1 X212.4747 Y91.5487
G0 Z0.1
G0 X211.5751 Y57.4743
G1 F1000.0 Z-0.1
G2 F400.0 X211.7093 Y57.4612 I-0.0251 J-0.9496
G2 X212.0124 Y57.3511 I-0.1567 J-0.9039
G3 X212.0126 Y57.351 I0.0376 J0.0649
G2 X212.2595 Y57.1434 I-0.4583 J-0.796
G3 X212.2602 Y57.1426 I0.0576 J0.048
G2 X212.4181 Y56.8696 I-0.6507 J-0.5583
G2 X212.4549 Y56.7124 I-0.9267 J-0.3002
G3 X212.4556 Y56.7087 I0.0742 J0.011
G2 X212.4659 Y56.6317 I-0.5895 J-0.1183
G3 X212.4661 Y56.6289 I0.0748 J0.0052
G1 X212.4747 Y56.5487
G2 X212.4551 Y56.3891 I-1.7281 J0.1304
G3 X212.4549 Y56.3874 I0.0739 J-0.0126
G2 X212.418 Y56.2303 I-0.9392 J0.1375
G2 X212.2604 Y55.9575 I-0.7929 J0.2762
G3 X212.26 Y55.9571 I0.0567 J-0.049
G2 X212.0123 Y55.7488 I-0.742 J0.631
G2 X211.709 Y55.6387 I-0.4653 J0.8095
G3 X211.7088 I0.013 J-0.0739
G2 X211.3911 I-0.1588 J0.8917
G2 X211.0874 Y55.749 I0.1634 J0.9235
G2 X210.8404 Y55.9566 I0.4608 J0.799
G2 X210.6813 Y56.2321 I0.7116 J0.5946
G2 X210.625 Y56.55 I0.8759 J0.3191
G2 X210.6813 Y56.8678 I0.9236 J0.0002
G2 X210.8403 Y57.1433 I0.8704 J-0.3188
G2 X211.0876 Y57.3511 I0.715 J-0.5998
G2 X211.3907 Y57.4612 I0.4602 J-0.7948
G2 X211.5751 Y57.4743 I0.1593 J-0.9365
( Outer EICAS )
S1000
G0 Z0.1
G0 X208.475 Y94.55
G1 F1000.0 Z-0.1
G1 F400.0 Y53.55
G3 X208.55 Y53.475 I0.075 J0.0
G1 X338.5501
G3 X338.6251 Y53.55 I0.0 J0.075
G1 Y94.55
G3 X338.5501 Y94.625 I-0.075 J0.0
G1 X208.55
G3 X208.475 Y94.55 I0.0 J-0.075
( Inner )
S1000
G0 Z0.1
G0 X224.7482 Y24.9395
G1 F1000.0 Z-0.1
G1 F400.0 X236.499
G1 Y13.1887
G1 X224.7482
G1 Y24.9395
G0 Z0.1
G0 X211.9201
G1 F1000.0 Z-0.1
G1 F400.0 Y13.4673
G1 X200.1693
G1 Y25.2181
G1 X211.9201
G1 Y24.9395
G0 Z0.1
G0 X188.3538 Y15.3573
G1 F1000.0 Z-0.1
G2 F400.0 X188.3681 Y15.3196 I-0.7942 J-0.3229
G2 X188.4049 Y15.1625 I-0.9267 J-0.3002
G3 X188.4056 Y15.1587 I0.0742 J0.011
G2 X188.4159 Y15.0817 I-0.5895 J-0.1183
G3 X188.4162 Y15.0789 I0.0748 J0.0052
G1 X188.4247 Y14.9988
G2 X188.4052 Y14.8391 I-1.7281 J0.1304
G3 X188.4049 Y14.8374 I0.0739 J-0.0126
G2 X188.3681 Y14.6804 I-0.9391 J0.1375
G2 X188.2104 Y14.4075 I-0.7929 J0.2762
G3 X188.21 Y14.4071 I0.0567 J-0.049
G2 X187.9623 Y14.1988 I-0.742 J0.631
G2 X187.659 Y14.0887 I-0.4653 J0.8094
G3 X187.6589 I0.013 J-0.0739
G2 X187.3412 I-0.1588 J0.8917
G1 X187.3411
G2 X187.0374 Y14.199 I0.1634 J0.9235
G2 X186.7904 Y14.4066 I0.4608 J0.799
G2 X186.6313 Y14.6821 I0.7116 J0.5946
G2 X186.575 Y15.0001 I0.8759 J0.3191
G2 X186.6313 Y15.3178 I0.9236 J0.0002
G2 X186.7904 Y15.5934 I0.8704 J-0.3188
G2 X187.0376 Y15.8011 I0.715 J-0.5998
G2 X187.3407 Y15.9112 I0.4602 J-0.7949
G2 X187.6593 I0.1593 J-0.9365
G2 X187.9624 Y15.8011 I-0.1567 J-0.9039
G3 X187.9626 Y15.801 I0.0376 J0.0649
G2 X188.2096 Y15.5935 I-0.4583 J-0.796
G3 X188.2102 Y15.5927 I0.0576 J0.048
G2 X188.3538 Y15.3573 I-0.6507 J-0.5583
G0 Z0.1
G0 X245.6457
G1 F1000.0 Z-0.1
G1 F400.0 Y24.9479
G1 X257.3965
G1 Y13.1971
G1 X245.6457
G1 Y15.3573
G0 Z0.1
G0 X267.0886
G1 F1000.0 Z-0.1
G1 F400.0 Y24.9395
G1 X278.8395
G1 Y13.1887
G1 X267.0886
G1 Y15.3573
G0 Z0.1
G0 X288.5906
G1 F1000.0 Z-0.1
G1 F400.0 Y24.9395
G1 X300.3414
G1 Y13.1887
G1 X288.5906
G1 Y15.3573
G0 Z0.1
G0 X309.6074
G1 F1000.0 Z-0.1
G1 F400.0 Y24.9395
G1 X321.3583
G1 Y13.1887
G1 X309.6074
G1 Y15.3573
G0 Z0.1
G0 X336.9602 Y18.7013
G1 F1000.0 Z-0.1
G2 F400.0 X336.9354 Y19.1117 I3.3357 J0.4078
G2 X337.3962 Y20.8156 I3.4239 J-0.0119
G2 X338.607 Y22.0263 I2.9208 J-1.7101
G2 X340.3106 Y22.4872 I1.7089 J-2.9379
G2 X342.0145 Y22.0262 I-0.0125 J-3.426
G3 X342.015 Y22.026 I0.0376 J0.0649
G2 X342.7036 Y21.5041 I-1.6524 J-2.8958
G3 X342.704 Y21.5037 I0.0527 J0.0534
G2 X343.224 Y20.8176 I-1.9862 J-2.0454
G3 X343.2254 Y20.8152 I0.0659 J0.0358
G2 X343.248 Y20.7718 I-0.4011 J-0.2371
G3 X343.2494 Y20.7688 I0.0682 J0.0312
G2 X343.4141 Y20.3746 I-2.4588 J-1.2586
G1 X343.4633 Y20.2189
G2 X343.5345 Y19.9454 I-4.732 J-1.3776
G1 X343.5577 Y19.8408
G2 X343.6271 Y19.4726 I-10.6548 J-2.2006
G1 X343.6426 Y19.3798
G1 X343.6855 Y19.1092
G2 X343.6788 Y19.0458 I-2.1042 J0.1881
G3 Y19.0451 I0.0745 J-0.0089
G1 X343.6478 Y18.7641
G3 Y18.7637 I0.0745 J-0.0082
G2 X343.6199 Y18.558 I-3.419 J0.3577
G3 X343.6196 Y18.5561 I0.074 J-0.0123
G2 X343.4799 Y17.9502 I-3.4986 J0.488
G2 X343.2379 Y17.4226 I-2.8415 J0.9838
G2 X342.9001 Y16.9467 I-3.1171 J1.8549
G2 X341.9983 Y16.1887 I-2.6222 J2.2044
G2 X340.8912 Y15.7868 I-1.6983 J2.9522
G2 X339.7302 I-0.5805 J3.3677
G2 X338.6229 Y16.1888 I0.5969 J3.3699
G2 X337.7214 Y16.9466 I1.6824 J2.9169
G2 X337.1408 Y17.9521 I2.6064 J2.1752
G2 X336.9602 Y18.7013 I3.155 J1.157
G0 Z0.1
G0 X355.5912 Y15.1722
G1 F1000.0 Z-0.1
G2 F400.0 X355.6313 Y15.3178 I0.9075 J-0.1719
G2 X355.7904 Y15.5934 I0.8704 J-0.3188
G2 X356.0376 Y15.8011 I0.715 J-0.5998
G2 X356.3407 Y15.9112 I0.4602 J-0.7949
G2 X356.6593 I0.1593 J-0.9365
G2 X356.9624 Y15.8011 I-0.1567 J-0.9039
G3 X356.9626 Y15.801 I0.0376 J0.0649
G2 X357.2096 Y15.5935 I-0.4583 J-0.796
G3 X357.2102 Y15.5927 I0.0576 J0.048
G2 X357.3681 Y15.3196 I-0.6507 J-0.5583
G2 X357.4049 Y15.1625 I-0.9267 J-0.3002
G3 X357.4056 Y15.1587 I0.0742 J0.011
G2 X357.4159 Y15.0817 I-0.5895 J-0.1183
G3 X357.4162 Y15.0789 I0.0748 J0.0052
G1 X357.4247 Y14.9988
G2 X357.4052 Y14.8391 I-1.7281 J0.1304
G3 X357.4049 Y14.8374 I0.0739 J-0.0126
G2 X357.3681 Y14.6804 I-0.9391 J0.1375
G2 X357.2104 Y14.4075 I-0.7929 J0.2762
G3 X357.21 Y14.4071 I0.0567 J-0.049
G2 X356.9623 Y14.1988 I-0.742 J0.631
G2 X356.659 Y14.0887 I-0.4653 J0.8094
G3 X356.6589 I0.013 J-0.0739
G2 X356.3412 I-0.1588 J0.8917
G1 X356.3411
G2 X356.0374 Y14.199 I0.1634 J0.9235
G2 X355.7904 Y14.4066 I0.4608 J0.799
G2 X355.6313 Y14.6821 I0.7116 J0.5946
G2 X355.575 Y15.0001 I0.8759 J0.3191
G2 X355.5912 Y15.1722 I0.9236 J0.0002
G0 Z0.1
G0 X356.496 Y221.0747
G1 F1000.0 Z-0.1
G2 F400.0 X356.3412 Y221.0887 I0.004 J0.9058
G1 X356.3411
G2 X356.0374 Y221.199 I0.1634 J0.9235
G2 X355.7904 Y221.4066 I0.4608 J0.799
G2 X355.6313 Y221.6821 I0.7116 J0.5946
G2 X355.575 Y222.0001 I0.8759 J0.3191
G2 X355.6313 Y222.3178 I0.9236 J0.0002
G2 X355.7904 Y222.5934 I0.8704 J-0.3188
G2 X356.0376 Y222.8011 I0.715 J-0.5998
G2 X356.3407 Y222.9112 I0.4602 J-0.7949
G2 X356.6593 I0.1593 J-0.9365
G2 X356.9624 Y222.8011 I-0.1567 J-0.9039
G3 X356.9626 Y222.801 I0.0376 J0.0649
G2 X357.2096 Y222.5935 I-0.4583 J-0.796
G3 X357.2102 Y222.5927 I0.0576 J0.048
G2 X357.3681 Y222.3196 I-0.6507 J-0.5583
G2 X357.4049 Y222.1625 I-0.9267 J-0.3002
G3 X357.4056 Y222.1587 I0.0742 J0.011
G2 X357.4159 Y222.0817 I-0.5895 J-0.1183
G3 X357.4162 Y222.0789 I0.0748 J0.0052
G1 X357.4247 Y221.9988
G2 X357.4052 Y221.8391 I-1.7281 J0.1304
G3 X357.4049 Y221.8374 I0.0739 J-0.0126
G2 X357.3681 Y221.6804 I-0.9391 J0.1375
G2 X357.2104 Y221.4075 I-0.7929 J0.2762
G3 X357.21 Y221.4071 I0.0567 J-0.049
G2 X356.9623 Y221.1988 I-0.742 J0.631
G2 X356.659 Y221.0888 I-0.4653 J0.8094
G3 X356.6589 Y221.0887 I0.013 J-0.0739
G2 X356.496 Y221.0747 I-0.1588 J0.8917
G0 Z0.1
G0 X188.4247 Y221.9988
G1 F1000.0 Z-0.1
G2 F400.0 X188.4052 Y221.8391 I-1.7281 J0.1304
G3 X188.4049 Y221.8374 I0.0739 J-0.0126
G2 X188.3681 Y221.6804 I-0.9391 J0.1375
G2 X188.2104 Y221.4075 I-0.7929 J0.2762
G3 X188.21 Y221.4071 I0.0567 J-0.049
G2 X187.9623 Y221.1988 I-0.742 J0.631
G2 X187.659 Y221.0888 I-0.4653 J0.8094
G3 X187.6589 Y221.0887 I0.013 J-0.0739
G2 X187.3412 I-0.1588 J0.8917
G1 X187.3411
G2 X187.0374 Y221.199 I0.1634 J0.9235
G2 X186.7904 Y221.4066 I0.4608 J0.799
G2 X186.6313 Y221.6821 I0.7116 J0.5946
G2 X186.575 Y222.0001 I0.8759 J0.3191
G2 X186.6313 Y222.3178 I0.9236 J0.0002
G2 X186.7904 Y222.5934 I0.8704 J-0.3188
G2 X187.0376 Y222.8011 I0.715 J-0.5998
G2 X187.3407 Y222.9112 I0.4602 J-0.7949
G2 X187.6593 I0.1593 J-0.9365
G2 X187.9624 Y222.8011 I-0.1567 J-0.9039
G3 X187.9626 Y222.801 I0.0376 J0.0649
G2 X188.2096 Y222.5935 I-0.4583 J-0.796
G3 X188.2102 Y222.5927 I0.0576 J0.048
G2 X188.3681 Y222.3196 I-0.6507 J-0.5583
G2 X188.4049 Y222.1625 I-0.9267 J-0.3002
G3 X188.4056 Y222.1587 I0.0742 J0.011
G2 X188.4159 Y222.0817 I-0.5895 J-0.1183
G3 X188.4162 Y222.0789 I0.0748 J0.0052
G1 X188.4247 Y221.9988
( Screen_2 inner )
S1000
G0 Z0.1
G0 X348.425 Y225.9689
G1 F1000.0 Z-0.1
G1 F400.0 Y45.0311
G1 X344.4689 Y41.075
G1 X199.0978 Y40.9708
G1 X195.1695 Y45.5901
G1 X195.5749 Y225.9688
G1 X199.5311 Y229.9249
G1 X344.4689 Y229.925
G1 X348.425 Y225.9689
( Screen_2 outer )
S1000
G0 Z0.1
G0 X361.553 Y238.053
G1 F1000.0 Z-0.1
G1 F400.0 X356.553 Y243.053
G3 X356.5 Y243.075 I-0.053 J-0.053
G1 X187.5
G3 X187.447 Y243.053 I0.0 J-0.075
G1 X182.447 Y238.053
G3 X182.425 Y238.0 I0.053 J-0.053
G1 Y5.0
G3 X182.447 Y4.947 I0.075 J0.0
G1 X187.447 Y-0.053
G3 X187.5 Y-0.075 I0.053 J0.053
G1 X356.5
G3 X356.553 Y-0.053 I0.0 J0.075
G1 X361.553 Y4.947
G3 X361.575 Y5.0 I-0.053 J0.053
G1 Y238.0
G3 X361.553 Y238.053 I-0.075 J0.0
G0 Z0.1
M5
M30
