( Made using CamBam - http://www.cambam.co.uk )
( CutJob01 7/8/2019 9:25:41 PM )
( T0 : 0.0 )
G21 G90 G64 G40
G0 Z0.1
( T0 : 0.0 )
T0 M6
( Text )
G61 G17
M3 S1000
G0 X29.6514 Y79.1962
G1 F1000.0 Z-0.1
G1 F1500.0 X29.3854 Y79.0641
G1 X29.1193 Y78.7998
G1 X28.9863 Y78.5356
G1 X28.8533 Y78.1392
G1 Y77.4786
G1 X28.9863 Y77.0823
G1 X29.1193 Y76.8181
G1 X29.3854 Y76.5538
G1 X29.6514 Y76.4217
G1 X30.1834
G1 X30.4494 Y76.5538
G1 X30.7154 Y76.8181
G1 X30.8484 Y77.0823
G1 X30.9815 Y77.4786
G1 Y78.1392
G1 X30.8484 Y78.5356
G1 X30.7154 Y78.7998
G1 X30.4494 Y79.0641
G1 X30.1834 Y79.1962
G1 X29.6514
G0 Z0.1
G0 X28.3213
G1 F1000.0 Z-0.1
G1 F1500.0 X27.2572 Y76.4217
G1 X26.1932 Y79.1962
G0 Z0.1
G0 X31.9125 Y77.875
G1 F1000.0 Z-0.1
G1 F1500.0 X33.1096
G1 X33.5086 Y78.0071
G1 X33.6416 Y78.1392
G1 X33.7746 Y78.4035
G1 Y78.6677
G1 X33.6416 Y78.9319
G1 X33.5086 Y79.0641
G1 X33.1096 Y79.1962
G1 X31.9125
G1 Y76.4217
G0 Z0.1
G0 X32.8436 Y77.875
G1 F1000.0 Z-0.1
G1 F1500.0 X33.7746 Y76.4217
G0 Z0.1
G0 X37.7648
G1 F1000.0 Z-0.1
G1 F1500.0 Y79.1962
G1 X37.3658 Y78.7998
G1 X37.0998 Y78.6677
G0 Z0.1
G0 X39.8958 Y77.5417
G1 F1000.0 Z-0.1
G1 F1500.0 X43.3958
G1 X45.3958 Y72.5417
G0 Z0.1
G0 X50.3958
G1 F1000.0 Z-0.1
G1 F1500.0 X52.3958 Y77.5417
G1 X55.8958
G0 Z0.1
G0 X57.3474 Y77.3465
G1 F1000.0 Z-0.1
G1 F1500.0 X58.6686
G0 Z0.1
G0 X59.065 Y76.4217
G1 F1000.0 Z-0.1
G1 F1500.0 X58.008 Y79.1962
G1 X56.9511 Y76.4217
G0 Z0.1
G0 X59.7255
G1 F1000.0 Z-0.1
G1 F1500.0 Y79.1962
G1 X60.6504
G1 X61.0467 Y79.0641
G1 X61.311 Y78.7998
G1 X61.4431 Y78.5356
G1 X61.5752 Y78.1392
G1 Y77.4786
G1 X61.4431 Y77.0823
G1 X61.311 Y76.8181
G1 X61.0467 Y76.5538
G1 X60.6504 Y76.4217
G1 X59.7255
G0 Z0.1
G0 X62.5
G1 F1000.0 Z-0.1
G1 F1500.0 Y79.1962
G1 X64.2175
G0 Z0.1
G0 X63.5569 Y77.875
G1 F1000.0 Z-0.1
G1 F1500.0 X62.5
G0 Z0.1
G0 X60.2723 Y73.6891
G1 F1000.0 Z-0.1
G1 F1500.0 X58.5547
G1 Y70.9146
G0 Z0.1
G0 X57.8958 Y71.5417
G1 F1000.0 Z-0.1
G1 F1500.0 X54.3958 Y69.5417
G0 Z0.1
G0 X58.5547 Y72.3679
G1 F1000.0 Z-0.1
G1 F1500.0 X59.6117
G0 Z0.1
G0 X60.9328 Y70.9146
G1 F1000.0 Z-0.1
G1 F1500.0 Y73.6891
G1 X61.9898 Y70.9146
G1 X63.0467 Y73.6891
G1 Y70.9146
G0 Z0.1
G0 X63.9715 Y71.3109
G1 F1000.0 Z-0.1
G1 F1500.0 X64.2358 Y71.0467
G1 X64.6321 Y70.9146
G1 X65.1606
G1 X65.5569 Y71.0467
G1 X65.8212 Y71.3109
G1 Y71.7073
G1 X65.6891 Y71.9715
G1 X65.5569 Y72.1036
G1 X65.2927 Y72.2358
G1 X64.5 Y72.5
G1 X64.2358 Y72.6321
G1 X64.1037 Y72.7642
G1 X63.9715 Y73.0285
G1 Y73.2927
G1 X64.2358 Y73.5569
G1 X64.6321 Y73.6891
G1 X65.1606
G1 X65.5569 Y73.5569
G1 X65.8212 Y73.2927
G0 Z0.1
G0 X69.1241 Y73.1606
G1 F1000.0 Z-0.1
G1 F1500.0 X69.3883 Y73.2927
G1 X69.7847 Y73.6891
G1 Y70.9146
G0 Z0.1
G0 X67.9168 Y76.4217
G1 F1000.0 Z-0.1
G1 F1500.0 Y79.1962
G1 X67.5205 Y78.7998
G1 X67.2562 Y78.6677
G0 Z0.1
G0 X51.8182 Y86.1818
G1 F1000.0 Z-0.1
G1 F1500.0 X51.6818 Y86.4545
G1 X51.4091 Y86.7273
G1 X51.1364 Y86.8636
G1 X50.5909
G1 X50.3182 Y86.7273
G1 X50.0455 Y86.4545
G1 X49.9091 Y86.1818
G1 X49.7727 Y85.7727
G1 Y85.0909
G1 X49.9091 Y84.6818
G1 X50.0455 Y84.4091
G1 X50.3182 Y84.1364
G1 X50.5909 Y84.0
G1 X51.1364
G1 X51.4091 Y84.1364
G1 X51.6818 Y84.4091
G1 X51.8182 Y84.6818
G1 Y85.0909
G1 X51.1364
G0 Z0.1
G0 X48.9546 Y84.0
G1 F1000.0 Z-0.1
G1 F1500.0 X48.0 Y85.5
G0 Z0.1
G0 X47.0455
G1 F1000.0 Z-0.1
G1 F1500.0 X48.2727
G1 X48.6818 Y85.6364
G1 X48.8182 Y85.7727
G1 X48.9546 Y86.0455
G1 Y86.3182
G1 X48.8182 Y86.5909
G1 X48.6818 Y86.7273
G1 X48.2727 Y86.8636
G1 X47.0455
G1 Y84.0
G0 Z0.1
G0 X45.4091 Y85.5
G1 F1000.0 Z-0.1
G1 F1500.0 X45.8182 Y85.6364
G1 X45.9546 Y85.7727
G1 X46.0909 Y86.0455
G1 Y86.3182
G1 X45.9546 Y86.5909
G1 X45.8182 Y86.7273
G1 X45.4091 Y86.8636
G1 X44.1818
G1 Y84.0
G1 X45.4091
G1 X45.8182 Y84.1364
G1 X45.9546 Y84.2727
G1 X46.0909 Y84.5455
G1 Y84.9545
G1 X45.9546 Y85.2273
G1 X45.8182 Y85.3636
G1 X45.4091 Y85.5
G1 X44.1818
G0 Z0.1
G0 X37.6364 Y71.3011
G1 F1000.0 Z-0.1
G1 F1500.0 X35.8636
G1 Y68.4375
G0 Z0.1
G0 Y69.9375
G1 F1000.0 Z-0.1
G1 F1500.0 X36.9545
G0 Z0.1
G0 X38.3958 Y70.0417
G1 F1000.0 Z-0.1
G1 F1500.0 X39.8958
G1 X41.3958 Y69.0417
G0 Z0.1
G0 X35.1818 Y71.3011
G1 F1000.0 Z-0.1
G1 F1500.0 X33.4091
G1 Y68.4375
G0 Z0.1
G0 X32.2636 Y69.0102
G1 F1000.0 Z-0.1
G1 F1500.0 X32.3182 Y69.1193
G1 X32.4545 Y69.5284
G1 Y70.2102
G1 X32.3182 Y70.6193
G1 X32.1818 Y70.892
G1 X31.9091 Y71.1648
G1 X31.6364 Y71.3011
G1 X31.0909
G1 X30.8182 Y71.1648
G1 X30.5455 Y70.892
G1 X30.4091 Y70.6193
G1 X30.2727 Y70.2102
G1 Y69.5284
G1 X30.4091 Y69.1193
G1 X30.5455 Y68.8466
G1 X30.8182 Y68.5739
G1 X31.0909 Y68.4375
G1 X31.6364
G1 X31.9091 Y68.5739
G1 X32.1818 Y68.8466
G1 X32.2636 Y69.0102
G0 Z0.1
G0 X33.4091 Y69.9375
G1 F1000.0 Z-0.1
G1 F1500.0 X34.5
G0 Z0.1
G0 X102.6818 Y79.9318
G1 F1000.0 Z-0.1
G1 F1500.0 X103.7728 Y77.0682
G1 X104.8637 Y79.9318
G0 Z0.1
G0 X105.6818 Y79.5227
G1 F1000.0 Z-0.1
G1 F1500.0 X105.5455 Y79.25
G1 X105.4091 Y78.8409
G1 Y78.1591
G1 X105.5455 Y77.75
G1 X105.6819 Y77.4773
G1 X105.9546 Y77.2045
G1 X106.2273 Y77.0682
G1 X106.7728
G1 X107.0455 Y77.2045
G1 X107.3182 Y77.4773
G1 X107.4546 Y77.75
G1 X107.5909 Y78.1591
G1 Y78.8409
G1 X107.4546 Y79.25
G1 X107.3182 Y79.5227
G1 X107.0455 Y79.7954
G1 X106.7728 Y79.9318
G1 X106.2273
G1 X105.9546 Y79.7954
G1 X105.6819 Y79.5227
G1 X105.6818
G0 Z0.1
G0 X108.5455 Y78.5682
G1 F1000.0 Z-0.1
G1 F1500.0 X109.7728
G1 X110.1819 Y78.7045
G1 X110.3182 Y78.8409
G1 X110.4546 Y79.1136
G1 Y79.3864
G1 X110.3182 Y79.6591
G1 X110.1819 Y79.7954
G1 X109.7728 Y79.9318
G1 X108.5455
G1 Y77.0682
G0 Z0.1
G0 X109.5 Y78.5682
G1 F1000.0 Z-0.1
G1 F1500.0 X110.4546 Y77.0682
G0 Z0.1
G0 X113.5909 Y79.25
G1 F1000.0 Z-0.1
G1 F1500.0 Y79.3864
G1 X113.7273 Y79.6591
G1 X113.8637 Y79.7954
G1 X114.1364 Y79.9318
G1 X114.6819
G1 X114.9546 Y79.7954
G1 X115.0909 Y79.6591
G1 X115.2273 Y79.3864
G1 Y79.1136
G1 X115.0909 Y78.8409
G1 X114.8182 Y78.4318
G1 X113.4546 Y77.0682
G1 X115.3637
G0 Z0.1
G0 X116.8958 Y77.5417
G1 F1000.0 Z-0.1
G1 F1500.0 X121.3958
G1 X123.3958 Y72.5417
G0 Z0.1
G0 X128.3958
G1 F1000.0 Z-0.1
G1 F1500.0 X130.3958 Y78.0417
G1 X133.8958
G0 Z0.1
G0 X135.0 Y77.4659
G1 F1000.0 Z-0.1
G1 F1500.0 X136.0909 Y80.3295
G1 X137.1818 Y77.4659
G0 Z0.1
G0 X137.8636
G1 F1000.0 Z-0.1
G1 F1500.0 Y80.3295
G1 X138.8182
G1 X139.2273 Y80.1932
G1 X139.5 Y79.9204
G1 X139.6364 Y79.6477
G1 X139.7727 Y79.2386
G1 Y78.5568
G1 X139.6364 Y78.1477
G1 X139.5 Y77.875
G1 X139.2273 Y77.6023
G1 X138.8182 Y77.4659
G1 X137.8636
G0 Z0.1
G0 X136.7727 Y78.4204
G1 F1000.0 Z-0.1
G1 F1500.0 X135.4091
G0 Z0.1
G0 X140.7273 Y78.9659
G1 F1000.0 Z-0.1
G1 F1500.0 X141.8182
G0 Z0.1
G0 X142.5 Y80.3295
G1 F1000.0 Z-0.1
G1 F1500.0 X140.7273
G1 Y77.4659
G0 Z0.1
G0 X138.8864 Y73.8106
G1 F1000.0 Z-0.1
G1 F1500.0 X137.1137
G1 Y70.947
G0 Z0.1
G0 X136.3958 Y71.5417
G1 F1000.0 Z-0.1
G1 F1500.0 X132.3958 Y69.0417
G0 Z0.1
G0 X137.1137 Y72.447
G1 F1000.0 Z-0.1
G1 F1500.0 X138.2046
G0 Z0.1
G0 X139.5682 Y70.947
G1 F1000.0 Z-0.1
G1 F1500.0 Y73.8106
G1 X140.6591 Y70.947
G1 X141.75 Y73.8106
G1 Y70.947
G0 Z0.1
G0 X142.7046 Y71.3561
G1 F1000.0 Z-0.1
G1 F1500.0 X142.9773 Y71.0833
G1 X143.3864 Y70.947
G1 X143.9318
G1 X144.3409 Y71.0833
G1 X144.6137 Y71.3561
G1 Y71.7651
G1 X144.4773 Y72.0379
G1 X144.3409 Y72.1742
G1 X144.0682 Y72.3106
G1 X143.25 Y72.5833
G1 X142.9773 Y72.7197
G1 X142.8409 Y72.8561
G1 X142.7046 Y73.1288
G1 Y73.4015
G1 X142.9773 Y73.6742
G1 X143.3864 Y73.8106
G1 X143.9318
G1 X144.3409 Y73.6742
G1 X144.6137 Y73.4015
G0 Z0.1
G0 X147.75 Y73.1288
G1 F1000.0 Z-0.1
G1 F1500.0 Y73.2651
G1 X147.8864 Y73.5379
G1 X148.0227 Y73.6742
G1 X148.2955 Y73.8106
G1 X148.8409
G1 X149.1136 Y73.6742
G1 X149.25 Y73.5379
G1 X149.3864 Y73.2651
G1 Y72.9924
G1 X149.25 Y72.7197
G1 X148.9773 Y72.3106
G1 X147.6136 Y70.947
G1 X149.5227
G0 Z0.1
G0 X147.1364 Y77.4659
G1 F1000.0 Z-0.1
G1 F1500.0 X145.2273
G1 X146.5909 Y78.8295
G1 X146.8636 Y79.2386
G1 X147.0 Y79.5114
G1 Y79.7841
G1 X146.8636 Y80.0568
G1 X146.7273 Y80.1932
G1 X146.4546 Y80.3295
G1 X145.9091
G1 X145.6364 Y80.1932
G1 X145.5 Y80.0568
G1 X145.3636 Y79.7841
G1 Y79.6477
G0 Z0.1
G0 X130.5519 Y86.1818
G1 F1000.0 Z-0.1
G1 F1500.0 X130.4156 Y86.4545
G1 X130.1428 Y86.7273
G1 X129.8701 Y86.8636
G1 X129.3246
G1 X129.0519 Y86.7273
G1 X128.7792 Y86.4545
G1 X128.6428 Y86.1818
G1 X128.5065 Y85.7727
G1 Y85.0909
G1 X128.6428 Y84.6818
G1 X128.7792 Y84.4091
G1 X129.0519 Y84.1364
G1 X129.3246 Y84.0
G1 X129.8701
G1 X130.1428 Y84.1364
G1 X130.4156 Y84.4091
G1 X130.5519 Y84.6818
G1 Y85.0909
G1 X129.8701
G0 Z0.1
G0 X127.6883 Y84.0
G1 F1000.0 Z-0.1
G1 F1500.0 X126.7337 Y85.5
G0 Z0.1
G0 X125.7792
G1 F1000.0 Z-0.1
G1 F1500.0 X127.0065
G1 X127.4156 Y85.6364
G1 X127.5519 Y85.7727
G1 X127.6883 Y86.0455
G1 Y86.3182
G1 X127.5519 Y86.5909
G1 X127.4156 Y86.7273
G1 X127.0065 Y86.8636
G1 X125.7792
G1 Y84.0
G0 Z0.1
G0 X124.1428 Y85.5
G1 F1000.0 Z-0.1
G1 F1500.0 X124.5519 Y85.6364
G1 X124.6883 Y85.7727
G1 X124.8246 Y86.0455
G1 Y86.3182
G1 X124.6883 Y86.5909
G1 X124.5519 Y86.7273
G1 X124.1428 Y86.8636
G1 X122.9155
G1 Y84.0
G1 X124.1428
G1 X124.5519 Y84.1364
G1 X124.6883 Y84.2727
G1 X124.8246 Y84.5455
G1 Y84.9545
G1 X124.6883 Y85.2273
G1 X124.5519 Y85.3636
G1 X124.1428 Y85.5
G1 X122.9155
G0 Z0.1
G0 X115.9186 Y71.8636
G1 F1000.0 Z-0.1
G1 F1500.0 X114.1458
G1 Y69.0
G0 Z0.1
G0 Y70.5
G1 F1000.0 Z-0.1
G1 F1500.0 X115.2367
G0 Z0.1
G0 X115.8958 Y70.5417
G1 F1000.0 Z-0.1
G1 F1500.0 X117.8958
G1 X119.3958 Y69.5417
G0 Z0.1
G0 X113.464 Y71.8636
G1 F1000.0 Z-0.1
G1 F1500.0 X111.6913
G1 Y69.0
G0 Z0.1
G0 X110.5458 Y69.5727
G1 F1000.0 Z-0.1
G1 F1500.0 X110.6004 Y69.6818
G1 X110.7367 Y70.0909
G1 Y70.7727
G1 X110.6004 Y71.1818
G1 X110.464 Y71.4545
G1 X110.1913 Y71.7273
G1 X109.9186 Y71.8636
G1 X109.3731
G1 X109.1004 Y71.7273
G1 X108.8277 Y71.4545
G1 X108.6913 Y71.1818
G1 X108.5549 Y70.7727
G1 Y70.0909
G1 X108.6913 Y69.6818
G1 X108.8277 Y69.4091
G1 X109.1004 Y69.1364
G1 X109.3731 Y69.0
G1 X109.9186
G1 X110.1913 Y69.1364
G1 X110.464 Y69.4091
G1 X110.5458 Y69.5727
G0 Z0.1
G0 X111.6913 Y70.5
G1 F1000.0 Z-0.1
G1 F1500.0 X112.7822
( Inner )
G64
S1000
G0 Z0.1
G0 X51.2758 Y65.4388
G1 F1000.0 Z-0.1
G2 F400.0 X51.269 Y65.3735 I-2.1033 J0.1861
G3 X51.2689 Y65.3728 I0.0745 J-0.0089
G1 X51.238 Y65.0918
G3 X51.2379 Y65.0914 I0.0745 J-0.0082
G2 X51.2101 Y64.8857 I-3.4185 J0.3576
G3 X51.2098 Y64.8838 I0.074 J-0.0123
G2 X51.07 Y64.2779 I-3.4988 J0.488
G2 X50.8281 Y63.7503 I-2.8416 J0.9838
G2 X50.4903 Y63.2744 I-3.117 J1.8548
G2 X49.5885 Y62.5164 I-2.6223 J2.2045
G2 X48.4814 Y62.1145 I-1.6981 J2.9517
G2 X47.3203 I-0.5805 J3.3692
G2 X46.2131 Y62.5165 I0.596 J3.3674
G2 X45.3115 Y63.2743 I1.6816 J2.916
G2 X44.731 Y64.2797 I2.5963 J2.1693
G2 X44.5255 Y65.4396 I3.1944 J1.164
G2 X44.731 Y66.5994 I3.3706 J0.0009
G2 X45.3115 Y67.6048 I3.1756 J-1.1631
G2 X46.2133 Y68.3627 I2.6079 J-2.1875
G2 X47.3202 Y68.7646 I1.6799 J-2.9015
G3 X47.3204 Y68.7647 I-0.0128 J0.0739
G2 X48.4812 I0.5804 J-3.2967
G3 X48.4814 Y68.7646 I0.013 J0.0739
G2 X49.5883 Y68.3628 I-0.5717 J-3.3001
G2 X50.4904 Y67.6046 I-1.7452 J-2.9922
G3 X50.4908 Y67.6041 I0.0573 J0.0484
G2 X50.8278 Y67.1293 I-2.4016 J-2.0617
G3 X50.8282 Y67.1286 I0.0649 J0.0376
G2 X51.0699 Y66.6016 I-2.3456 J-1.3946
G2 X51.2049 Y66.0272 I-3.3682 J-1.0945
G3 Y66.027 I0.0742 J0.011
G2 X51.2446 Y65.731 I-9.0345 J-1.3634
G1 X51.2758 Y65.4388
G0 Z0.1
G0 X73.575
G1 F1000.0 Z-0.1
G1 F400.0 Y69.3264
G1 X86.3254
G1 Y58.575
G1 X73.575
G1 Y65.4388
G0 Z0.1
G0 Y73.575
G1 F1000.0 Z-0.1
G1 F400.0 Y84.3263
G1 X86.3254
G1 Y73.575
G1 X73.575
G0 Z0.1
G0 X90.4083 Y69.3264
G1 F1000.0 Z-0.1
G1 F400.0 X103.1587
G1 Y58.575
G1 X90.4083
G1 Y69.3264
G0 Z0.1
G0 X122.6222 Y65.8714
G1 F1000.0 Z-0.1
G2 F400.0 X122.8085 Y66.6707 I3.3514 J-0.3594
G1 X122.8084
G1 X122.8085
G2 X123.3889 Y67.6762 I3.1756 J-1.1631
G2 X124.2907 Y68.4341 I2.6079 J-2.1875
G2 X125.3977 Y68.836 I1.6799 J-2.9015
G3 X125.3979 I-0.0128 J0.0739
G2 X126.5587 I0.5804 J-3.2967
G3 X126.5589 I0.013 J0.0739
G2 X127.6658 Y68.4342 I-0.5717 J-3.3001
G2 X128.5679 Y67.676 I-1.7452 J-2.9922
G3 X128.5683 Y67.6755 I0.0573 J0.0484
G2 X128.9053 Y67.2007 I-2.4016 J-2.0617
G3 X128.9057 Y67.2 I0.0649 J0.0376
G2 X129.1474 Y66.673 I-2.3456 J-1.3946
G2 X129.2823 Y66.0986 I-3.3682 J-1.0945
G3 X129.2824 Y66.0984 I0.0742 J0.011
G2 X129.3221 Y65.8024 I-9.0345 J-1.3634
G1 X129.3533 Y65.5102
G2 X129.3465 Y65.4449 I-2.1033 J0.1861
G3 X129.3464 Y65.4442 I0.0745 J-0.0089
G1 X129.3154 Y65.1632
G3 Y65.1628 I0.0745 J-0.0082
G2 X129.2876 Y64.9571 I-3.4185 J0.3576
G3 X129.2873 Y64.9552 I0.074 J-0.0123
G2 X129.1475 Y64.3493 I-3.4988 J0.488
G2 X128.9055 Y63.8216 I-2.8416 J0.9838
G2 X128.5678 Y63.3458 I-3.117 J1.8548
G2 X127.6659 Y62.5878 I-2.6223 J2.2045
G2 X126.5588 Y62.1859 I-1.6981 J2.9517
G2 X125.3978 I-0.5805 J3.3692
G2 X124.2906 Y62.5879 I0.596 J3.3674
G2 X123.389 Y63.3457 I1.6816 J2.916
G2 X122.8085 Y64.3511 I2.5963 J2.1693
G2 X122.603 Y65.511 I3.1944 J1.164
G2 X122.6222 Y65.8714 I3.3706 J0.0009
G0 Z0.1
G0 X153.6668 Y50.9016
G1 F1000.0 Z-0.1
G2 F400.0 X153.7904 Y51.0933 I0.8349 J-0.4026
G2 X154.0376 Y51.3011 I0.715 J-0.5998
G2 X154.3407 Y51.4112 I0.4602 J-0.7948
G2 X154.6593 I0.1593 J-0.9365
G2 X154.9624 Y51.3011 I-0.1567 J-0.9039
G3 X154.9626 Y51.301 I0.0376 J0.0649
G2 X155.2096 Y51.0934 I-0.4583 J-0.796
G3 X155.2102 Y51.0927 I0.0576 J0.048
G2 X155.3681 Y50.8196 I-0.6507 J-0.5583
G2 X155.4049 Y50.6624 I-0.9267 J-0.3002
G3 X155.4056 Y50.6587 I0.0742 J0.011
G2 X155.4159 Y50.5817 I-0.5895 J-0.1183
G3 X155.4162 Y50.5789 I0.0748 J0.0052
G1 X155.4247 Y50.4988
G2 X155.4052 Y50.3391 I-1.7281 J0.1304
G3 X155.4049 Y50.3374 I0.0739 J-0.0126
G2 X155.3681 Y50.1804 I-0.9392 J0.1375
G2 X155.2104 Y49.9075 I-0.7929 J0.2762
G3 X155.21 Y49.9071 I0.0567 J-0.049
G2 X154.9623 Y49.6988 I-0.742 J0.631
G2 X154.659 Y49.5887 I-0.4653 J0.8095
G3 X154.6588 I0.013 J-0.0739
G2 X154.3412 I-0.1588 J0.8917
G1 X154.3411
G2 X154.0374 Y49.699 I0.1634 J0.9235
G2 X153.7904 Y49.9066 I0.4608 J0.799
G2 X153.6313 Y50.1821 I0.7116 J0.5946
G2 X153.575 Y50.5 I0.8759 J0.3191
G2 X153.6313 Y50.8178 I0.9236 J0.0002
G2 X153.6668 Y50.9016 I0.8704 J-0.3188
G0 Z0.1
G0 X154.4788 Y85.5749
G1 F1000.0 Z-0.1
G2 F400.0 X154.3412 Y85.5887 I0.0212 J0.9055
G1 X154.3411
G2 X154.0374 Y85.699 I0.1634 J0.9235
G2 X153.7904 Y85.9066 I0.4608 J0.799
G2 X153.6313 Y86.1821 I0.7116 J0.5946
G2 X153.575 Y86.5 I0.8759 J0.3191
G2 X153.6313 Y86.8178 I0.9236 J0.0002
G2 X153.7904 Y87.0933 I0.8704 J-0.3188
G2 X154.0376 Y87.3011 I0.715 J-0.5998
G2 X154.3407 Y87.4112 I0.4602 J-0.7948
G2 X154.6593 I0.1593 J-0.9365
G2 X154.9624 Y87.3011 I-0.1567 J-0.9039
G3 X154.9626 Y87.301 I0.0376 J0.0649
G2 X155.2096 Y87.0934 I-0.4583 J-0.796
G3 X155.2102 Y87.0927 I0.0576 J0.048
G2 X155.3681 Y86.8196 I-0.6507 J-0.5583
G2 X155.4049 Y86.6624 I-0.9267 J-0.3002
G3 X155.4056 Y86.6587 I0.0742 J0.011
G2 X155.4159 Y86.5817 I-0.5895 J-0.1183
G3 X155.4162 Y86.5789 I0.0748 J0.0052
G1 X155.4247 Y86.4988
G2 X155.4052 Y86.3391 I-1.7281 J0.1304
G3 X155.4049 Y86.3374 I0.0739 J-0.0126
G2 X155.3681 Y86.1804 I-0.9392 J0.1375
G2 X155.2104 Y85.9075 I-0.7929 J0.2762
G3 X155.21 Y85.9071 I0.0567 J-0.049
G2 X154.9623 Y85.6988 I-0.742 J0.631
G2 X154.659 Y85.5887 I-0.4653 J0.8095
G3 X154.6588 I0.013 J-0.0739
G2 X154.4788 Y85.5749 I-0.1588 J0.8917
G0 Z0.1
G0 X25.4247 Y86.4988
G1 F1000.0 Z-0.1
G2 F400.0 X25.4052 Y86.3391 I-1.7281 J0.1304
G3 X25.4049 Y86.3374 I0.0739 J-0.0126
G2 X25.3681 Y86.1804 I-0.9392 J0.1375
G2 X25.2104 Y85.9075 I-0.7929 J0.2762
G3 X25.21 Y85.9071 I0.0567 J-0.049
G2 X24.9623 Y85.6988 I-0.742 J0.631
G2 X24.659 Y85.5887 I-0.4653 J0.8095
G3 X24.6588 I0.013 J-0.0739
G2 X24.3412 I-0.1588 J0.8917
G1 X24.3411
G2 X24.0374 Y85.699 I0.1634 J0.9235
G2 X23.7904 Y85.9066 I0.4608 J0.799
G2 X23.6313 Y86.1821 I0.7116 J0.5946
G2 X23.575 Y86.5 I0.8759 J0.3191
G2 X23.6313 Y86.8178 I0.9236 J0.0002
G2 X23.7904 Y87.0933 I0.8704 J-0.3188
G2 X24.0376 Y87.3011 I0.715 J-0.5998
G2 X24.3407 Y87.4112 I0.4602 J-0.7948
G2 X24.6593 I0.1593 J-0.9365
G2 X24.9624 Y87.3011 I-0.1567 J-0.9039
G3 X24.9626 Y87.301 I0.0376 J0.0649
G2 X25.2096 Y87.0934 I-0.4583 J-0.796
G3 X25.2102 Y87.0927 I0.0576 J0.048
G2 X25.3681 Y86.8196 I-0.6507 J-0.5583
G2 X25.4049 Y86.6624 I-0.9267 J-0.3002
G3 X25.4056 Y86.6587 I0.0742 J0.011
G2 X25.4159 Y86.5817 I-0.5895 J-0.1183
G3 X25.4162 Y86.5789 I0.0748 J0.0052
G1 X25.4247 Y86.4988
G0 Z0.1
G0 X24.5244 Y51.4243
G1 F1000.0 Z-0.1
G2 F400.0 X24.6593 Y51.4112 I-0.0244 J-0.9496
G2 X24.9624 Y51.3011 I-0.1567 J-0.9039
G3 X24.9626 Y51.301 I0.0376 J0.0649
G2 X25.2096 Y51.0934 I-0.4583 J-0.796
G3 X25.2102 Y51.0927 I0.0576 J0.048
G2 X25.3681 Y50.8196 I-0.6507 J-0.5583
G2 X25.4049 Y50.6624 I-0.9267 J-0.3002
G3 X25.4056 Y50.6587 I0.0742 J0.011
G2 X25.4159 Y50.5817 I-0.5895 J-0.1183
G3 X25.4162 Y50.5789 I0.0748 J0.0052
G1 X25.4247 Y50.4988
G2 X25.4052 Y50.3391 I-1.7281 J0.1304
G3 X25.4049 Y50.3374 I0.0739 J-0.0126
G2 X25.3681 Y50.1804 I-0.9392 J0.1375
G2 X25.2104 Y49.9075 I-0.7929 J0.2762
G3 X25.21 Y49.9071 I0.0567 J-0.049
G2 X24.9623 Y49.6988 I-0.742 J0.631
G2 X24.659 Y49.5887 I-0.4653 J0.8095
G3 X24.6588 I0.013 J-0.0739
G2 X24.3412 I-0.1588 J0.8917
G1 X24.3411
G2 X24.0374 Y49.699 I0.1634 J0.9235
G2 X23.7904 Y49.9066 I0.4608 J0.799
G2 X23.6313 Y50.1821 I0.7116 J0.5946
G2 X23.575 Y50.5 I0.8759 J0.3191
G2 X23.6313 Y50.8178 I0.9236 J0.0002
G2 X23.7904 Y51.0933 I0.8704 J-0.3188
G2 X24.0376 Y51.3011 I0.715 J-0.5998
G2 X24.3407 Y51.4112 I0.4602 J-0.7948
G2 X24.5244 Y51.4243 I0.1593 J-0.9365
( Outer BRG_1 )
S1000
G0 Z0.1
G0 X21.5417 Y47.425
G1 F1000.0 Z-0.1
G1 F400.0 X25.5279
G1 X55.1872
G1 X84.8465
G1 X114.5058
G1 X144.1652
G1 X157.5
G3 X157.575 Y47.5 I0.0 J0.075
G1 Y73.0894
G1 Y87.4733
G1 Y89.5
G3 X157.5 Y89.575 I-0.075 J0.0
G1 X127.8407
G1 X98.1813
G1 X68.522
G1 X38.8627
G1 X21.5417
G3 X21.4667 Y89.5 I0.0 J-0.075
G1 Y63.9105
G1 Y47.5
G3 X21.5417 Y47.425 I0.075 J0.0
( Text )
G61
S1000
G0 Z0.1
G0 X29.6514 Y123.1962
G1 F1000.0 Z-0.1
G1 F1500.0 X29.3854 Y123.0641
G1 X29.1193 Y122.7998
G1 X28.9863 Y122.5356
G1 X28.8533 Y122.1392
G1 Y121.4786
G1 X28.9863 Y121.0823
G1 X29.1193 Y120.8181
G1 X29.3854 Y120.5538
G1 X29.6514 Y120.4217
G1 X30.1834
G1 X30.4494 Y120.5538
G1 X30.7154 Y120.8181
G1 X30.8484 Y121.0823
G1 X30.9815 Y121.4786
G1 Y122.1392
G1 X30.8484 Y122.5356
G1 X30.7154 Y122.7998
G1 X30.4494 Y123.0641
G1 X30.1834 Y123.1962
G1 X29.6514
G0 Z0.1
G0 X28.3213
G1 F1000.0 Z-0.1
G1 F1500.0 X27.2572 Y120.4217
G1 X26.1932 Y123.1962
G0 Z0.1
G0 X31.9125 Y121.875
G1 F1000.0 Z-0.1
G1 F1500.0 X33.1096
G1 X33.5086 Y122.0071
G1 X33.6416 Y122.1392
G1 X33.7746 Y122.4035
G1 Y122.6677
G1 X33.6416 Y122.9319
G1 X33.5086 Y123.0641
G1 X33.1096 Y123.1962
G1 X31.9125
G1 Y120.4217
G0 Z0.1
G0 X32.8436 Y121.875
G1 F1000.0 Z-0.1
G1 F1500.0 X33.7746 Y120.4217
G0 Z0.1
G0 X37.7648
G1 F1000.0 Z-0.1
G1 F1500.0 Y123.1962
G1 X37.3658 Y122.7998
G1 X37.0998 Y122.6677
G0 Z0.1
G0 X39.8958 Y121.5417
G1 F1000.0 Z-0.1
G1 F1500.0 X43.3958
G1 X45.3958 Y116.5417
G0 Z0.1
G0 X50.3958
G1 F1000.0 Z-0.1
G1 F1500.0 X52.3958 Y121.5417
G1 X55.8958
G0 Z0.1
G0 X57.3474 Y121.3465
G1 F1000.0 Z-0.1
G1 F1500.0 X58.6686
G0 Z0.1
G0 X59.065 Y120.4217
G1 F1000.0 Z-0.1
G1 F1500.0 X58.008 Y123.1962
G1 X56.9511 Y120.4217
G0 Z0.1
G0 X59.7255
G1 F1000.0 Z-0.1
G1 F1500.0 Y123.1962
G1 X60.6504
G1 X61.0467 Y123.0641
G1 X61.311 Y122.7998
G1 X61.4431 Y122.5356
G1 X61.5752 Y122.1392
G1 Y121.4786
G1 X61.4431 Y121.0823
G1 X61.311 Y120.8181
G1 X61.0467 Y120.5538
G1 X60.6504 Y120.4217
G1 X59.7255
G0 Z0.1
G0 X62.5
G1 F1000.0 Z-0.1
G1 F1500.0 Y123.1962
G1 X64.2175
G0 Z0.1
G0 X63.5569 Y121.875
G1 F1000.0 Z-0.1
G1 F1500.0 X62.5
G0 Z0.1
G0 X60.2723 Y117.6891
G1 F1000.0 Z-0.1
G1 F1500.0 X58.5547
G1 Y114.9146
G0 Z0.1
G0 X57.8958 Y115.5417
G1 F1000.0 Z-0.1
G1 F1500.0 X54.3958 Y113.5417
G0 Z0.1
G0 X58.5547 Y116.3679
G1 F1000.0 Z-0.1
G1 F1500.0 X59.6117
G0 Z0.1
G0 X60.9328 Y114.9146
G1 F1000.0 Z-0.1
G1 F1500.0 Y117.6891
G1 X61.9898 Y114.9146
G1 X63.0467 Y117.6891
G1 Y114.9146
G0 Z0.1
G0 X63.9715 Y115.3109
G1 F1000.0 Z-0.1
G1 F1500.0 X64.2358 Y115.0467
G1 X64.6321 Y114.9146
G1 X65.1606
G1 X65.5569 Y115.0467
G1 X65.8212 Y115.3109
G1 Y115.7073
G1 X65.6891 Y115.9715
G1 X65.5569 Y116.1036
G1 X65.2927 Y116.2358
G1 X64.5 Y116.5
G1 X64.2358 Y116.6321
G1 X64.1037 Y116.7642
G1 X63.9715 Y117.0285
G1 Y117.2927
G1 X64.2358 Y117.5569
G1 X64.6321 Y117.6891
G1 X65.1606
G1 X65.5569 Y117.5569
G1 X65.8212 Y117.2927
G0 Z0.1
G0 X69.1241 Y117.1606
G1 F1000.0 Z-0.1
G1 F1500.0 X69.3883 Y117.2927
G1 X69.7847 Y117.6891
G1 Y114.9146
G0 Z0.1
G0 X67.9168 Y120.4217
G1 F1000.0 Z-0.1
G1 F1500.0 Y123.1962
G1 X67.5205 Y122.7998
G1 X67.2562 Y122.6677
G0 Z0.1
G0 X51.8182 Y130.1818
G1 F1000.0 Z-0.1
G1 F1500.0 X51.6818 Y130.4545
G1 X51.4091 Y130.7273
G1 X51.1364 Y130.8636
G1 X50.5909
G1 X50.3182 Y130.7273
G1 X50.0455 Y130.4545
G1 X49.9091 Y130.1818
G1 X49.7727 Y129.7727
G1 Y129.0909
G1 X49.9091 Y128.6818
G1 X50.0455 Y128.4091
G1 X50.3182 Y128.1364
G1 X50.5909 Y128.0
G1 X51.1364
G1 X51.4091 Y128.1364
G1 X51.6818 Y128.4091
G1 X51.8182 Y128.6818
G1 Y129.0909
G1 X51.1364
G0 Z0.1
G0 X48.9546 Y128.0
G1 F1000.0 Z-0.1
G1 F1500.0 X48.0 Y129.5
G0 Z0.1
G0 X47.0455
G1 F1000.0 Z-0.1
G1 F1500.0 X48.2727
G1 X48.6818 Y129.6364
G1 X48.8182 Y129.7727
G1 X48.9546 Y130.0455
G1 Y130.3182
G1 X48.8182 Y130.5909
G1 X48.6818 Y130.7273
G1 X48.2727 Y130.8636
G1 X47.0455
G1 Y128.0
G0 Z0.1
G0 X45.4091 Y129.5
G1 F1000.0 Z-0.1
G1 F1500.0 X45.8182 Y129.6364
G1 X45.9546 Y129.7727
G1 X46.0909 Y130.0455
G1 Y130.3182
G1 X45.9546 Y130.5909
G1 X45.8182 Y130.7273
G1 X45.4091 Y130.8636
G1 X44.1818
G1 Y128.0
G1 X45.4091
G1 X45.8182 Y128.1364
G1 X45.9546 Y128.2727
G1 X46.0909 Y128.5455
G1 Y128.9545
G1 X45.9546 Y129.2273
G1 X45.8182 Y129.3636
G1 X45.4091 Y129.5
G1 X44.1818
G0 Z0.1
G0 X37.6364 Y115.3011
G1 F1000.0 Z-0.1
G1 F1500.0 X35.8636
G1 Y112.4375
G0 Z0.1
G0 Y113.9375
G1 F1000.0 Z-0.1
G1 F1500.0 X36.9545
G0 Z0.1
G0 X38.3958 Y114.0417
G1 F1000.0 Z-0.1
G1 F1500.0 X39.8958
G1 X41.3958 Y113.0417
G0 Z0.1
G0 X35.1818 Y115.3011
G1 F1000.0 Z-0.1
G1 F1500.0 X33.4091
G1 Y112.4375
G0 Z0.1
G0 X32.2636 Y113.0102
G1 F1000.0 Z-0.1
G1 F1500.0 X32.3182 Y113.1193
G1 X32.4545 Y113.5284
G1 Y114.2102
G1 X32.3182 Y114.6193
G1 X32.1818 Y114.892
G1 X31.9091 Y115.1648
G1 X31.6364 Y115.3011
G1 X31.0909
G1 X30.8182 Y115.1648
G1 X30.5455 Y114.892
G1 X30.4091 Y114.6193
G1 X30.2727 Y114.2102
G1 Y113.5284
G1 X30.4091 Y113.1193
G1 X30.5455 Y112.8466
G1 X30.8182 Y112.5739
G1 X31.0909 Y112.4375
G1 X31.6364
G1 X31.9091 Y112.5739
G1 X32.1818 Y112.8466
G1 X32.2636 Y113.0102
G0 Z0.1
G0 X33.4091 Y113.9375
G1 F1000.0 Z-0.1
G1 F1500.0 X34.5
G0 Z0.1
G0 X102.6818 Y123.9318
G1 F1000.0 Z-0.1
G1 F1500.0 X103.7728 Y121.0682
G1 X104.8637 Y123.9318
G0 Z0.1
G0 X105.6818 Y123.5227
G1 F1000.0 Z-0.1
G1 F1500.0 X105.5455 Y123.25
G1 X105.4091 Y122.8409
G1 Y122.1591
G1 X105.5455 Y121.75
G1 X105.6819 Y121.4773
G1 X105.9546 Y121.2045
G1 X106.2273 Y121.0682
G1 X106.7728
G1 X107.0455 Y121.2045
G1 X107.3182 Y121.4773
G1 X107.4546 Y121.75
G1 X107.5909 Y122.1591
G1 Y122.8409
G1 X107.4546 Y123.25
G1 X107.3182 Y123.5227
G1 X107.0455 Y123.7954
G1 X106.7728 Y123.9318
G1 X106.2273
G1 X105.9546 Y123.7954
G1 X105.6819 Y123.5227
G1 X105.6818
G0 Z0.1
G0 X108.5455 Y122.5682
G1 F1000.0 Z-0.1
G1 F1500.0 X109.7728
G1 X110.1819 Y122.7045
G1 X110.3182 Y122.8409
G1 X110.4546 Y123.1136
G1 Y123.3864
G1 X110.3182 Y123.6591
G1 X110.1819 Y123.7954
G1 X109.7728 Y123.9318
G1 X108.5455
G1 Y121.0682
G0 Z0.1
G0 X109.5 Y122.5682
G1 F1000.0 Z-0.1
G1 F1500.0 X110.4546 Y121.0682
G0 Z0.1
G0 X113.5909 Y123.25
G1 F1000.0 Z-0.1
G1 F1500.0 Y123.3864
G1 X113.7273 Y123.6591
G1 X113.8637 Y123.7954
G1 X114.1364 Y123.9318
G1 X114.6819
G1 X114.9546 Y123.7954
G1 X115.0909 Y123.6591
G1 X115.2273 Y123.3864
G1 Y123.1136
G1 X115.0909 Y122.8409
G1 X114.8182 Y122.4318
G1 X113.4546 Y121.0682
G1 X115.3637
G0 Z0.1
G0 X116.8958 Y121.5417
G1 F1000.0 Z-0.1
G1 F1500.0 X121.3958
G1 X123.3958 Y116.5417
G0 Z0.1
G0 X128.3958
G1 F1000.0 Z-0.1
G1 F1500.0 X130.3958 Y122.0417
G1 X133.8958
G0 Z0.1
G0 X135.0 Y121.4659
G1 F1000.0 Z-0.1
G1 F1500.0 X136.0909 Y124.3295
G1 X137.1818 Y121.4659
G0 Z0.1
G0 X137.8636
G1 F1000.0 Z-0.1
G1 F1500.0 Y124.3295
G1 X138.8182
G1 X139.2273 Y124.1932
G1 X139.5 Y123.9204
G1 X139.6364 Y123.6477
G1 X139.7727 Y123.2386
G1 Y122.5568
G1 X139.6364 Y122.1477
G1 X139.5 Y121.875
G1 X139.2273 Y121.6023
G1 X138.8182 Y121.4659
G1 X137.8636
G0 Z0.1
G0 X136.7727 Y122.4204
G1 F1000.0 Z-0.1
G1 F1500.0 X135.4091
G0 Z0.1
G0 X140.7273 Y122.9659
G1 F1000.0 Z-0.1
G1 F1500.0 X141.8182
G0 Z0.1
G0 X142.5 Y124.3295
G1 F1000.0 Z-0.1
G1 F1500.0 X140.7273
G1 Y121.4659
G0 Z0.1
G0 X138.8864 Y117.8106
G1 F1000.0 Z-0.1
G1 F1500.0 X137.1137
G1 Y114.947
G0 Z0.1
G0 X136.3958 Y115.5417
G1 F1000.0 Z-0.1
G1 F1500.0 X132.3958 Y113.0417
G0 Z0.1
G0 X137.1137 Y116.447
G1 F1000.0 Z-0.1
G1 F1500.0 X138.2046
G0 Z0.1
G0 X139.5682 Y114.947
G1 F1000.0 Z-0.1
G1 F1500.0 Y117.8106
G1 X140.6591 Y114.947
G1 X141.75 Y117.8106
G1 Y114.947
G0 Z0.1
G0 X142.7046 Y115.3561
G1 F1000.0 Z-0.1
G1 F1500.0 X142.9773 Y115.0833
G1 X143.3864 Y114.947
G1 X143.9318
G1 X144.3409 Y115.0833
G1 X144.6137 Y115.3561
G1 Y115.7651
G1 X144.4773 Y116.0379
G1 X144.3409 Y116.1742
G1 X144.0682 Y116.3106
G1 X143.25 Y116.5833
G1 X142.9773 Y116.7197
G1 X142.8409 Y116.8561
G1 X142.7046 Y117.1288
G1 Y117.4015
G1 X142.9773 Y117.6742
G1 X143.3864 Y117.8106
G1 X143.9318
G1 X144.3409 Y117.6742
G1 X144.6137 Y117.4015
G0 Z0.1
G0 X147.75 Y117.1288
G1 F1000.0 Z-0.1
G1 F1500.0 Y117.2651
G1 X147.8864 Y117.5379
G1 X148.0227 Y117.6742
G1 X148.2955 Y117.8106
G1 X148.8409
G1 X149.1136 Y117.6742
G1 X149.25 Y117.5379
G1 X149.3864 Y117.2651
G1 Y116.9924
G1 X149.25 Y116.7197
G1 X148.9773 Y116.3106
G1 X147.6136 Y114.947
G1 X149.5227
G0 Z0.1
G0 X147.1364 Y121.4659
G1 F1000.0 Z-0.1
G1 F1500.0 X145.2273
G1 X146.5909 Y122.8295
G1 X146.8636 Y123.2386
G1 X147.0 Y123.5114
G1 Y123.7841
G1 X146.8636 Y124.0568
G1 X146.7273 Y124.1932
G1 X146.4546 Y124.3295
G1 X145.9091
G1 X145.6364 Y124.1932
G1 X145.5 Y124.0568
G1 X145.3636 Y123.7841
G1 Y123.6477
G0 Z0.1
G0 X130.5519 Y130.1818
G1 F1000.0 Z-0.1
G1 F1500.0 X130.4156 Y130.4545
G1 X130.1428 Y130.7273
G1 X129.8701 Y130.8636
G1 X129.3246
G1 X129.0519 Y130.7273
G1 X128.7792 Y130.4545
G1 X128.6428 Y130.1818
G1 X128.5065 Y129.7727
G1 Y129.0909
G1 X128.6428 Y128.6818
G1 X128.7792 Y128.4091
G1 X129.0519 Y128.1364
G1 X129.3246 Y128.0
G1 X129.8701
G1 X130.1428 Y128.1364
G1 X130.4156 Y128.4091
G1 X130.5519 Y128.6818
G1 Y129.0909
G1 X129.8701
G0 Z0.1
G0 X127.6883 Y128.0
G1 F1000.0 Z-0.1
G1 F1500.0 X126.7337 Y129.5
G0 Z0.1
G0 X125.7792
G1 F1000.0 Z-0.1
G1 F1500.0 X127.0065
G1 X127.4156 Y129.6364
G1 X127.5519 Y129.7727
G1 X127.6883 Y130.0455
G1 Y130.3182
G1 X127.5519 Y130.5909
G1 X127.4156 Y130.7273
G1 X127.0065 Y130.8636
G1 X125.7792
G1 Y128.0
G0 Z0.1
G0 X124.1428 Y129.5
G1 F1000.0 Z-0.1
G1 F1500.0 X124.5519 Y129.6364
G1 X124.6883 Y129.7727
G1 X124.8246 Y130.0455
G1 Y130.3182
G1 X124.6883 Y130.5909
G1 X124.5519 Y130.7273
G1 X124.1428 Y130.8636
G1 X122.9155
G1 Y128.0
G1 X124.1428
G1 X124.5519 Y128.1364
G1 X124.6883 Y128.2727
G1 X124.8246 Y128.5455
G1 Y128.9545
G1 X124.6883 Y129.2273
G1 X124.5519 Y129.3636
G1 X124.1428 Y129.5
G1 X122.9155
G0 Z0.1
G0 X115.9186 Y115.8636
G1 F1000.0 Z-0.1
G1 F1500.0 X114.1458
G1 Y113.0
G0 Z0.1
G0 Y114.5
G1 F1000.0 Z-0.1
G1 F1500.0 X115.2367
G0 Z0.1
G0 X115.8958 Y114.5417
G1 F1000.0 Z-0.1
G1 F1500.0 X117.8958
G1 X119.3958 Y113.5417
G0 Z0.1
G0 X113.464 Y115.8636
G1 F1000.0 Z-0.1
G1 F1500.0 X111.6913
G1 Y113.0
G0 Z0.1
G0 X110.5458 Y113.5727
G1 F1000.0 Z-0.1
G1 F1500.0 X110.6004 Y113.6818
G1 X110.7367 Y114.0909
G1 Y114.7727
G1 X110.6004 Y115.1818
G1 X110.464 Y115.4545
G1 X110.1913 Y115.7273
G1 X109.9186 Y115.8636
G1 X109.3731
G1 X109.1004 Y115.7273
G1 X108.8277 Y115.4545
G1 X108.6913 Y115.1818
G1 X108.5549 Y114.7727
G1 Y114.0909
G1 X108.6913 Y113.6818
G1 X108.8277 Y113.4091
G1 X109.1004 Y113.1364
G1 X109.3731 Y113.0
G1 X109.9186
G1 X110.1913 Y113.1364
G1 X110.464 Y113.4091
G1 X110.5458 Y113.5727
G0 Z0.1
G0 X111.6913 Y114.5
G1 F1000.0 Z-0.1
G1 F1500.0 X112.7822
( Inner )
G64
S1000
G0 Z0.1
G0 X25.4247 Y130.4988
G1 F1000.0 Z-0.1
G2 F400.0 X25.4052 Y130.3391 I-1.7281 J0.1304
G3 X25.4049 Y130.3374 I0.0739 J-0.0126
G2 X25.3681 Y130.1804 I-0.9392 J0.1375
G2 X25.2104 Y129.9075 I-0.7929 J0.2762
G3 X25.21 Y129.9071 I0.0567 J-0.049
G2 X24.9623 Y129.6988 I-0.742 J0.631
G2 X24.659 Y129.5887 I-0.4653 J0.8095
G3 X24.6588 I0.013 J-0.0739
G2 X24.3412 I-0.1588 J0.8917
G1 X24.3411
G2 X24.0374 Y129.699 I0.1634 J0.9235
G2 X23.7904 Y129.9066 I0.4608 J0.799
G2 X23.6313 Y130.1821 I0.7116 J0.5946
G2 X23.575 Y130.5 I0.8759 J0.3191
G2 X23.6313 Y130.8178 I0.9236 J0.0002
G2 X23.7904 Y131.0933 I0.8704 J-0.3188
G2 X24.0376 Y131.3011 I0.715 J-0.5998
G2 X24.3407 Y131.4112 I0.4602 J-0.7948
G2 X24.6593 I0.1593 J-0.9365
G2 X24.9624 Y131.3011 I-0.1567 J-0.9039
G3 X24.9626 Y131.301 I0.0376 J0.0649
G2 X25.2096 Y131.0934 I-0.4583 J-0.796
G3 X25.2102 Y131.0927 I0.0576 J0.048
G2 X25.3681 Y130.8196 I-0.6507 J-0.5583
G2 X25.4049 Y130.6624 I-0.9267 J-0.3002
G3 X25.4056 Y130.6587 I0.0742 J0.011
G2 X25.4159 Y130.5817 I-0.5895 J-0.1183
G3 X25.4162 Y130.5789 I0.0748 J0.0052
G1 X25.4247 Y130.4988
G0 Z0.1
G0 X45.4357 Y111.7449
G1 F1000.0 Z-0.1
G2 F400.0 X46.2133 Y112.3627 I2.4836 J-2.3276
G2 X47.3202 Y112.7646 I1.6799 J-2.9015
G3 X47.3204 Y112.7647 I-0.0128 J0.0739
G2 X48.4812 I0.5804 J-3.2967
G3 X48.4814 Y112.7646 I0.013 J0.0739
G2 X49.5883 Y112.3628 I-0.5717 J-3.3001
G2 X50.4904 Y111.6046 I-1.7452 J-2.9922
G3 X50.4908 Y111.6041 I0.0573 J0.0484
G2 X50.8278 Y111.1293 I-2.4016 J-2.0617
G3 X50.8282 Y111.1286 I0.0649 J0.0376
G2 X51.0699 Y110.6016 I-2.3456 J-1.3946
G2 X51.2049 Y110.0272 I-3.3682 J-1.0945
G3 Y110.027 I0.0742 J0.011
G2 X51.2446 Y109.731 I-9.0345 J-1.3634
G1 X51.2758 Y109.4388
G2 X51.269 Y109.3735 I-2.1033 J0.1861
G3 X51.2689 Y109.3728 I0.0745 J-0.0089
G1 X51.238 Y109.0918
G3 X51.2379 Y109.0914 I0.0745 J-0.0082
G2 X51.2101 Y108.8857 I-3.4185 J0.3576
G3 X51.2098 Y108.8838 I0.074 J-0.0123
G2 X51.07 Y108.2779 I-3.4988 J0.488
G2 X50.8281 Y107.7503 I-2.8416 J0.9838
G2 X50.4903 Y107.2744 I-3.117 J1.8548
G2 X49.5885 Y106.5164 I-2.6223 J2.2045
G2 X48.4814 Y106.1145 I-1.6981 J2.9517
G2 X47.3203 I-0.5805 J3.3692
G2 X46.2131 Y106.5165 I0.596 J3.3674
G2 X45.3115 Y107.2743 I1.6816 J2.916
G2 X44.731 Y108.2797 I2.5963 J2.1693
G2 X44.5255 Y109.4396 I3.1944 J1.164
G2 X44.731 Y110.5994 I3.3706 J0.0009
G2 X45.3115 Y111.6048 I3.1756 J-1.1631
G2 X45.4357 Y111.7449 I2.6079 J-2.1875
G0 Z0.1
G0 X25.2211 Y95.0797
G1 F1000.0 Z-0.1
G2 F400.0 X25.3681 Y94.8196 I-0.6615 J-0.5454
G2 X25.4049 Y94.6624 I-0.9267 J-0.3002
G3 X25.4056 Y94.6587 I0.0742 J0.011
G2 X25.4159 Y94.5817 I-0.5895 J-0.1183
G3 X25.4162 Y94.5789 I0.0748 J0.0052
G1 X25.4247 Y94.4988
G2 X25.4052 Y94.3391 I-1.7281 J0.1304
G3 X25.4049 Y94.3374 I0.0739 J-0.0126
G2 X25.3681 Y94.1804 I-0.9392 J0.1375
G2 X25.2104 Y93.9075 I-0.7929 J0.2762
G3 X25.21 Y93.9071 I0.0567 J-0.049
G2 X24.9623 Y93.6988 I-0.742 J0.631
G2 X24.659 Y93.5887 I-0.4653 J0.8095
G3 X24.6588 I0.013 J-0.0739
G2 X24.3412 I-0.1588 J0.8917
G1 X24.3411
G2 X24.0374 Y93.699 I0.1634 J0.9235
G2 X23.7904 Y93.9066 I0.4608 J0.799
G2 X23.6313 Y94.1821 I0.7116 J0.5946
G2 X23.575 Y94.5 I0.8759 J0.3191
G2 X23.6313 Y94.8178 I0.9236 J0.0002
G2 X23.7904 Y95.0933 I0.8704 J-0.3188
G2 X24.0376 Y95.3011 I0.715 J-0.5998
G2 X24.3407 Y95.4112 I0.4602 J-0.7948
G2 X24.6593 I0.1593 J-0.9365
G2 X24.9624 Y95.3011 I-0.1567 J-0.9039
G3 X24.9626 Y95.301 I0.0376 J0.0649
G2 X25.2096 Y95.0934 I-0.4583 J-0.796
G3 X25.2102 Y95.0927 I0.0576 J0.048
G2 X25.2211 Y95.0797 I-0.6507 J-0.5583
G0 Z0.1
G0 X73.575 Y102.575
G1 F1000.0 Z-0.1
G1 F400.0 Y113.3264
G1 X86.3254
G1 Y102.575
G1 X73.575
G0 Z0.1
G0 Y117.575
G1 F1000.0 Z-0.1
G1 F400.0 Y128.3263
G1 X86.3254
G1 Y117.575
G1 X73.575
G0 Z0.1
G0 X90.4083 Y113.3264
G1 F1000.0 Z-0.1
G1 F400.0 X103.1587
G1 Y102.575
G1 X90.4083
G1 Y113.3264
G0 Z0.1
G0 X122.6222 Y109.8714
G1 F1000.0 Z-0.1
G2 F400.0 X122.8085 Y110.6707 I3.3514 J-0.3594
G1 X122.8084
G1 X122.8085
G2 X123.3889 Y111.6762 I3.1756 J-1.1631
G2 X124.2907 Y112.4341 I2.6079 J-2.1875
G2 X125.3977 Y112.836 I1.6799 J-2.9015
G3 X125.3979 I-0.0128 J0.0739
G2 X126.5587 I0.5804 J-3.2967
G3 X126.5589 I0.013 J0.0739
G2 X127.6658 Y112.4342 I-0.5717 J-3.3001
G2 X128.5679 Y111.676 I-1.7452 J-2.9922
G3 X128.5683 Y111.6755 I0.0573 J0.0484
G2 X128.9053 Y111.2007 I-2.4016 J-2.0617
G3 X128.9057 Y111.2 I0.0649 J0.0376
G2 X129.1474 Y110.673 I-2.3456 J-1.3946
G2 X129.2823 Y110.0986 I-3.3682 J-1.0945
G3 X129.2824 Y110.0984 I0.0742 J0.011
G2 X129.3221 Y109.8024 I-9.0345 J-1.3634
G1 X129.3533 Y109.5102
G2 X129.3465 Y109.4449 I-2.1033 J0.1861
G3 X129.3464 Y109.4442 I0.0745 J-0.0089
G1 X129.3154 Y109.1632
G3 Y109.1628 I0.0745 J-0.0082
G2 X129.2876 Y108.9571 I-3.4185 J0.3576
G3 X129.2873 Y108.9552 I0.074 J-0.0123
G2 X129.1475 Y108.3493 I-3.4988 J0.488
G2 X128.9055 Y107.8216 I-2.8416 J0.9838
G2 X128.5678 Y107.3458 I-3.117 J1.8548
G2 X127.6659 Y106.5878 I-2.6223 J2.2045
G2 X126.5588 Y106.1859 I-1.6981 J2.9517
G2 X125.3978 I-0.5805 J3.3692
G2 X124.2906 Y106.5879 I0.596 J3.3674
G2 X123.389 Y107.3457 I1.6816 J2.916
G2 X122.8085 Y108.3511 I2.5963 J2.1693
G2 X122.603 Y109.511 I3.1944 J1.164
G2 X122.6222 Y109.8714 I3.3706 J0.0009
G0 Z0.1
G0 X153.6668 Y94.9016
G1 F1000.0 Z-0.1
G2 F400.0 X153.7904 Y95.0933 I0.8349 J-0.4026
G2 X154.0376 Y95.3011 I0.715 J-0.5998
G2 X154.3407 Y95.4112 I0.4602 J-0.7948
G2 X154.6593 I0.1593 J-0.9365
G2 X154.9624 Y95.3011 I-0.1567 J-0.9039
G3 X154.9626 Y95.301 I0.0376 J0.0649
G2 X155.2096 Y95.0934 I-0.4583 J-0.796
G3 X155.2102 Y95.0927 I0.0576 J0.048
G2 X155.3681 Y94.8196 I-0.6507 J-0.5583
G2 X155.4049 Y94.6624 I-0.9267 J-0.3002
G3 X155.4056 Y94.6587 I0.0742 J0.011
G2 X155.4159 Y94.5817 I-0.5895 J-0.1183
G3 X155.4162 Y94.5789 I0.0748 J0.0052
G1 X155.4247 Y94.4988
G2 X155.4052 Y94.3391 I-1.7281 J0.1304
G3 X155.4049 Y94.3374 I0.0739 J-0.0126
G2 X155.3681 Y94.1804 I-0.9392 J0.1375
G2 X155.2104 Y93.9075 I-0.7929 J0.2762
G3 X155.21 Y93.9071 I0.0567 J-0.049
G2 X154.9623 Y93.6988 I-0.742 J0.631
G2 X154.659 Y93.5887 I-0.4653 J0.8095
G3 X154.6588 I0.013 J-0.0739
G2 X154.3412 I-0.1588 J0.8917
G1 X154.3411
G2 X154.0374 Y93.699 I0.1634 J0.9235
G2 X153.7904 Y93.9066 I0.4608 J0.799
G2 X153.6313 Y94.1821 I0.7116 J0.5946
G2 X153.575 Y94.5 I0.8759 J0.3191
G2 X153.6313 Y94.8178 I0.9236 J0.0002
G2 X153.6668 Y94.9016 I0.8704 J-0.3188
G0 Z0.1
G0 X154.4788 Y129.5749
G1 F1000.0 Z-0.1
G2 F400.0 X154.3412 Y129.5887 I0.0212 J0.9055
G1 X154.3411
G2 X154.0374 Y129.699 I0.1634 J0.9235
G2 X153.7904 Y129.9066 I0.4608 J0.799
G2 X153.6313 Y130.1821 I0.7116 J0.5946
G2 X153.575 Y130.5 I0.8759 J0.3191
G2 X153.6313 Y130.8178 I0.9236 J0.0002
G2 X153.7904 Y131.0933 I0.8704 J-0.3188
G2 X154.0376 Y131.3011 I0.715 J-0.5998
G2 X154.3407 Y131.4112 I0.4602 J-0.7948
G2 X154.6593 I0.1593 J-0.9365
G2 X154.9624 Y131.3011 I-0.1567 J-0.9039
G3 X154.9626 Y131.301 I0.0376 J0.0649
G2 X155.2096 Y131.0934 I-0.4583 J-0.796
G3 X155.2102 Y131.0927 I0.0576 J0.048
G2 X155.3681 Y130.8196 I-0.6507 J-0.5583
G2 X155.4049 Y130.6624 I-0.9267 J-0.3002
G3 X155.4056 Y130.6587 I0.0742 J0.011
G2 X155.4159 Y130.5817 I-0.5895 J-0.1183
G3 X155.4162 Y130.5789 I0.0748 J0.0052
G1 X155.4247 Y130.4988
G2 X155.4052 Y130.3391 I-1.7281 J0.1304
G3 X155.4049 Y130.3374 I0.0739 J-0.0126
G2 X155.3681 Y130.1804 I-0.9392 J0.1375
G2 X155.2104 Y129.9075 I-0.7929 J0.2762
G3 X155.21 Y129.9071 I0.0567 J-0.049
G2 X154.9623 Y129.6988 I-0.742 J0.631
G2 X154.659 Y129.5887 I-0.4653 J0.8095
G3 X154.6588 I0.013 J-0.0739
G2 X154.4788 Y129.5749 I-0.1588 J0.8917
( Outer BRG_2 )
S1000
G0 Z0.1
G0 X21.5417 Y91.425
G1 F1000.0 Z-0.1
G1 F400.0 X25.5279
G1 X55.1872
G1 X84.8465
G1 X114.5058
G1 X144.1652
G1 X157.5
G3 X157.575 Y91.5 I0.0 J0.075
G1 Y117.0894
G1 Y131.4733
G1 Y133.5
G3 X157.5 Y133.575 I-0.075 J0.0
G1 X127.8407
G1 X98.1813
G1 X68.522
G1 X38.8627
G1 X21.5417
G3 X21.4667 Y133.5 I0.0 J-0.075
G1 Y107.9105
G1 Y91.5
G3 X21.5417 Y91.425 I0.075 J0.0
( Text )
G61
S1000
G0 Z0.1
G0 X46.2552 Y170.8002
G1 F1000.0 Z-0.1
G1 F1500.0 X47.2173
G0 Z0.1
G0 X48.42
G1 F1000.0 Z-0.1
G1 F1500.0 Y172.0028
G1 X49.2619
G1 X49.6227 Y171.8826
G1 X49.8632 Y171.6421
G1 X49.9834 Y171.4015
G1 X50.1037 Y171.0407
G1 Y170.4394
G1 X49.9834 Y170.0786
G1 X49.8632 Y169.8381
G1 X49.6227 Y169.5975
G1 X49.2619 Y169.4773
G1 X48.42
G1 Y170.8002
G0 Z0.1
G0 X47.8187 Y172.0028
G1 F1000.0 Z-0.1
G1 F1500.0 X46.2552
G1 Y169.4773
G0 Z0.1
G0 X46.7363 Y169.2367
G1 F1000.0 Z-0.1
G1 F1500.0 Y166.7112
G0 Z0.1
G0 X47.6984
G1 F1000.0 Z-0.1
G1 F1500.0 Y169.2367
G1 X48.6605 Y166.7112
G1 X49.6227 Y169.2367
G1 Y166.7112
G0 Z0.1
G0 X45.8944 Y167.6733
G1 F1000.0 Z-0.1
G1 F1500.0 X45.7742 Y167.3125
G1 X45.6539 Y167.072
G1 X45.4134 Y166.8314
G1 X45.0526 Y166.7112
G1 X44.2107
G1 Y169.2367
G1 X45.0526
G1 X45.4134 Y169.1165
G1 X45.6539 Y168.8759
G1 X45.7742 Y168.6354
G1 X45.8944 Y168.2746
G1 Y167.6733
G0 Z0.1
G0 X43.7297 Y169.4773
G1 F1000.0 Z-0.1
G1 F1500.0 Y172.0028
G1 X44.812
G1 X45.1728 Y171.8826
G1 X45.2931 Y171.7623
G1 X45.4134 Y171.5218
G1 Y171.161
G1 X45.2931 Y170.9205
G1 X45.1728 Y170.8002
G1 X44.812 Y170.6799
G1 X43.7297
G0 Z0.1
G0 X62.0701 Y169.9583
G1 F1000.0 Z-0.1
G1 F1500.0 Y172.4839
G1 X63.0322 Y169.9583
G1 X63.9944 Y172.4839
G1 Y169.9583
G0 Z0.1
G0 X63.7755 Y169.3017
G1 F1000.0 Z-0.1
G1 F1500.0 X63.9342 Y169.2488
G1 X64.1748 Y169.0083
G1 X64.295 Y168.7677
G1 X64.4153 Y168.4069
G1 Y167.8056
G1 X64.295 Y167.4448
G1 X64.1748 Y167.2043
G1 X63.9342 Y166.9637
G1 X63.5734 Y166.8435
G1 X62.7316
G1 Y169.369
G1 X63.5734
G1 X63.7755 Y169.3017
G0 Z0.1
G0 X64.9565 Y169.9583
G1 F1000.0 Z-0.1
G1 F1500.0 Y172.4839
G1 X66.5199
G0 Z0.1
G0 X67.1213
G1 F1000.0 Z-0.1
G1 F1500.0 X67.9631
G1 X68.3239 Y172.3636
G1 X68.5644 Y172.1231
G1 X68.6847 Y171.8826
G1 X68.805 Y171.5218
G1 Y170.9205
G1 X68.6847 Y170.5597
G1 X68.5644 Y170.3191
G1 X68.3239 Y170.0786
G1 X67.9631 Y169.9583
G1 X67.1213
G1 Y172.4839
G0 Z0.1
G0 X65.9186 Y171.2813
G1 F1000.0 Z-0.1
G1 F1500.0 X64.9565
G0 Z0.1
G0 X65.2571 Y169.369
G1 F1000.0 Z-0.1
G1 F1500.0 Y166.8435
G0 Z0.1
G0 X66.2193
G1 F1000.0 Z-0.1
G1 F1500.0 Y169.369
G1 X67.1814 Y166.8435
G1 X68.1435 Y169.369
G1 Y166.8435
( Inner )
G64
S1000
G0 Z0.1
G0 X24.9664 Y174.4988
G1 F1000.0 Z-0.1
G2 F400.0 X24.9469 Y174.3391 I-1.7281 J0.1304
G3 X24.9466 Y174.3374 I0.0739 J-0.0126
G2 X24.9098 Y174.1804 I-0.9392 J0.1375
G2 X24.7521 Y173.9076 I-0.7929 J0.2762
G3 X24.7517 Y173.9071 I0.0567 J-0.049
G2 X24.504 Y173.6988 I-0.742 J0.631
G2 X24.2007 Y173.5888 I-0.4653 J0.8095
G3 X24.2005 Y173.5887 I0.013 J-0.0739
G2 X23.8829 I-0.1588 J0.8917
G1 X23.8828 Y173.5888
G2 X23.5791 Y173.699 I0.1634 J0.9235
G2 X23.3321 Y173.9066 I0.4608 J0.799
G2 X23.173 Y174.1821 I0.7116 J0.5946
G2 X23.1167 Y174.5001 I0.8759 J0.3191
G2 X23.173 Y174.8178 I0.9236 J0.0002
G2 X23.3321 Y175.0934 I0.8704 J-0.3188
G2 X23.5793 Y175.3011 I0.715 J-0.5998
G2 X23.8824 Y175.4112 I0.4602 J-0.7948
G2 X24.201 I0.1593 J-0.9365
G2 X24.5041 Y175.3011 I-0.1567 J-0.9039
G3 X24.5043 Y175.301 I0.0376 J0.0649
G2 X24.7513 Y175.0935 I-0.4583 J-0.796
G3 X24.7519 Y175.0927 I0.0576 J0.048
G2 X24.9098 Y174.8196 I-0.6507 J-0.5583
G2 X24.9466 Y174.6625 I-0.9267 J-0.3002
G3 X24.9473 Y174.6587 I0.0742 J0.011
G2 X24.9576 Y174.5818 I-0.5895 J-0.1183
G3 X24.9579 Y174.5789 I0.0748 J0.0052
G1 X24.9664 Y174.4988
G0 Z0.1
G0 X44.2159 Y160.0766
G1 F1000.0 Z-0.1
G2 F400.0 X44.3273 Y160.2173 I2.7065 J-2.0278
G2 X45.2291 Y160.9752 I2.6079 J-2.1875
G2 X46.3361 Y161.3771 I1.6799 J-2.9015
G3 X46.3363 Y161.3772 I-0.0128 J0.0739
G2 X47.4971 I0.5804 J-3.2967
G3 X47.4973 Y161.3771 I0.013 J0.0739
G2 X48.6042 Y160.9753 I-0.5717 J-3.3001
G2 X49.5063 Y160.2171 I-1.7452 J-2.9922
G3 X49.5067 Y160.2166 I0.0573 J0.0484
G2 X49.8437 Y159.7418 I-2.4016 J-2.0617
G3 X49.8441 Y159.7411 I0.0649 J0.0376
G2 X50.0858 Y159.2142 I-2.3456 J-1.3946
G2 X50.2207 Y158.6397 I-3.3682 J-1.0945
G3 Y158.6396 I0.0742 J0.011
G2 X50.2605 Y158.3435 I-9.0345 J-1.3634
G1 X50.2917 Y158.0513
G2 X50.2849 Y157.986 I-2.1033 J0.1861
G3 X50.2848 Y157.9853 I0.0745 J-0.0089
G1 X50.2538 Y157.7043
G3 Y157.7039 I0.0745 J-0.0082
G2 X50.2259 Y157.4982 I-3.4185 J0.3576
G3 X50.2257 Y157.4963 I0.074 J-0.0123
G2 X50.0859 Y156.8904 I-3.4988 J0.488
G2 X49.8439 Y156.3628 I-2.8416 J0.9838
G2 X49.5061 Y155.8869 I-3.117 J1.8548
G2 X48.6043 Y155.129 I-2.6223 J2.2045
G2 X47.4972 Y154.727 I-1.6981 J2.9517
G2 X46.3362 I-0.5805 J3.3692
G2 X45.2289 Y155.129 I0.596 J3.3674
G2 X44.3274 Y155.8868 I1.6816 J2.916
G2 X43.7469 Y156.8923 I2.5963 J2.1693
G2 X43.5414 Y158.0521 I3.1944 J1.164
G2 X43.7468 Y159.2119 I3.3706 J0.0009
G2 X44.2159 Y160.0766 I3.1756 J-1.1631
G0 Z0.1
G0 X62.0778 Y158.3664
G1 F1000.0 Z-0.1
G2 F400.0 X62.5231 Y159.7558 I3.4083 J-0.3263
G2 X63.7339 Y160.9666 I2.9208 J-1.7101
G2 X65.4374 Y161.4274 I1.7089 J-2.9379
G2 X67.1414 Y160.9664 I-0.0125 J-3.426
G3 X67.1418 Y160.9662 I0.0376 J0.0649
G2 X67.8304 Y160.4443 I-1.6525 J-2.8959
G3 X67.8309 Y160.4439 I0.0527 J0.0534
G2 X68.3508 Y159.7578 I-1.9862 J-2.0454
G3 X68.3522 Y159.7554 I0.0659 J0.0358
G2 X68.3748 Y159.712 I-0.4011 J-0.2371
G3 X68.3763 Y159.709 I0.0682 J0.0312
G2 X68.541 Y159.3148 I-2.4588 J-1.2585
G1 X68.5902 Y159.1591
G2 X68.6614 Y158.8856 I-4.7315 J-1.3775
G1 X68.6845 Y158.781
G2 X68.754 Y158.4128 I-10.6529 J-2.2002
G1 X68.7694 Y158.32
G1 X68.8123 Y158.0494
G2 X68.8057 Y157.986 I-2.1042 J0.1881
G3 X68.8056 Y157.9853 I0.0745 J-0.0089
G1 X68.7746 Y157.7043
G3 Y157.7039 I0.0745 J-0.0082
G2 X68.7468 Y157.4982 I-3.419 J0.3577
G3 X68.7465 Y157.4963 I0.074 J-0.0123
G2 X68.6067 Y156.8904 I-3.4986 J0.488
G2 X68.3648 Y156.3628 I-2.8415 J0.9838
G2 X68.027 Y155.8869 I-3.1171 J1.8549
G2 X67.1252 Y155.129 I-2.6222 J2.2044
G2 X66.0181 Y154.727 I-1.6983 J2.9522
G2 X64.857 I-0.5805 J3.3677
G2 X63.7498 Y155.129 I0.5969 J3.3699
G2 X62.8482 Y155.8868 I1.6825 J2.917
G2 X62.2677 Y156.8923 I2.6063 J2.1751
G2 X62.0622 Y158.0519 I3.155 J1.157
G2 X62.0778 Y158.3664 I3.4239 J-0.0119
G0 Z0.1
G0 X82.9935
G1 F1000.0 Z-0.1
G1 F400.0 Y164.9599
G1 X95.7398
G1 Y154.2082
G1 X82.9935
G1 Y158.3664
G0 Z0.1
G0 X105.6538
G1 F1000.0 Z-0.1
G1 F400.0 Y164.8395
G1 X118.4041
G1 Y154.0881
G1 X105.6538
G1 Y158.3664
G0 Z0.1
G0 X128.7412
G1 F1000.0 Z-0.1
G1 F400.0 Y164.8395
G1 X141.4916
G1 Y154.0881
G1 X128.7412
G1 Y158.3664
G0 Z0.1
G0 X154.1985 Y146.8803
G1 F1000.0 Z-0.1
G2 F400.0 X154.332 Y147.0934 I0.8449 J-0.3812
G2 X154.5793 Y147.3011 I0.715 J-0.5998
G2 X154.8824 Y147.4112 I0.4602 J-0.7948
G2 X155.201 I0.1593 J-0.9365
G2 X155.5041 Y147.3011 I-0.1567 J-0.9039
G3 X155.5043 Y147.301 I0.0376 J0.0649
G2 X155.7512 Y147.0935 I-0.4583 J-0.796
G3 X155.7519 Y147.0927 I0.0576 J0.048
G2 X155.9098 Y146.8196 I-0.6507 J-0.5583
G2 X155.9466 Y146.6625 I-0.9267 J-0.3002
G3 X155.9473 Y146.6587 I0.0742 J0.011
G2 X155.9576 Y146.5817 I-0.5895 J-0.1183
G3 X155.9578 Y146.5789 I0.0748 J0.0052
G1 X155.9664 Y146.4988
G2 X155.9468 Y146.3391 I-1.7281 J0.1304
G3 X155.9466 Y146.3374 I0.0739 J-0.0126
G2 X155.9097 Y146.1804 I-0.9392 J0.1375
G2 X155.7521 Y145.9076 I-0.7929 J0.2762
G3 X155.7517 Y145.9071 I0.0567 J-0.049
G2 X155.504 Y145.6988 I-0.742 J0.631
G2 X155.2007 Y145.5888 I-0.4653 J0.8095
G3 X155.2005 Y145.5887 I0.013 J-0.0739
G2 X154.8828 I-0.1588 J0.8917
G2 X154.5791 Y145.699 I0.1634 J0.9235
G2 X154.3321 Y145.9066 I0.4608 J0.799
G2 X154.173 Y146.1821 I0.7116 J0.5946
G2 X154.1167 Y146.5001 I0.8759 J0.3191
G2 X154.173 Y146.8178 I0.9236 J0.0002
G2 X154.1985 Y146.8803 I0.8704 J-0.3188
G0 Z0.1
G0 X155.014 Y173.5751
G1 F1000.0 Z-0.1
G2 F400.0 X154.8828 Y173.5887 I0.0277 J0.9053
G2 X154.5791 Y173.699 I0.1634 J0.9235
G2 X154.3321 Y173.9066 I0.4608 J0.799
G2 X154.173 Y174.1821 I0.7116 J0.5946
G2 X154.1167 Y174.5001 I0.8759 J0.3191
G2 X154.173 Y174.8178 I0.9236 J0.0002
G2 X154.332 Y175.0934 I0.8704 J-0.3188
G2 X154.5793 Y175.3011 I0.715 J-0.5998
G2 X154.8824 Y175.4112 I0.4602 J-0.7948
G2 X155.201 I0.1593 J-0.9365
G2 X155.5041 Y175.3011 I-0.1567 J-0.9039
G3 X155.5042 Y175.301 I0.0376 J0.0649
G2 X155.7512 Y175.0935 I-0.4583 J-0.796
G3 X155.7519 Y175.0927 I0.0576 J0.048
G2 X155.9097 Y174.8196 I-0.6507 J-0.5583
G2 X155.9466 Y174.6625 I-0.9267 J-0.3002
G3 X155.9472 Y174.6587 I0.0742 J0.011
G2 X155.9576 Y174.5817 I-0.5895 J-0.1183
G3 X155.9578 Y174.5789 I0.0748 J0.0052
G1 X155.9664 Y174.4988
G2 X155.9468 Y174.3391 I-1.7281 J0.1304
G3 X155.9466 Y174.3374 I0.0739 J-0.0126
G2 X155.9097 Y174.1804 I-0.9392 J0.1375
G2 X155.7521 Y173.9076 I-0.7929 J0.2762
G3 X155.7517 Y173.9071 I0.0567 J-0.049
G2 X155.504 Y173.6988 I-0.742 J0.631
G2 X155.2006 Y173.5888 I-0.4653 J0.8095
G3 X155.2005 Y173.5887 I0.013 J-0.0739
G2 X155.014 Y173.5751 I-0.1588 J0.8917
G0 Z0.1
G0 X24.9371 Y146.7164
G1 F1000.0 Z-0.1
G2 F400.0 X24.9466 Y146.6625 I-0.954 J-0.197
G3 X24.9473 Y146.6587 I0.0742 J0.011
G2 X24.9576 Y146.5818 I-0.5895 J-0.1183
G3 X24.9579 Y146.579 I0.0748 J0.0052
G1 X24.9664 Y146.4988
G2 X24.9469 Y146.3391 I-1.7281 J0.1304
G3 X24.9466 Y146.3374 I0.0739 J-0.0126
G2 X24.9098 Y146.1804 I-0.9392 J0.1375
G2 X24.7521 Y145.9076 I-0.7929 J0.2762
G3 X24.7517 Y145.9071 I0.0567 J-0.049
G2 X24.504 Y145.6988 I-0.742 J0.631
G2 X24.2007 Y145.5888 I-0.4653 J0.8095
G3 X24.2005 Y145.5887 I0.013 J-0.0739
G2 X23.8829 I-0.1588 J0.8917
G1 X23.8828 Y145.5888
G2 X23.5791 Y145.699 I0.1634 J0.9235
G2 X23.3321 Y145.9066 I0.4608 J0.799
G2 X23.173 Y146.1821 I0.7116 J0.5946
G2 X23.1167 Y146.5001 I0.8759 J0.3191
G2 X23.173 Y146.8178 I0.9236 J0.0002
G2 X23.3321 Y147.0934 I0.8704 J-0.3188
G2 X23.5793 Y147.3011 I0.715 J-0.5998
G2 X23.8824 Y147.4112 I0.4602 J-0.7948
G2 X24.201 I0.1593 J-0.9365
G2 X24.5041 Y147.3011 I-0.1567 J-0.9039
G3 X24.5043 Y147.301 I0.0376 J0.0649
G2 X24.7513 Y147.0935 I-0.4583 J-0.796
G3 X24.7519 Y147.0927 I0.0576 J0.048
G2 X24.9098 Y146.8196 I-0.6507 J-0.5583
G2 X24.9371 Y146.7164 I-0.9267 J-0.3002
( Outer DIM_1 )
S1000
G0 Z0.1
G0 X20.9667 Y177.5
G1 F1000.0 Z-0.1
G1 F400.0 Y143.5
G3 X21.0417 Y143.425 I0.075 J0.0
G1 X158.0417
G3 X158.1167 Y143.5 I0.0 J0.075
G1 Y177.5
G3 X158.0417 Y177.575 I-0.075 J0.0
G1 X21.0417
G3 X20.9667 Y177.5 I0.0 J-0.075
( Text )
G61
S1000
G0 Z0.1
G0 X46.7552 Y213.8002
G1 F1000.0 Z-0.1
G1 F1500.0 X47.7173
G0 Z0.1
G0 X48.92
G1 F1000.0 Z-0.1
G1 F1500.0 Y215.0028
G1 X49.7619
G1 X50.1227 Y214.8826
G1 X50.3632 Y214.6421
G1 X50.4834 Y214.4015
G1 X50.6037 Y214.0407
G1 Y213.4394
G1 X50.4834 Y213.0786
G1 X50.3632 Y212.8381
G1 X50.1227 Y212.5975
G1 X49.7619 Y212.4773
G1 X48.92
G1 Y213.8002
G0 Z0.1
G0 X48.3187 Y215.0028
G1 F1000.0 Z-0.1
G1 F1500.0 X46.7552
G1 Y212.4773
G0 Z0.1
G0 X47.2363 Y212.2367
G1 F1000.0 Z-0.1
G1 F1500.0 Y209.7112
G0 Z0.1
G0 X48.1984
G1 F1000.0 Z-0.1
G1 F1500.0 Y212.2367
G1 X49.1605 Y209.7112
G1 X50.1227 Y212.2367
G1 Y209.7112
G0 Z0.1
G0 X46.3944 Y210.6733
G1 F1000.0 Z-0.1
G1 F1500.0 X46.2742 Y210.3125
G1 X46.1539 Y210.072
G1 X45.9134 Y209.8314
G1 X45.5526 Y209.7112
G1 X44.7107
G1 Y212.2367
G1 X45.5526
G1 X45.9134 Y212.1165
G1 X46.1539 Y211.8759
G1 X46.2742 Y211.6354
G1 X46.3944 Y211.2746
G1 Y210.6733
G0 Z0.1
G0 X44.2297 Y212.4773
G1 F1000.0 Z-0.1
G1 F1500.0 Y215.0028
G1 X45.312
G1 X45.6728 Y214.8826
G1 X45.7931 Y214.7623
G1 X45.9134 Y214.5218
G1 Y214.161
G1 X45.7931 Y213.9205
G1 X45.6728 Y213.8002
G1 X45.312 Y213.6799
G1 X44.2297
G0 Z0.1
G0 X62.5701 Y212.9583
G1 F1000.0 Z-0.1
G1 F1500.0 Y215.4839
G1 X63.5322 Y212.9583
G1 X64.4944 Y215.4839
G1 Y212.9583
G0 Z0.1
G0 X64.2755 Y212.3017
G1 F1000.0 Z-0.1
G1 F1500.0 X64.4342 Y212.2488
G1 X64.6748 Y212.0083
G1 X64.795 Y211.7677
G1 X64.9153 Y211.4069
G1 Y210.8056
G1 X64.795 Y210.4448
G1 X64.6748 Y210.2043
G1 X64.4342 Y209.9637
G1 X64.0734 Y209.8435
G1 X63.2316
G1 Y212.369
G1 X64.0734
G1 X64.2755 Y212.3017
G0 Z0.1
G0 X65.4565 Y212.9583
G1 F1000.0 Z-0.1
G1 F1500.0 Y215.4839
G1 X67.0199
G0 Z0.1
G0 X67.6213
G1 F1000.0 Z-0.1
G1 F1500.0 X68.4631
G1 X68.8239 Y215.3636
G1 X69.0644 Y215.1231
G1 X69.1847 Y214.8826
G1 X69.305 Y214.5218
G1 Y213.9205
G1 X69.1847 Y213.5597
G1 X69.0644 Y213.3191
G1 X68.8239 Y213.0786
G1 X68.4631 Y212.9583
G1 X67.6213
G1 Y215.4839
G0 Z0.1
G0 X66.4186 Y214.2813
G1 F1000.0 Z-0.1
G1 F1500.0 X65.4565
G0 Z0.1
G0 X65.7571 Y212.369
G1 F1000.0 Z-0.1
G1 F1500.0 Y209.8435
G0 Z0.1
G0 X66.7193
G1 F1000.0 Z-0.1
G1 F1500.0 Y212.369
G1 X67.6814 Y209.8435
G1 X68.6435 Y212.369
G1 Y209.8435
( Inner )
G64
S1000
G0 Z0.1
G0 X50.7917 Y201.0513
G1 F1000.0 Z-0.1
G2 F400.0 X50.7849 Y200.986 I-2.1033 J0.1861
G3 X50.7848 Y200.9853 I0.0745 J-0.0089
G1 X50.7538 Y200.7043
G3 Y200.7039 I0.0745 J-0.0082
G2 X50.7259 Y200.4982 I-3.4185 J0.3576
G3 X50.7257 Y200.4963 I0.074 J-0.0123
G2 X50.5859 Y199.8904 I-3.4988 J0.488
G2 X50.3439 Y199.3628 I-2.8416 J0.9838
G2 X50.0061 Y198.8869 I-3.117 J1.8548
G2 X49.1043 Y198.129 I-2.6223 J2.2045
G2 X47.9972 Y197.727 I-1.6981 J2.9517
G2 X46.8362 I-0.5805 J3.3692
G2 X45.7289 Y198.129 I0.596 J3.3674
G2 X44.8274 Y198.8868 I1.6816 J2.916
G2 X44.2469 Y199.8923 I2.5963 J2.1693
G2 X44.0414 Y201.0521 I3.1944 J1.164
G2 X44.2468 Y202.2119 I3.3706 J0.0009
G2 X44.8273 Y203.2173 I3.1756 J-1.1631
G2 X45.7291 Y203.9752 I2.6079 J-2.1875
G2 X46.8361 Y204.3771 I1.6799 J-2.9015
G3 X46.8363 Y204.3772 I-0.0128 J0.0739
G2 X47.9971 I0.5804 J-3.2967
G3 X47.9973 Y204.3771 I0.013 J0.0739
G2 X49.1042 Y203.9753 I-0.5717 J-3.3001
G2 X50.0063 Y203.2171 I-1.7452 J-2.9922
G3 X50.0067 Y203.2166 I0.0573 J0.0484
G2 X50.3437 Y202.7418 I-2.4016 J-2.0617
G3 X50.3441 Y202.7411 I0.0649 J0.0376
G2 X50.5858 Y202.2142 I-2.3456 J-1.3946
G2 X50.7207 Y201.6397 I-3.3682 J-1.0945
G3 Y201.6396 I0.0742 J0.011
G2 X50.7605 Y201.3435 I-9.0345 J-1.3634
G1 X50.7917 Y201.0513
G0 Z0.1
G0 X62.5622 Y201.0498
G1 F1000.0 Z-0.1
G2 F400.0 Y201.0519 I3.3604 J-0.0005
G2 X63.0231 Y202.7558 I3.4239 J-0.0119
G2 X64.2339 Y203.9666 I2.9208 J-1.7101
G2 X65.9374 Y204.4274 I1.7089 J-2.9379
G2 X67.6414 Y203.9664 I-0.0125 J-3.426
G3 X67.6418 Y203.9662 I0.0376 J0.0649
G2 X68.3304 Y203.4443 I-1.6525 J-2.8959
G3 X68.3309 Y203.4439 I0.0527 J0.0534
G2 X68.8508 Y202.7578 I-1.9862 J-2.0454
G3 X68.8522 Y202.7554 I0.0659 J0.0358
G2 X68.8748 Y202.712 I-0.4011 J-0.2371
G3 X68.8763 Y202.709 I0.0682 J0.0312
G2 X69.041 Y202.3148 I-2.4588 J-1.2585
G1 X69.0902 Y202.1591
G2 X69.1614 Y201.8856 I-4.7315 J-1.3775
G1 X69.1845 Y201.781
G2 X69.254 Y201.4128 I-10.6529 J-2.2002
G1 X69.2694 Y201.32
G1 X69.3123 Y201.0494
G2 X69.3057 Y200.986 I-2.1042 J0.1881
G3 X69.3056 Y200.9853 I0.0745 J-0.0089
G1 X69.2746 Y200.7043
G3 Y200.7039 I0.0745 J-0.0082
G2 X69.2468 Y200.4982 I-3.419 J0.3577
G3 X69.2465 Y200.4963 I0.074 J-0.0123
G2 X69.1067 Y199.8904 I-3.4986 J0.488
G2 X68.8648 Y199.3628 I-2.8415 J0.9838
G2 X68.527 Y198.8869 I-3.1171 J1.8549
G2 X67.6252 Y198.129 I-2.6222 J2.2044
G2 X66.5181 Y197.727 I-1.6983 J2.9522
G2 X65.357 I-0.5805 J3.3677
G2 X64.2498 Y198.129 I0.5969 J3.3699
G2 X63.3482 Y198.8868 I1.6825 J2.917
G2 X62.7677 Y199.8923 I2.6063 J2.1751
G2 X62.5622 Y201.0498 I3.155 J1.157
G0 Z0.1
G0 X83.4935
G1 F1000.0 Z-0.1
G1 F400.0 Y207.9599
G1 X96.2398
G1 Y197.2082
G1 X83.4935
G1 Y201.0498
G0 Z0.1
G0 X106.1538
G1 F1000.0 Z-0.1
G1 F400.0 Y207.8395
G1 X118.9041
G1 Y197.0881
G1 X106.1538
G1 Y201.0498
G0 Z0.1
G0 X129.2412
G1 F1000.0 Z-0.1
G1 F400.0 Y207.8395
G1 X141.9916
G1 Y197.0881
G1 X129.2412
G1 Y201.0498
G0 Z0.1
G0 X154.6947 Y189.8717
G1 F1000.0 Z-0.1
G2 F400.0 X154.832 Y190.0934 I0.8487 J-0.3727
G2 X155.0793 Y190.3011 I0.715 J-0.5998
G2 X155.3824 Y190.4112 I0.4602 J-0.7948
G2 X155.701 I0.1593 J-0.9365
G2 X156.0041 Y190.3011 I-0.1567 J-0.9039
G3 X156.0043 Y190.301 I0.0376 J0.0649
G2 X156.2512 Y190.0935 I-0.4583 J-0.796
G3 X156.2519 Y190.0927 I0.0576 J0.048
G2 X156.4098 Y189.8196 I-0.6507 J-0.5583
G2 X156.4466 Y189.6625 I-0.9267 J-0.3002
G3 X156.4473 Y189.6587 I0.0742 J0.011
G2 X156.4576 Y189.5817 I-0.5895 J-0.1183
G3 X156.4578 Y189.5789 I0.0748 J0.0052
G1 X156.4664 Y189.4988
G2 X156.4468 Y189.3391 I-1.7281 J0.1304
G3 X156.4466 Y189.3374 I0.0739 J-0.0126
G2 X156.4097 Y189.1804 I-0.9392 J0.1375
G2 X156.2521 Y188.9076 I-0.7929 J0.2762
G3 X156.2517 Y188.9071 I0.0567 J-0.049
G2 X156.004 Y188.6988 I-0.742 J0.631
G2 X155.7007 Y188.5888 I-0.4653 J0.8095
G3 X155.7005 Y188.5887 I0.013 J-0.0739
G2 X155.3828 I-0.1588 J0.8917
G2 X155.0791 Y188.699 I0.1634 J0.9235
G2 X154.8321 Y188.9066 I0.4608 J0.799
G2 X154.673 Y189.1821 I0.7116 J0.5946
G2 X154.6167 Y189.5001 I0.8759 J0.3191
G2 X154.673 Y189.8178 I0.9236 J0.0002
G2 X154.6947 Y189.8717 I0.8704 J-0.3188
G0 Z0.1
G0 X155.5139 Y216.5751
G1 F1000.0 Z-0.1
G2 F400.0 X155.3828 Y216.5887 I0.0278 J0.9053
G2 X155.0791 Y216.699 I0.1634 J0.9235
G2 X154.8321 Y216.9066 I0.4608 J0.799
G2 X154.673 Y217.1821 I0.7116 J0.5946
G2 X154.6167 Y217.5001 I0.8759 J0.3191
G2 X154.673 Y217.8178 I0.9236 J0.0002
G2 X154.832 Y218.0934 I0.8704 J-0.3188
G2 X155.0793 Y218.3011 I0.715 J-0.5998
G2 X155.3824 Y218.4112 I0.4602 J-0.7948
G2 X155.701 I0.1593 J-0.9365
G2 X156.0041 Y218.3011 I-0.1567 J-0.9039
G3 X156.0042 Y218.301 I0.0376 J0.0649
G2 X156.2512 Y218.0935 I-0.4583 J-0.796
G3 X156.2519 Y218.0927 I0.0576 J0.048
G2 X156.4097 Y217.8196 I-0.6507 J-0.5583
G2 X156.4466 Y217.6625 I-0.9267 J-0.3002
G3 X156.4472 Y217.6587 I0.0742 J0.011
G2 X156.4576 Y217.5817 I-0.5895 J-0.1183
G3 X156.4578 Y217.5789 I0.0748 J0.0052
G1 X156.4664 Y217.4988
G2 X156.4468 Y217.3391 I-1.7281 J0.1304
G3 X156.4466 Y217.3374 I0.0739 J-0.0126
G2 X156.4097 Y217.1804 I-0.9392 J0.1375
G2 X156.2521 Y216.9076 I-0.7929 J0.2762
G3 X156.2517 Y216.9071 I0.0567 J-0.049
G2 X156.004 Y216.6988 I-0.742 J0.631
G2 X155.7006 Y216.5888 I-0.4653 J0.8095
G3 X155.7005 Y216.5887 I0.013 J-0.0739
G2 X155.5139 Y216.5751 I-0.1588 J0.8917
G0 Z0.1
G0 X25.4664 Y217.4988
G1 F1000.0 Z-0.1
G2 F400.0 X25.4469 Y217.3391 I-1.7281 J0.1304
G3 X25.4466 Y217.3374 I0.0739 J-0.0126
G2 X25.4098 Y217.1804 I-0.9392 J0.1375
G2 X25.2521 Y216.9076 I-0.7929 J0.2762
G3 X25.2517 Y216.9071 I0.0567 J-0.049
G2 X25.004 Y216.6988 I-0.742 J0.631
G2 X24.7007 Y216.5888 I-0.4653 J0.8095
G3 X24.7005 Y216.5887 I0.013 J-0.0739
G2 X24.3829 I-0.1588 J0.8917
G1 X24.3828 Y216.5888
G2 X24.0791 Y216.699 I0.1634 J0.9235
G2 X23.8321 Y216.9066 I0.4608 J0.799
G2 X23.673 Y217.1821 I0.7116 J0.5946
G2 X23.6167 Y217.5001 I0.8759 J0.3191
G2 X23.673 Y217.8178 I0.9236 J0.0002
G2 X23.8321 Y218.0934 I0.8704 J-0.3188
G2 X24.0793 Y218.3011 I0.715 J-0.5998
G2 X24.3824 Y218.4112 I0.4602 J-0.7948
G2 X24.701 I0.1593 J-0.9365
G2 X25.0041 Y218.3011 I-0.1567 J-0.9039
G3 X25.0043 Y218.301 I0.0376 J0.0649
G2 X25.2513 Y218.0935 I-0.4583 J-0.796
G3 X25.2519 Y218.0927 I0.0576 J0.048
G2 X25.4098 Y217.8196 I-0.6507 J-0.5583
G2 X25.4466 Y217.6625 I-0.9267 J-0.3002
G3 X25.4473 Y217.6587 I0.0742 J0.011
G2 X25.4576 Y217.5818 I-0.5895 J-0.1183
G3 X25.4579 Y217.5789 I0.0748 J0.0052
G1 X25.4664 Y217.4988
G0 Z0.1
G0 X24.573 Y190.4241
G1 F1000.0 Z-0.1
G2 F400.0 X24.701 Y190.4112 I-0.0313 J-0.9494
G2 X25.0041 Y190.3011 I-0.1567 J-0.9039
G3 X25.0043 Y190.301 I0.0376 J0.0649
G2 X25.2513 Y190.0935 I-0.4583 J-0.796
G3 X25.2519 Y190.0927 I0.0576 J0.048
G2 X25.4098 Y189.8196 I-0.6507 J-0.5583
G2 X25.4466 Y189.6625 I-0.9267 J-0.3002
G3 X25.4473 Y189.6587 I0.0742 J0.011
G2 X25.4576 Y189.5818 I-0.5895 J-0.1183
G3 X25.4579 Y189.579 I0.0748 J0.0052
G1 X25.4664 Y189.4988
G2 X25.4469 Y189.3391 I-1.7281 J0.1304
G3 X25.4466 Y189.3374 I0.0739 J-0.0126
G2 X25.4098 Y189.1804 I-0.9392 J0.1375
G2 X25.2521 Y188.9076 I-0.7929 J0.2762
G3 X25.2517 Y188.9071 I0.0567 J-0.049
G2 X25.004 Y188.6988 I-0.742 J0.631
G2 X24.7007 Y188.5888 I-0.4653 J0.8095
G3 X24.7005 Y188.5887 I0.013 J-0.0739
G2 X24.3829 I-0.1588 J0.8917
G1 X24.3828 Y188.5888
G2 X24.0791 Y188.699 I0.1634 J0.9235
G2 X23.8321 Y188.9066 I0.4608 J0.799
G2 X23.673 Y189.1821 I0.7116 J0.5946
G2 X23.6167 Y189.5001 I0.8759 J0.3191
G2 X23.673 Y189.8178 I0.9236 J0.0002
G2 X23.8321 Y190.0934 I0.8704 J-0.3188
G2 X24.0793 Y190.3011 I0.715 J-0.5998
G2 X24.3824 Y190.4112 I0.4602 J-0.7948
G2 X24.573 Y190.4241 I0.1593 J-0.9365
( Outer DIM_2 )
S1000
G0 Z0.1
G0 X21.4667 Y220.5
G1 F1000.0 Z-0.1
G1 F400.0 Y186.5
G3 X21.5417 Y186.425 I0.075 J0.0
G1 X158.5417
G3 X158.6167 Y186.5 I0.0 J0.075
G1 Y220.5
G3 X158.5417 Y220.575 I-0.075 J0.0
G1 X21.5417
G3 X21.4667 Y220.5 I0.0 J-0.075
( Text )
G61
S1000
G0 Z0.1
G0 X15.9848 Y31.6354
G1 F1000.0 Z-0.1
G1 F1500.0 Y29.1098
G0 Z0.1
G0 X16.947
G1 F1000.0 Z-0.1
G1 F1500.0 Y31.6354
G1 X18.6307 Y29.1098
G1 Y31.6354
G0 Z0.1
G0 X19.5928
G1 F1000.0 Z-0.1
G1 F1500.0 Y29.1098
G0 Z0.1
G0 X20.5549
G1 F1000.0 Z-0.1
G1 F1500.0 Y31.6354
G1 X21.517 Y29.1098
G1 X22.4792 Y31.6354
G1 Y29.1098
G0 Z0.1
G0 X23.4413 Y31.6354
G1 F1000.0 Z-0.1
G1 F1500.0 Y29.8314
G1 X23.5615 Y29.4706
G1 X23.8021 Y29.2301
G1 X24.1629 Y29.1098
G1 X24.4034
G1 X24.7642 Y29.2301
G1 X25.0047 Y29.4706
G1 X25.125 Y29.8314
G1 Y31.6354
G0 Z0.1
G0 X26.0871 Y29.1098
G1 F1000.0 Z-0.1
G1 F1500.0 Y31.6354
G1 X27.0492 Y29.1098
G1 X28.0114 Y31.6354
G1 Y29.1098
G0 Z0.1
G0 X28.8532 Y29.4706
G1 F1000.0 Z-0.1
G1 F1500.0 X29.0937 Y29.2301
G1 X29.4545 Y29.1098
G1 X29.9356
G1 X30.2964 Y29.2301
G1 X30.5369 Y29.4706
G1 Y29.8314
G1 X30.4167 Y30.0719
G1 X30.2964 Y30.1922
G1 X30.0559 Y30.3125
G1 X29.3343 Y30.553
G1 X29.0937 Y30.6733
G1 X28.9735 Y30.7935
G1 X28.8532 Y31.0341
G1 Y31.2746
G1 X29.0937 Y31.5151
G1 X29.4545 Y31.6354
G1 X29.9356
G1 X30.2964 Y31.5151
G1 X30.5369 Y31.2746
G0 Z0.1
G0 X15.0227 Y29.1098
G1 F1000.0 Z-0.1
G1 F1500.0 Y31.6354
G1 X14.0606 Y29.1098
G1 X13.0985 Y31.6354
G1 Y29.1098
G0 Z0.1
G0 X34.2092 Y11.9572
G1 F1000.0 Z-0.1
G1 F1500.0 X35.1366
G1 X35.4458 Y12.0637
G1 X35.5488 Y12.1701
G1 X35.6519 Y12.383
G1 Y12.5959
G1 X35.5488 Y12.8088
G1 X35.4458 Y12.9152
G1 X35.1366 Y13.0217
G1 X34.2092
G1 Y10.7864
G0 Z0.1
G0 X34.9306 Y11.9572
G1 F1000.0 Z-0.1
G1 F1500.0 X35.6519 Y10.7864
G0 Z0.1
G0 X36.064
G1 F1000.0 Z-0.1
G1 F1500.0 X36.8884 Y13.0217
G1 X37.7128 Y10.7864
G0 Z0.1
G0 X37.4036 Y11.5315
G1 F1000.0 Z-0.1
G1 F1500.0 X36.3732
G0 Z0.1
G0 X38.0219 Y10.0413
G1 F1000.0 Z-0.1
G1 F1500.0 X39.8767 Y13.4474
G0 Z0.1
G0 X40.495 Y11.9572
G1 F1000.0 Z-0.1
G1 F1500.0 X41.4224
G1 X41.7315 Y11.8508
G1 X41.8345 Y11.7444
G1 X41.9376 Y11.5315
G1 Y11.2121
G1 X41.8345 Y10.9992
G1 X41.7315 Y10.8928
G1 X41.4224 Y10.7864
G1 X40.495
G1 Y13.0217
G1 X41.4224
G1 X41.7315 Y12.9152
G1 X41.8345 Y12.8088
G1 X41.9376 Y12.5959
G1 Y12.383
G1 X41.8345 Y12.1701
G1 X41.7315 Y12.0637
G1 X41.4224 Y11.9572
G0 Z0.1
G0 X42.6589 Y11.5315
G1 F1000.0 Z-0.1
G1 F1500.0 X43.6893
G0 Z0.1
G0 X43.9985 Y10.7864
G1 F1000.0 Z-0.1
G1 F1500.0 X43.1741 Y13.0217
G1 X42.3498 Y10.7864
G0 Z0.1
G0 X44.5137
G1 F1000.0 Z-0.1
G1 F1500.0 Y13.0217
G1 X45.4411
G1 X45.7502 Y12.9152
G1 X45.8533 Y12.8088
G1 X45.9563 Y12.5959
G1 Y12.383
G1 X45.8533 Y12.1701
G1 X45.7502 Y12.0637
G1 X45.4411 Y11.9572
G1 X44.5137
G0 Z0.1
G0 X45.235
G1 F1000.0 Z-0.1
G1 F1500.0 X45.9563 Y10.7864
G0 Z0.1
G0 X46.7494 Y11.1703
G1 F1000.0 Z-0.1
G1 F1500.0 X46.7807 Y11.1057
G1 X46.9867 Y10.8928
G1 X47.1928 Y10.7864
G1 X47.605
G1 X47.8111 Y10.8928
G1 X48.0172 Y11.1057
G1 X48.1202 Y11.3186
G1 X48.2233 Y11.6379
G1 Y12.1701
G1 X48.1202 Y12.4895
G1 X48.0172 Y12.7023
G1 X47.8111 Y12.9152
G1 X47.605 Y13.0217
G1 X47.1928
G1 X46.9867 Y12.9152
G1 X46.7807 Y12.7023
G1 X46.6776 Y12.4895
G1 X46.5746 Y12.1701
G1 Y11.6379
G1 X46.6776 Y11.3186
G1 X46.7494 Y11.1703
G0 Z0.1
G0 X137.621 Y10.9738
G1 F1000.0 Z-0.1
G1 F1500.0 X137.8616 Y10.7333
G1 X138.2224 Y10.613
G1 X138.7034
G1 X139.0642 Y10.7333
G1 X139.3047 Y10.9738
G1 Y11.3346
G1 X139.1845 Y11.5752
G1 X139.0642 Y11.6954
G1 X138.8237 Y11.8157
G1 X138.1021 Y12.0562
G1 X137.8616 Y12.1765
G1 X137.7413 Y12.2968
G1 X137.621 Y12.5373
G1 Y12.7778
G1 X137.8616 Y13.0183
G1 X138.2224 Y13.1386
G1 X138.7034
G1 X139.0642 Y13.0183
G1 X139.3047 Y12.7778
G0 Z0.1
G0 X139.7858 Y13.1386
G1 F1000.0 Z-0.1
G1 F1500.0 X141.4695
G0 Z0.1
G0 X142.0708
G1 F1000.0 Z-0.1
G1 F1500.0 X142.9127
G1 X143.2735 Y13.0183
G1 X143.514 Y12.7778
G1 X143.6343 Y12.5373
G1 X143.7545 Y12.1765
G1 Y11.5752
G1 X143.6343 Y11.2144
G1 X143.514 Y10.9738
G1 X143.2735 Y10.7333
G1 X142.9127 Y10.613
G1 X142.0708
G1 Y13.1386
G0 Z0.1
G0 X140.6277
G1 F1000.0 Z-0.1
G1 F1500.0 Y10.613
G0 Z0.1
G0 X155.454 Y30.3125
G1 F1000.0 Z-0.1
G1 F1500.0 X156.5363
G1 X156.8971 Y30.1922
G1 X157.0174 Y30.072
G1 X157.1377 Y29.8314
G1 Y29.4706
G1 X157.0174 Y29.2301
G1 X156.8971 Y29.1098
G1 X156.5363 Y28.9896
G1 X155.454
G1 Y31.5151
G1 X156.5363
G1 X156.8971 Y31.3949
G1 X157.0174 Y31.2746
G1 X157.1377 Y31.0341
G1 Y30.7936
G1 X157.0174 Y30.553
G1 X156.8971 Y30.4328
G1 X156.5363 Y30.3125
G0 Z0.1
G0 X157.9795 Y29.8314
G1 F1000.0 Z-0.1
G1 F1500.0 X159.1822
G0 Z0.1
G0 X159.543 Y28.9896
G1 F1000.0 Z-0.1
G1 F1500.0 X158.5809 Y31.5151
G1 X157.6187 Y28.9896
G0 Z0.1
G0 X160.1443
G1 F1000.0 Z-0.1
G1 F1500.0 Y31.5151
G1 X161.2267
G1 X161.5875 Y31.3949
G1 X161.7077 Y31.2746
G1 X161.828 Y31.0341
G1 Y30.7936
G1 X161.7077 Y30.553
G1 X161.5875 Y30.4328
G1 X161.2267 Y30.3125
G1 X160.1443
G0 Z0.1
G0 X160.9862
G1 F1000.0 Z-0.1
G1 F1500.0 X161.828 Y28.9896
G0 Z0.1
G0 X162.742 Y29.4466
G1 F1000.0 Z-0.1
G1 F1500.0 X162.7901 Y29.3504
G1 X163.0307 Y29.1098
G1 X163.2712 Y28.9896
G1 X163.7523
G1 X163.9928 Y29.1098
G1 X164.2333 Y29.3504
G1 X164.3536 Y29.5909
G1 X164.4738 Y29.9517
G1 Y30.553
G1 X164.3536 Y30.9138
G1 X164.2333 Y31.1543
G1 X163.9928 Y31.3949
G1 X163.7523 Y31.5151
G1 X163.2712
G1 X163.0307 Y31.3949
G1 X162.7901 Y31.1543
G1 X162.6699 Y30.9138
G1 X162.5496 Y30.553
G1 Y29.9517
G1 X162.6699 Y29.5909
G1 X162.742 Y29.4466
( Inner )
G64
S1000
G0 Z0.1
G0 X24.3316 Y20.2334
G1 F1000.0 Z-0.1
G2 F400.0 X24.3161 Y20.136 I-2.1212 J0.2871
G3 X24.3158 Y20.1345 I0.0738 J-0.0135
G1 X24.2822 Y19.9253
G1 X24.2506 Y19.7434
G2 X24.1868 Y19.4267 I-16.413 J3.146
G2 X24.0584 Y18.9656 I-3.8118 J0.8129
G3 X24.0581 Y18.9649 I0.0709 J-0.0245
G2 X23.8703 Y18.5286 I-2.7084 J0.9076
G2 X23.3502 Y17.8424 I-2.5517 J1.3939
G2 X22.6609 Y17.3201 I-2.4433 J2.5082
G1 Y17.32
G2 X20.957 Y16.8591 I-1.7163 J2.9644
G2 X19.2533 Y17.32 I0.0095 J3.4146
G2 X18.0426 Y18.5307 I1.7014 J2.9121
G2 X17.5817 Y20.2344 I2.9469 J1.7114
G2 X18.0425 Y21.938 I3.3955 J-0.0044
G2 X19.2534 Y23.1489 I2.928 J-1.7171
G2 X20.957 Y23.6097 I1.7089 J-2.9381
G2 X22.6609 Y23.1487 I-0.0118 J-3.4234
G3 X22.6613 Y23.1485 I0.0376 J0.0649
G2 X23.3499 Y22.6266 I-1.6548 J-2.8989
G3 X23.3503 Y22.6262 I0.0527 J0.0534
G2 X23.8703 Y21.9401 I-1.9866 J-2.0456
G3 X23.8717 Y21.9377 I0.0659 J0.0358
G2 X23.8943 Y21.8943 I-0.401 J-0.237
G3 X23.8958 Y21.8913 I0.0682 J0.0312
G2 X24.0605 Y21.4971 I-2.4572 J-1.2578
G1 X24.1097 Y21.3414
G2 X24.1808 Y21.0679 I-4.7224 J-1.3751
G1 X24.204 Y20.9633
G2 X24.2735 Y20.5951 I-10.6102 J-2.1921
G1 X24.2889 Y20.5023
G1 X24.3316 Y20.2334
G0 Z0.1
G0 X34.9767
G1 F1000.0 Z-0.1
G1 F400.0 Y26.1098
G1 X46.7275
G1 Y14.359
G1 X34.9767
G1 Y20.2334
G0 Z0.1
G0 X6.2493 Y15.1879
G1 F1000.0 Z-0.1
G2 F400.0 X6.2534 Y15.1624 I-0.9594 J-0.1685
G3 X6.2541 Y15.1587 I0.0742 J0.011
G2 X6.2644 Y15.0817 I-0.5895 J-0.1183
G3 X6.2646 Y15.0789 I0.0748 J0.0052
G1 X6.2732 Y14.9987
G2 X6.2537 Y14.8391 I-1.7281 J0.1304
G3 X6.2534 Y14.8374 I0.0739 J-0.0126
G2 X6.2165 Y14.6803 I-0.9391 J0.1375
G2 X6.0589 Y14.4075 I-0.7929 J0.2762
G3 X6.0585 Y14.4071 I0.0567 J-0.049
G2 X5.8108 Y14.1988 I-0.742 J0.631
G2 X5.5075 Y14.0887 I-0.4653 J0.8094
G3 X5.5073 I0.013 J-0.0739
G2 X5.1897 I-0.1588 J0.8917
G1 X5.1896
G2 X4.8859 Y14.199 I0.1634 J0.9235
G2 X4.6389 Y14.4066 I0.4608 J0.799
G2 X4.4798 Y14.6821 I0.7116 J0.5946
G2 X4.4235 Y15.0 I0.8759 J0.3191
G2 X4.4798 Y15.3178 I0.9236 J0.0002
G2 X4.6389 Y15.5933 I0.8704 J-0.3188
G2 X4.8861 Y15.8011 I0.715 J-0.5998
G2 X5.1892 Y15.9112 I0.4602 J-0.7949
G2 X5.5078 I0.1593 J-0.9365
G2 X5.8109 Y15.8011 I-0.1567 J-0.9039
G3 X5.8111 Y15.801 I0.0376 J0.0649
G2 X6.058 Y15.5934 I-0.4583 J-0.796
G3 X6.0587 Y15.5927 I0.0576 J0.048
G2 X6.2166 Y15.3196 I-0.6507 J-0.5583
G2 X6.2493 Y15.1879 I-0.9267 J-0.3002
G0 Z0.1
G0 X134.6959
G1 F1000.0 Z-0.1
G1 F400.0 Y26.1098
G1 X146.4467
G1 Y14.359
G1 X134.6959
G1 Y15.1879
G0 Z0.1
G0 X156.6592 Y19.7363
G1 F1000.0 Z-0.1
G2 F400.0 X156.5886 Y20.4216 I3.3292 J0.6895
G2 X156.794 Y21.5813 I3.3706 J0.0009
G2 X157.3745 Y22.5867 I3.1756 J-1.1631
G2 X158.2763 Y23.3447 I2.6079 J-2.1875
G2 X159.3833 Y23.7466 I1.6799 J-2.9015
G3 X159.3835 I-0.0128 J0.0739
G2 X160.5443 I0.5804 J-3.2966
G3 X160.5445 I0.013 J0.0739
G2 X161.6514 Y23.3447 I-0.5717 J-3.3
G2 X162.5535 Y22.5865 I-1.7453 J-2.9922
G3 X162.5539 Y22.586 I0.0573 J0.0484
G2 X162.8909 Y22.1112 I-2.4016 J-2.0616
G3 X162.8913 Y22.1105 I0.0649 J0.0376
G2 X163.133 Y21.5836 I-2.3456 J-1.3946
G2 X163.2679 Y21.0092 I-3.3683 J-1.0945
G3 X163.268 Y21.009 I0.0742 J0.011
G2 X163.3077 Y20.713 I-9.036 J-1.3636
G1 X163.3389 Y20.4208
G2 X163.3321 Y20.3554 I-2.103 J0.1861
G3 X163.332 Y20.3547 I0.0745 J-0.0089
G1 X163.301 Y20.0738
G3 Y20.0734 I0.0745 J-0.0082
G2 X163.2732 Y19.8677 I-3.4182 J0.3576
G3 X163.2729 Y19.8657 I0.074 J-0.0123
G2 X163.1331 Y19.2598 I-3.4987 J0.488
G2 X162.8911 Y18.7322 I-2.8417 J0.9839
G2 X162.5533 Y18.2564 I-3.117 J1.8549
G2 X161.6515 Y17.4984 I-2.6223 J2.2045
G2 X160.5444 Y17.0964 I-1.6981 J2.9516
G2 X159.3834 I-0.5805 J3.3692
G2 X158.2762 Y17.4984 I0.596 J3.3674
G2 X157.3746 Y18.2562 I1.6817 J2.916
G2 X156.7941 Y19.2617 I2.5964 J2.1694
G2 X156.6592 Y19.7363 I3.1944 J1.164
G0 Z0.1
G0 X173.4549 Y15.2392
G1 F1000.0 Z-0.1
G2 F400.0 X173.4798 Y15.3178 I0.8922 J-0.2389
G2 X173.6388 Y15.5933 I0.8704 J-0.3188
G2 X173.8861 Y15.8011 I0.715 J-0.5998
G2 X174.1892 Y15.9112 I0.4602 J-0.7949
G2 X174.5078 I0.1593 J-0.9365
G2 X174.8109 Y15.8011 I-0.1567 J-0.9039
G3 X174.8111 Y15.801 I0.0376 J0.0649
G2 X175.058 Y15.5934 I-0.4583 J-0.796
G3 X175.0587 Y15.5927 I0.0576 J0.048
G2 X175.2166 Y15.3196 I-0.6507 J-0.5583
G2 X175.2534 Y15.1624 I-0.9267 J-0.3002
G3 X175.2541 Y15.1587 I0.0742 J0.011
G2 X175.2644 Y15.0817 I-0.5895 J-0.1183
G3 X175.2646 Y15.0789 I0.0748 J0.0052
G1 X175.2732 Y14.9987
G2 X175.2536 Y14.8391 I-1.7281 J0.1304
G3 X175.2534 Y14.8374 I0.0739 J-0.0126
G2 X175.2165 Y14.6803 I-0.9391 J0.1375
G2 X175.0589 Y14.4075 I-0.7929 J0.2762
G3 X175.0585 Y14.4071 I0.0567 J-0.049
G2 X174.8108 Y14.1988 I-0.742 J0.631
G2 X174.5075 Y14.0887 I-0.4653 J0.8094
G3 X174.5073 I0.013 J-0.0739
G2 X174.1896 I-0.1588 J0.8917
G2 X173.8859 Y14.199 I0.1634 J0.9235
G2 X173.6389 Y14.4066 I0.4608 J0.799
G2 X173.4798 Y14.6821 I0.7116 J0.5946
G2 X173.4235 Y15.0 I0.8759 J0.3191
G2 X173.4549 Y15.2392 I0.9236 J0.0002
G0 Z0.1
G0 X174.3446 Y221.0747
G1 F1000.0 Z-0.1
G2 F400.0 X174.1896 Y221.0887 I0.0039 J0.9058
G2 X173.8859 Y221.199 I0.1634 J0.9235
G2 X173.6389 Y221.4066 I0.4608 J0.799
G2 X173.4798 Y221.6821 I0.7116 J0.5946
G2 X173.4235 Y222.0 I0.8759 J0.3191
G2 X173.4798 Y222.3178 I0.9236 J0.0002
G2 X173.6388 Y222.5933 I0.8704 J-0.3188
G2 X173.8861 Y222.8011 I0.715 J-0.5998
G2 X174.1892 Y222.9112 I0.4602 J-0.7949
G2 X174.5078 I0.1593 J-0.9365
G2 X174.8109 Y222.8011 I-0.1567 J-0.9039
G3 X174.8111 Y222.801 I0.0376 J0.0649
G2 X175.058 Y222.5934 I-0.4583 J-0.796
G3 X175.0587 Y222.5926 I0.0576 J0.048
G2 X175.2166 Y222.3196 I-0.6507 J-0.5583
G2 X175.2534 Y222.1624 I-0.9267 J-0.3002
G3 X175.2541 Y222.1587 I0.0742 J0.011
G2 X175.2644 Y222.0817 I-0.5895 J-0.1183
G3 X175.2646 Y222.0789 I0.0748 J0.0052
G1 X175.2732 Y221.9987
G2 X175.2536 Y221.8391 I-1.7281 J0.1304
G3 X175.2534 Y221.8374 I0.0739 J-0.0126
G2 X175.2165 Y221.6803 I-0.9391 J0.1375
G2 X175.0589 Y221.4075 I-0.7929 J0.2762
G3 X175.0585 Y221.4071 I0.0567 J-0.049
G2 X174.8108 Y221.1988 I-0.742 J0.631
G2 X174.5075 Y221.0887 I-0.4653 J0.8094
G3 X174.5073 I0.013 J-0.0739
G2 X174.3446 Y221.0747 I-0.1588 J0.8917
G0 Z0.1
G0 X6.2732 Y221.9987
G1 F1000.0 Z-0.1
G2 F400.0 X6.2537 Y221.8391 I-1.7281 J0.1304
G3 X6.2534 Y221.8374 I0.0739 J-0.0126
G2 X6.2165 Y221.6803 I-0.9391 J0.1375
G2 X6.0589 Y221.4075 I-0.7929 J0.2762
G3 X6.0585 Y221.4071 I0.0567 J-0.049
G2 X5.8108 Y221.1988 I-0.742 J0.631
G2 X5.5075 Y221.0887 I-0.4653 J0.8094
G3 X5.5073 I0.013 J-0.0739
G2 X5.1897 I-0.1588 J0.8917
G1 X5.1896
G2 X4.8859 Y221.199 I0.1634 J0.9235
G2 X4.6389 Y221.4066 I0.4608 J0.799
G2 X4.4798 Y221.6821 I0.7116 J0.5946
G2 X4.4235 Y222.0 I0.8759 J0.3191
G2 X4.4798 Y222.3178 I0.9236 J0.0002
G2 X4.6389 Y222.5933 I0.8704 J-0.3188
G2 X4.8861 Y222.8011 I0.715 J-0.5998
G2 X5.1892 Y222.9112 I0.4602 J-0.7949
G2 X5.5078 I0.1593 J-0.9365
G2 X5.8109 Y222.8011 I-0.1567 J-0.9039
G3 X5.8111 Y222.801 I0.0376 J0.0649
G2 X6.058 Y222.5934 I-0.4583 J-0.796
G3 X6.0587 Y222.5926 I0.0576 J0.048
G2 X6.2166 Y222.3196 I-0.6507 J-0.5583
G2 X6.2534 Y222.1624 I-0.9267 J-0.3002
G3 X6.2541 Y222.1587 I0.0742 J0.011
G2 X6.2644 Y222.0817 I-0.5895 J-0.1183
G3 X6.2646 Y222.0789 I0.0748 J0.0052
G1 X6.2732 Y221.9987
( Screen_1 inner )
S1000
G0 Z0.1
G0 X166.2735 Y225.9689
G1 F1000.0 Z-0.1
G1 F400.0 Y45.0311
G1 X162.3174 Y41.075
G1 X17.3801 Y40.9708
G1 X13.4235 Y45.0305
G1 Y226.0725
G1 X17.379 Y229.925
G1 X162.3174
G1 X166.2735 Y225.9689
( Screen_1 outer )
S1000
G0 Z0.1
G0 X179.4015 Y238.053
G1 F1000.0 Z-0.1
G1 F400.0 X174.4015 Y243.053
G3 X174.3485 Y243.075 I-0.053 J-0.053
G1 X5.3485
G3 X5.2954 Y243.053 I0.0 J-0.075
G1 X0.2954 Y238.053
G3 X0.2735 Y238.0 I0.053 J-0.053
G1 Y5.0
G3 X0.2954 Y4.9469 I0.075 J0.0
G1 X5.2954 Y-0.0531
G3 X5.3485 Y-0.075 I0.053 J0.053
G1 X174.5
G3 X174.5538 Y-0.0522 I0.0 J0.075
G1 X179.4023 Y4.9478
G3 X179.4235 Y5.0 I-0.0538 J0.0522
G1 Y238.0
G3 X179.4015 Y238.053 I-0.075 J0.0
G0 Z0.1
M5
M30
