( Made using CamBam - http://www.cambam.co.uk )
( CutJob01 7/8/2019 9:26:49 PM )
( T0 : 0.0 )
G21 G90 G64 G40
G0 Z0.1
( T0 : 0.0 )
T0 M6
( Text )
G61 G17
M3 S1000
G0 X251.8491 Y438.4419
G1 F1000.0 Z-0.1
G1 F1500.0 X252.0309 Y438.6237
G1 X252.1219 Y438.8964
G1 Y439.2601
G1 X252.0309 Y439.5328
G1 X251.8491 Y439.7146
G1 X251.6673
G1 X251.4854 Y439.6237
G1 X251.3945 Y439.5328
G1 X251.3035 Y439.351
G1 X251.1217 Y438.8055
G1 X251.0307 Y438.6237
G1 X250.9398 Y438.5328
G1 X250.758 Y438.4419
G1 X250.4852
G1 X250.3034 Y438.6237
G1 X250.2124 Y438.8964
G1 Y439.2601
G1 X250.3034 Y439.5328
G1 X250.4852 Y439.7146
G0 Z0.1
G0 X248.833
G1 F1000.0 Z-0.1
G1 F1500.0 Y438.8964
G1 X248.924 Y438.6237
G1 X249.0149 Y438.5328
G1 X249.1968 Y438.4419
G1 X249.4695
G1 X249.6513 Y438.5328
G1 X249.7423 Y438.6237
G1 X249.8332 Y438.8964
G1 Y439.7146
G1 X247.9241
G0 Z0.1
G0 X247.7033 Y439.7101
G1 F1000.0 Z-0.1
G1 F1500.0 X245.7942
G0 Z0.1
G0 X246.4306
G1 F1000.0 Z-0.1
G1 F1500.0 X247.7033 Y438.4373
G0 Z0.1
G0 X246.8851 Y439.2555
G1 F1000.0 Z-0.1
G1 F1500.0 X245.7942 Y438.4373
G0 Z0.1
G0 X244.6569 Y439.0782
G1 F1000.0 Z-0.1
G1 F1500.0 X243.6569 Y438.4419
G0 Z0.1
G0 X243.6571 Y439.7146
G1 F1000.0 Z-0.1
G1 F1500.0 X245.5662
G1 Y438.8964
G1 X245.4753 Y438.6237
G1 X245.3843 Y438.5328
G1 X245.2025 Y438.4419
G1 X245.0207
G1 X244.8389 Y438.5328
G1 X244.7479 Y438.6237
G1 X244.6569 Y438.8964
G1 Y439.7146
G0 Z0.1
G0 X265.15 Y428.0782
G1 F1000.0 Z-0.1
G1 F1500.0 X266.15
G1 Y427.0782
G1 X265.15
G1 Y428.0782
G0 Z0.1
G0 Y427.0782
G1 F1000.0 Z-0.1
G1 F1500.0 X264.15 Y426.0782
G1 X267.15
G1 X266.15 Y427.0782
G0 Z0.1
G0 X272.2076 Y432.994
G1 F1000.0 Z-0.1
G1 F1500.0 X274.0572
G1 X273.793 Y433.2583
G1 X273.7049 Y433.4344
G0 Z0.1
G0 X272.2076 Y434.3152
G1 F1000.0 Z-0.1
G1 F1500.0 X274.0572
G1 X272.2076 Y435.0198
G1 X274.0572 Y435.7245
G1 X272.2076
G0 Z0.1
G0 X272.5775 Y436.4643
G1 F1000.0 Z-0.1
G1 F1500.0 X272.648 Y436.4291
G1 X272.9122 Y436.341
G1 X273.3526
G1 X273.6168 Y436.4291
G1 X273.793 Y436.5172
G1 X273.9692 Y436.6933
G1 X274.0572 Y436.8695
G1 Y437.2218
G1 X273.9692 Y437.398
G1 X273.793 Y437.5741
G1 X273.6168 Y437.6622
G1 X273.3526 Y437.7503
G1 X272.9122
G1 X272.648 Y437.6622
G1 X272.4718 Y437.5741
G1 X272.2957 Y437.398
G1 X272.2076 Y437.2218
G1 Y436.8695
G1 X272.2957 Y436.6933
G1 X272.4718 Y436.5172
G1 X272.5775 Y436.4643
G0 Z0.1
G0 X272.648 Y438.2787
G1 F1000.0 Z-0.1
G1 F1500.0 X272.4718 Y438.3668
G1 X272.2957 Y438.543
G1 X272.2076 Y438.7191
G1 Y439.0714
G1 X272.2957 Y439.2476
G1 X272.4718 Y439.4238
G1 X272.648 Y439.5118
G1 X272.9122 Y439.5999
G1 X273.3526
G1 X273.6168 Y439.5118
G1 X273.793 Y439.4238
G1 X273.9692 Y439.2476
G1 X274.0572 Y439.0714
G1 Y438.7191
G1 X273.9692 Y438.543
G1 X273.793 Y438.3668
G1 X273.6168 Y438.2787
G0 Z0.1
G0 X282.9042 Y428.1093
G1 F1000.0 Z-0.1
G2 F1500.0 X283.008 Y428.1853 I0.4012 J-0.4393
G2 X283.1503 Y428.2442 I0.2889 J-0.4963
G2 X283.3043 Y428.2645 I0.1508 J-0.5494
G2 X283.6036 Y428.1836 I-0.0019 J-0.6008
G2 X283.8164 Y427.9708 I-0.2974 J-0.5102
G2 X283.8974 Y427.6714 I-0.525 J-0.3027
G2 X283.8164 Y427.372 I-0.5978 J0.0011
G2 X283.6036 Y427.1592 I-0.4862 J0.2734
G2 X283.4573 Y427.1062 I-0.2679 J0.5112
G2 X283.3043 Y427.0782 I-0.3763 J1.6254
G2 X283.1512 Y427.1062 I0.4035 J2.6371
G2 X283.0049 Y427.1592 I0.1416 J0.6196
G2 X282.7921 Y427.372 I0.2738 J0.4866
G2 X282.7111 Y427.6714 I0.5361 J0.3056
G2 X282.7314 Y427.8253 I0.5637 J0.0039
G2 X282.7903 Y427.9676 I0.5759 J-0.1552
G2 X282.8848 Y428.0908 I0.5165 J-0.2982
G2 X282.9042 Y428.1093 I0.4205 J-0.4208
G0 Z0.1
G0 X283.9054 Y427.6745
G1 F1000.0 Z-0.1
G1 F1500.0 X284.0723 Y427.5661
G2 X284.3059 Y427.3788 I-0.916 J-1.3816
G2 X284.4736 Y427.1307 I-0.5147 J-0.5287
G2 X284.4712 Y426.6073 I-0.6776 J-0.2587
G2 X284.3648 Y426.4423 I-0.5516 J0.2391
G2 X284.138 Y426.2575 I-0.7619 J0.7032
G2 X284.0123 Y426.1827 I-0.743 J1.1059
G1 X283.884 Y426.1125
G0 Z0.1
G0 X283.879 Y426.1126
G1 F1000.0 Z-0.1
G2 F1500.0 X283.7981 Y425.8218 I-0.595 J0.009
G2 X283.5853 Y425.609 I-0.4816 J0.2688
G2 X283.439 Y425.5561 I-0.2684 J0.5127
G2 X283.286 Y425.5281 I-0.3715 J1.5977
G2 X283.132 Y425.5484 I0.0305 J0.8241
G2 X282.9897 Y425.6073 I0.1603 J0.5883
G2 X282.8665 Y425.7018 I0.2986 J0.5171
G2 X282.772 Y425.825 I0.4623 J0.4523
G2 X282.7131 Y425.9673 I0.5006 J0.2907
G2 X282.6928 Y426.1212 I0.5799 J0.1549
G2 X282.7131 Y426.2752 I0.5914 J0.0002
G2 X282.772 Y426.4174 I0.5739 J-0.1544
G2 X282.8665 Y426.5406 I0.5157 J-0.2976
G2 X282.9897 Y426.6351 I0.4191 J-0.419
G2 X283.132 Y426.6941 I0.2965 J-0.5146
G2 X283.286 Y426.7144 I0.1543 J-0.5754
G2 X283.4399 Y426.6941 I0.0001 J-0.5926
G2 X283.5822 Y426.6351 I-0.1541 J-0.5732
G2 X283.7054 Y426.5406 I-0.2982 J-0.5166
G2 X283.7999 Y426.4174 I-0.4176 J-0.4181
G2 X283.8588 Y426.2751 I-0.5149 J-0.2966
G2 X283.8791 Y426.1212 I-0.5974 J-0.1572
G2 X283.879 Y426.1126 I-0.5951 J0.0003
G0 Z0.1
G0 X273.6636 Y419.5925
G1 F1000.0 Z-0.1
G1 F1500.0 X273.8454 Y419.6834
G1 X274.0272 Y419.8652
G1 X274.1181 Y420.047
G1 Y420.4106
G1 X274.0272 Y420.5925
G1 X273.8454 Y420.7743
G1 X273.6636 Y420.8652
G1 X273.3908 Y420.9561
G1 X272.9363
G1 X272.6636 Y420.8652
G1 X272.4817 Y420.7743
G1 X272.2999 Y420.5925
G1 X272.209 Y420.4106
G1 Y420.047
G1 X272.2999 Y419.8652
G1 X272.4817 Y419.6834
G1 X272.6636 Y419.5925
G0 Z0.1
G0 X272.8545 Y419.0197
G1 F1000.0 Z-0.1
G1 F1500.0 X272.6636 Y418.9561
G1 X272.4817 Y418.8652
G1 X272.2999 Y418.6834
G1 X272.209 Y418.5016
G1 Y418.1379
G1 X272.2999 Y417.9561
G1 X272.4817 Y417.7743
G1 X272.6636 Y417.6834
G1 X272.9363 Y417.5925
G1 X273.3908
G1 X273.6636 Y417.6834
G1 X273.8454 Y417.7743
G1 X274.0272 Y417.9561
G1 X274.1181 Y418.1379
G1 Y418.5016
G1 X274.0272 Y418.6834
G1 X273.8454 Y418.8652
G1 X273.6636 Y418.9561
G1 X273.3908 Y419.047
G1 X272.9363
G1 X272.8545 Y419.0197
G0 Z0.1
G0 X272.209 Y416.9561
G1 F1000.0 Z-0.1
G1 F1500.0 X274.1181
G1 X272.209 Y416.2288
G1 X274.1181 Y415.5016
G1 X272.209
G0 Z0.1
G0 X273.6636 Y414.7743
G1 F1000.0 Z-0.1
G1 F1500.0 X273.7545
G1 X273.9363 Y414.6834
G1 X274.0272 Y414.5925
G1 X274.1181 Y414.4106
G1 Y414.047
G1 X274.0272 Y413.8652
G1 X273.9363 Y413.7743
G1 X273.7545 Y413.6834
G1 X273.5726
G1 X273.3908 Y413.7743
G1 X273.1181 Y413.9561
G1 X272.209 Y414.8652
G1 Y413.5925
G0 Z0.1
G0 X272.2076 Y401.249
G1 F1000.0 Z-0.1
G1 F1500.0 X274.0573 Y400.5444
G1 X272.2076 Y399.8398
G0 Z0.1
G0 Y399.3994
G1 F1000.0 Z-0.1
G1 F1500.0 X274.0573
G1 Y398.7828
G1 X273.9692 Y398.5186
G1 X273.793 Y398.3425
G1 X273.6169 Y398.2544
G1 X273.3526 Y398.1663
G1 X272.9122
G1 X272.648 Y398.2544
G1 X272.4718 Y398.3425
G1 X272.2957 Y398.5186
G1 X272.2076 Y398.7828
G1 Y399.3994
G0 Z0.1
G0 X272.8242 Y400.104
G1 F1000.0 Z-0.1
G1 F1500.0 Y400.9848
G0 Z0.1
G0 X275.1894 Y400.4134
G1 F1000.0 Z-0.1
G1 F1500.0 X277.0806
G0 Z0.1
G0 X276.18
G1 F1000.0 Z-0.1
G1 F1500.0 Y399.1526
G0 Z0.1
G0 Y398.4321
G1 F1000.0 Z-0.1
G1 F1500.0 Y397.7116
G0 Z0.1
G0 X277.0806 Y397.2613
G1 F1000.0 Z-0.1
G1 F1500.0 Y398.4321
G1 X275.1894
G0 Z0.1
G0 Y399.1526
G1 F1000.0 Z-0.1
G1 F1500.0 X277.0806
G0 Z0.1
G0 X276.7204 Y396.6308
G1 F1000.0 Z-0.1
G1 F1500.0 X276.8105 Y396.4507
G1 X277.0806 Y396.1805
G1 X275.1894
G0 Z0.1
G0 X274.0573 Y396.4047
G1 F1000.0 Z-0.1
G1 F1500.0 Y397.5497
G1 X272.2076
G0 Z0.1
G0 X273.1765
G1 F1000.0 Z-0.1
G1 F1500.0 Y396.8451
G0 Z0.1
G0 X273.7049 Y395.7882
G1 F1000.0 Z-0.1
G1 F1500.0 X273.793 Y395.612
G1 X274.0573 Y395.3478
G1 X272.2076
G0 Z0.1
G0 X272.209 Y382.594
G1 F1000.0 Z-0.1
G1 F1500.0 X274.1181 Y381.8667
G1 X272.209 Y381.1394
G0 Z0.1
G0 Y380.6849
G1 F1000.0 Z-0.1
G1 F1500.0 X274.1181
G1 Y380.0485
G1 X274.0272 Y379.7758
G1 X273.8454 Y379.594
G1 X273.6636 Y379.503
G1 X273.3908 Y379.4121
G1 X272.9363
G1 X272.6636 Y379.503
G1 X272.4817 Y379.594
G1 X272.2999 Y379.7758
G1 X272.209 Y380.0485
G1 Y380.6849
G0 Z0.1
G0 X272.8454 Y381.4121
G1 F1000.0 Z-0.1
G1 F1500.0 Y382.3212
G0 Z0.1
G0 X273.209 Y378.7758
G1 F1000.0 Z-0.1
G1 F1500.0 Y378.0485
G0 Z0.1
G0 X273.6636 Y377.1394
G1 F1000.0 Z-0.1
G1 F1500.0 X273.7545
G1 X273.9363 Y377.0485
G1 X274.0272 Y376.9576
G1 X274.1181 Y376.7758
G1 Y376.4121
G1 X274.0272 Y376.2303
G1 X273.9363 Y376.1394
G1 X273.7545 Y376.0485
G1 X273.5726
G1 X273.3908 Y376.1394
G1 X273.1181 Y376.3212
G1 X272.209 Y377.2303
G1 Y375.9576
G0 Z0.1
G0 X274.1181 Y377.594
G1 F1000.0 Z-0.1
G1 F1500.0 Y378.7758
G1 X272.209
G0 Z0.1
G0 Y363.4237
G1 F1000.0 Z-0.1
G1 F1500.0 X274.0572
G1 Y362.8072
G1 X273.9692 Y362.543
G1 X273.793 Y362.3668
G1 X273.6169 Y362.2787
G1 X273.3526 Y362.1906
G1 X272.9122
G1 X272.648 Y362.2787
G1 X272.4718 Y362.3668
G1 X272.2957 Y362.543
G1 X272.2076 Y362.8072
G1 Y363.4237
G1 X272.209
G0 Z0.1
G0 X272.2076 Y361.5741
G1 F1000.0 Z-0.1
G1 F1500.0 X274.0572
G1 X272.2076 Y360.8695
G1 X274.0572 Y360.1648
G1 X272.2076
G0 Z0.1
G0 X273.1765 Y359.4602
G1 F1000.0 Z-0.1
G1 F1500.0 Y358.7556
G0 Z0.1
G0 X274.0572 Y358.3152
G1 F1000.0 Z-0.1
G1 F1500.0 Y359.4602
G1 X272.2076
G1 Y358.3152
G0 Z0.1
G0 Y357.1702
G1 F1000.0 Z-0.1
G1 F1500.0 X274.0572
G1 X273.793 Y357.4344
G1 X273.7049 Y357.6106
G0 Z0.1
G0 X275.2353 Y357.4061
G1 F1000.0 Z-0.1
G1 F1500.0 X277.1032
G1 X276.8364 Y357.6729
G1 X276.7474 Y357.8508
G0 Z0.1
G0 X277.1032 Y358.4735
G1 F1000.0 Z-0.1
G1 F1500.0 X275.2353 Y359.1851
G1 X277.1032 Y359.8967
G0 Z0.1
G0 X275.8579 Y360.3414
G1 F1000.0 Z-0.1
G1 F1500.0 Y361.2309
G0 Z0.1
G0 X275.2353 Y361.4978
G1 F1000.0 Z-0.1
G1 F1500.0 X277.1032 Y360.7862
G1 X275.2353 Y360.0746
G0 Z0.1
G0 X277.1032 Y361.9425
G1 F1000.0 Z-0.1
G1 F1500.0 X275.2353
G1 X277.1032 Y363.1879
G1 X275.2353
G0 Z0.1
G0 X257.6011 Y368.4068
G1 F1000.0 Z-0.1
G1 F1500.0 Y369.5887
G1 X255.692
G1 Y368.4068
G0 Z0.1
G0 X256.692 Y368.8614
G1 F1000.0 Z-0.1
G1 F1500.0 Y369.5887
G0 Z0.1
G0 X257.6011 Y370.0432
G1 F1000.0 Z-0.1
G1 F1500.0 Y371.3159
G0 Z0.1
G0 Y371.7705
G1 F1000.0 Z-0.1
G1 F1500.0 X256.2374
G1 X255.9647 Y371.8614
G1 X255.7829 Y372.0432
G1 X255.692 Y372.3159
G1 Y372.4977
G1 X255.7829 Y372.7705
G1 X255.9647 Y372.9523
G1 X256.2374 Y373.0432
G1 X257.6011
G0 Z0.1
G0 X255.692 Y373.7705
G1 F1000.0 Z-0.1
G1 F1500.0 X257.6011
G1 X255.692 Y374.4977
G1 X257.6011 Y375.225
G1 X255.692
G0 Z0.1
G0 X256.1916 Y376.0782
G1 F1000.0 Z-0.1
G1 F1500.0 Y380.0782
G1 X251.1916
G0 Z0.1
G0 X255.692 Y387.4523
G1 F1000.0 Z-0.1
G1 F1500.0 Y388.725
G1 X256.6011 Y387.8159
G1 X256.8738 Y387.6341
G1 X257.0556 Y387.5432
G1 X257.2374
G1 X257.4192 Y387.6341
G1 X257.5101 Y387.725
G1 X257.6011 Y387.9069
G1 Y388.2705
G1 X257.5101 Y388.4523
G1 X257.4192 Y388.5432
G1 X257.2374 Y388.6341
G1 X257.1465
G0 Z0.1
G0 X257.3283 Y389.2705
G1 F1000.0 Z-0.1
G1 F1500.0 X257.5101 Y389.4523
G1 X257.6011 Y389.725
G1 Y390.0887
G1 X257.5101 Y390.3614
G1 X257.3283 Y390.5432
G1 X257.1465
G1 X256.9647 Y390.4523
G1 X256.8738 Y390.3614
G1 X256.7829 Y390.1796
G1 X256.6011 Y389.6341
G1 X256.5101 Y389.4523
G1 X256.4192 Y389.3614
G1 X256.2374 Y389.2705
G1 X255.9647
G1 X255.7829 Y389.4523
G1 X255.692 Y389.725
G1 Y390.0887
G1 X255.7829 Y390.3614
G1 X255.9647 Y390.5432
G0 Z0.1
G0 X255.692 Y390.9069
G1 F1000.0 Z-0.1
G1 F1500.0 Y391.9978
G1 X257.6011
G0 Z0.1
G0 X255.692 Y392.725
G1 F1000.0 Z-0.1
G1 F1500.0 X257.6011
G1 X255.692 Y393.4523
G1 X257.6011 Y394.1796
G1 X255.692
G0 Z0.1
G0 X255.6906 Y406.844
G1 F1000.0 Z-0.1
G1 F1500.0 X257.5402
G1 X257.276 Y407.1082
G1 X257.1879 Y407.2844
G0 Z0.1
G0 X257.276 Y408.0771
G1 F1000.0 Z-0.1
G1 F1500.0 X257.4521 Y408.2533
G1 X257.5402 Y408.5175
G1 Y408.8698
G1 X257.4521 Y409.134
G1 X257.276 Y409.3102
G1 X257.0998
G1 X256.9237 Y409.2221
G1 X256.8356 Y409.134
G1 X256.7475 Y408.9579
G1 X256.5713 Y408.4294
G1 X256.4833 Y408.2533
G1 X256.3952 Y408.1652
G1 X256.219 Y408.0771
G1 X255.9548
G1 X255.7786 Y408.2533
G1 X255.6906 Y408.5175
G1 Y408.8698
G1 X255.7786 Y409.134
G1 X255.9548 Y409.3102
G0 Z0.1
G0 X255.6906 Y409.6625
G1 F1000.0 Z-0.1
G1 F1500.0 Y410.7194
G1 X257.5402
G0 Z0.1
G0 X255.6906 Y411.4241
G1 F1000.0 Z-0.1
G1 F1500.0 X257.5402
G1 X255.6906 Y412.1287
G1 X257.5402 Y412.8333
G1 X255.6906
G0 Z0.1
G0 X255.692 Y370.6796
G1 F1000.0 Z-0.1
G1 F1500.0 X257.6011
G0 Z0.1
G0 X256.1916 Y367.0782
G1 F1000.0 Z-0.1
G1 F1500.0 Y357.0782
G0 Z0.1
G0 X255.674 Y355.5451
G1 F1000.0 Z-0.1
G1 F1500.0 X257.6006
G1 X255.674 Y354.8111
G1 X257.6006 Y354.0772
G1 X255.674
G0 Z0.1
G0 Y353.3432
G1 F1000.0 Z-0.1
G1 F1500.0 X257.6006
G0 Z0.1
G0 X256.7749 Y352.8845
G1 F1000.0 Z-0.1
G1 F1500.0 X255.674 Y352.0588
G0 Z0.1
G0 Y351.4166
G1 F1000.0 Z-0.1
G1 F1500.0 X257.6006
G1 Y350.5909
G1 X257.5089 Y350.3157
G1 X257.4171 Y350.224
G1 X257.2337 Y350.1322
G1 X257.0502
G1 X256.8667 Y350.224
G1 X256.7749 Y350.3157
G1 X256.6832 Y350.5909
G1 Y351.4166
G0 Z0.1
G0 Y350.7744
G1 F1000.0 Z-0.1
G1 F1500.0 X255.674 Y350.1322
G0 Z0.1
G0 X256.1916 Y349.0782
G1 F1000.0 Z-0.1
G1 F1500.0 Y344.0782
G1 X251.1916
G0 Z0.1
G0 X257.6006 Y352.0588
G1 F1000.0 Z-0.1
G1 F1500.0 X256.3162 Y353.3432
G0 Z0.1
G0 X272.209 Y344.7742
G1 F1000.0 Z-0.1
G1 F1500.0 X274.1181
G1 Y344.1379
G1 X274.0272 Y343.8652
G1 X273.8454 Y343.6833
G1 X273.6636 Y343.5924
G1 X273.3908 Y343.5015
G1 X272.9363
G1 X272.6636 Y343.5924
G1 X272.4817 Y343.6833
G1 X272.2999 Y343.8652
G1 X272.209 Y344.1379
G1 Y344.7742
G0 Z0.1
G0 Y342.8652
G1 F1000.0 Z-0.1
G1 F1500.0 X274.1181
G1 X272.209 Y342.1379
G1 X274.1181 Y341.4106
G1 X272.209
G0 Z0.1
G0 X273.209 Y340.6833
G1 F1000.0 Z-0.1
G1 F1500.0 Y339.9561
G0 Z0.1
G0 X274.1181 Y339.5015
G1 F1000.0 Z-0.1
G1 F1500.0 Y340.6833
G1 X272.209
G1 Y339.5015
G0 Z0.1
G0 X273.6636 Y338.9561
G1 F1000.0 Z-0.1
G1 F1500.0 X273.7545
G1 X273.9363 Y338.8652
G1 X274.0272 Y338.7742
G1 X274.1181 Y338.5924
G1 Y338.2288
G1 X274.0272 Y338.047
G1 X273.9363 Y337.9561
G1 X273.7545 Y337.8652
G1 X273.5726
G1 X273.3908 Y337.9561
G1 X273.1181 Y338.1379
G1 X272.209 Y339.047
G1 Y337.7742
G0 Z0.1
G0 X275.3237 Y338.047
G1 F1000.0 Z-0.1
G1 F1500.0 Y339.3197
G1 X276.2328 Y338.4106
G1 X276.5055 Y338.2288
G1 X276.6874 Y338.1379
G1 X276.8692
G1 X277.051 Y338.2288
G1 X277.1419 Y338.3197
G1 X277.2328 Y338.5015
G1 Y338.8652
G1 X277.1419 Y339.047
G1 X277.051 Y339.1379
G1 X276.8692 Y339.2288
G1 X276.7783
G0 Z0.1
G0 X277.2328 Y339.6833
G1 F1000.0 Z-0.1
G1 F1500.0 X275.3237 Y340.4106
G1 X277.2328 Y341.1379
G0 Z0.1
G0 X275.9601 Y341.5924
G1 F1000.0 Z-0.1
G1 F1500.0 Y342.5015
G0 Z0.1
G0 X275.3237 Y342.7742
G1 F1000.0 Z-0.1
G1 F1500.0 X277.2328 Y342.047
G1 X275.3237 Y341.3197
G0 Z0.1
G0 X277.2328 Y343.2288
G1 F1000.0 Z-0.1
G1 F1500.0 X275.3237
G1 X277.2328 Y344.5015
G1 X275.3237
G0 Z0.1
G0 X273.209 Y325.6152
G1 F1000.0 Z-0.1
G1 F1500.0 Y324.797
G1 X273.1181 Y324.5243
G1 X273.0272 Y324.4334
G1 X272.8454 Y324.3425
G1 X272.5726
G1 X272.3908 Y324.4334
G1 X272.2999 Y324.5243
G1 X272.209 Y324.797
G1 Y325.6152
G1 X274.1181
G1 Y324.797
G1 X274.0272 Y324.5243
G1 X273.9363 Y324.4334
G1 X273.7545 Y324.3425
G1 X273.5726
G1 X273.3908 Y324.4334
G1 X273.2999 Y324.5243
G1 X273.209 Y324.797
G0 Z0.1
G0 Y323.797
G1 F1000.0 Z-0.1
G1 F1500.0 X272.9363
G1 X272.6636 Y323.7061
G1 X272.4817 Y323.6152
G1 X272.2999 Y323.4334
G1 X272.209 Y323.2516
G1 Y322.8879
G1 X272.2999 Y322.7061
G1 X272.4817 Y322.5243
G1 X272.6636 Y322.4334
G1 X272.9363 Y322.3425
G1 X273.3908
G1 X273.6636 Y322.4334
G1 X273.8454 Y322.5243
G1 X274.0272 Y322.7061
G1 X274.1181 Y322.8879
G1 Y323.2516
G1 X274.0272 Y323.4334
G1 X273.8454 Y323.6152
G1 X273.6636 Y323.7061
G1 X273.3908 Y323.797
G1 X273.209
G0 Z0.1
G0 X274.1181 Y321.9788
G1 F1000.0 Z-0.1
G1 F1500.0 Y320.7061
G0 Z0.1
G0 Y320.2516
G1 F1000.0 Z-0.1
G1 F1500.0 X272.209
G0 Z0.1
G0 X273.209
G1 F1000.0 Z-0.1
G1 F1500.0 Y318.9788
G0 Z0.1
G0 X274.1181
G1 F1000.0 Z-0.1
G1 F1500.0 X272.209
G0 Z0.1
G0 Y321.3425
G1 F1000.0 Z-0.1
G1 F1500.0 X274.1181
G0 Z0.1
G0 X251.9928 Y322.8055
G1 F1000.0 Z-0.1
G1 F1500.0 X250.0837
G0 Z0.1
G0 X249.7738 Y323.1154
G1 F1000.0 Z-0.1
G1 F1500.0 X249.6457 Y322.9873
G1 X249.4639 Y322.8964
G1 X249.1911 Y322.8055
G1 X248.7366
G1 X248.4639 Y322.8964
G1 X248.2821 Y322.9873
G1 X248.1002 Y323.1692
G1 X248.0093 Y323.4419
G1 Y324.0782
G1 X248.0094
G1 X249.9185
G1 Y323.4419
G1 X249.8275 Y323.1692
G1 X249.7738 Y323.1154
G0 Z0.1
G0 X250.0837 Y324.0782
G1 F1000.0 Z-0.1
G1 F1500.0 X251.9928
G0 Z0.1
G0 X251.0837
G1 F1000.0 Z-0.1
G1 F1500.0 Y322.8055
G0 Z0.1
G0 X246.8071 Y324.0782
G1 F1000.0 Z-0.1
G1 F1500.0 Y323.2601
G1 X246.898 Y322.9873
G1 X246.989 Y322.8964
G1 X247.1708 Y322.8055
G1 X247.4435
G1 X247.6254 Y322.8964
G1 X247.7163 Y322.9873
G1 X247.8073 Y323.2601
G1 Y324.0782
G1 X245.8982
G0 Z0.1
G0 X245.7162
G1 F1000.0 Z-0.1
G1 F1500.0 X243.8071
G0 Z0.1
G0 X244.8071
G1 F1000.0 Z-0.1
G1 F1500.0 Y322.8055
G0 Z0.1
G0 X245.7162
G1 F1000.0 Z-0.1
G1 F1500.0 X243.8071
G0 Z0.1
G0 X297.1916 Y314.0782
G1 F1000.0 Z-0.1
G1 F1500.0 X294.1916
G1 Y370.0782
G0 Z0.1
G0 X293.2825 Y371.26
G1 F1000.0 Z-0.1
G1 F1500.0 Y372.4419
G1 X295.1916
G1 Y371.26
G0 Z0.1
G0 X294.2825 Y371.7146
G1 F1000.0 Z-0.1
G1 F1500.0 Y372.4419
G0 Z0.1
G0 X295.1916 Y373.1691
G1 F1000.0 Z-0.1
G1 F1500.0 X293.2825
G1 X295.1916 Y374.4419
G1 X293.2825
G0 Z0.1
G0 X293.6643 Y375.2055
G1 F1000.0 Z-0.1
G1 F1500.0 X293.7371 Y375.1691
G1 X294.0098 Y375.0782
G1 X294.4643
G1 X294.7371 Y375.1691
G1 X294.9189 Y375.26
G1 X295.1007 Y375.4419
G1 X295.1916 Y375.6237
G1 Y375.9873
G1 X295.1007 Y376.1691
G1 X294.9189 Y376.351
G1 X294.7371 Y376.4419
G1 X294.4643 Y376.5328
G1 X294.0098
G1 X293.7371 Y376.4419
G1 X293.5553 Y376.351
G1 X293.3734 Y376.1691
G1 X293.2825 Y375.9873
G1 Y375.6237
G1 X293.3734 Y375.4419
G1 X293.5553 Y375.26
G1 X293.6643 Y375.2055
G0 Z0.1
G0 X293.2825 Y377.1691
G1 F1000.0 Z-0.1
G1 F1500.0 X295.1916
G0 Z0.1
G0 X294.2825
G1 F1000.0 Z-0.1
G1 F1500.0 Y378.4419
G0 Z0.1
G0 X295.1916
G1 F1000.0 Z-0.1
G1 F1500.0 X293.2825
G0 Z0.1
G0 Y380.351
G1 F1000.0 Z-0.1
G1 F1500.0 X295.1916
G1 Y379.5328
G1 X295.1007 Y379.26
G1 X295.0098 Y379.1691
G1 X294.828 Y379.0782
G1 X294.5553
G1 X294.3734 Y379.1691
G1 X294.2825 Y379.26
G1 X294.1916 Y379.5328
G1 Y380.351
G0 Z0.1
G0 Y380.9873
G1 F1000.0 Z-0.1
G1 F1500.0 X294.4643
G1 X294.7371 Y381.0782
G1 X294.9189 Y381.1691
G1 X295.1007 Y381.351
G1 X295.1916 Y381.5328
G1 Y381.8964
G1 X295.1007 Y382.0782
G1 X294.9189 Y382.26
G1 X294.7371 Y382.351
G1 X294.4643 Y382.4419
G1 X294.0098
G1 X293.7371 Y382.351
G1 X293.5553 Y382.26
G1 X293.3734 Y382.0782
G1 X293.2825 Y381.8964
G1 Y381.5328
G1 X293.3734 Y381.351
G1 X293.5553 Y381.1691
G1 X293.7371 Y381.0782
G1 X294.0098 Y380.9873
G1 X294.1916
G0 Z0.1
G0 X293.2825 Y382.9873
G1 F1000.0 Z-0.1
G1 F1500.0 X294.2825 Y383.6237
G0 Z0.1
G0 Y384.26
G1 F1000.0 Z-0.1
G1 F1500.0 Y383.4419
G1 X294.3734 Y383.1691
G1 X294.4643 Y383.0782
G1 X294.6462 Y382.9873
G1 X294.828
G1 X295.0098 Y383.0782
G1 X295.1007 Y383.1691
G1 X295.1916 Y383.4419
G1 Y384.26
G1 X293.2825
G0 Z0.1
G0 X293.7371 Y384.8964
G1 F1000.0 Z-0.1
G1 F1500.0 X293.5553 Y384.9873
G1 X293.3734 Y385.1691
G1 X293.2825 Y385.351
G1 Y385.7146
G1 X293.3734 Y385.8964
G1 X293.5553 Y386.0782
G1 X293.7371 Y386.1691
G1 X294.0098 Y386.26
G1 X294.4643
G1 X294.7371 Y386.1691
G1 X294.9189 Y386.0782
G1 X295.1007 Y385.8964
G1 X295.1916 Y385.7146
G1 Y385.351
G1 X295.1007 Y385.1691
G1 X294.9189 Y384.9873
G1 X294.7371 Y384.8964
G0 Z0.1
G0 X295.1916 Y386.8964
G1 F1000.0 Z-0.1
G1 F1500.0 X293.2825
G0 Z0.1
G0 Y387.6237
G1 F1000.0 Z-0.1
G1 F1500.0 X295.1916
G1 X293.2825 Y388.351
G1 X295.1916 Y389.0782
G1 X293.2825
G0 Z0.1
G0 X294.1916 Y390.0782
G1 F1000.0 Z-0.1
G1 F1500.0 Y444.0782
G1 X297.1916
G0 Z0.1
G0 X309.2294 Y438.2484
G1 F1000.0 Z-0.1
G1 F1500.0 X309.056 Y438.3351
G1 X308.8825 Y438.5085
G1 X308.7958 Y438.682
G1 Y439.0289
G1 X308.8825 Y439.2024
G1 X309.056 Y439.3758
G1 X309.2294 Y439.4625
G1 X309.4896 Y439.5493
G1 X309.9233
G1 X310.1834 Y439.4625
G1 X310.3569 Y439.3758
G1 X310.5304 Y439.2024
G1 X310.6171 Y439.0289
G1 Y438.682
G1 X310.5304 Y438.5085
G1 X310.3569 Y438.3351
G1 X310.1834 Y438.2484
G0 Z0.1
G0 X310.0013 Y437.702
G1 F1000.0 Z-0.1
G1 F1500.0 X309.9233 Y437.728
G1 X309.4896
G1 X309.2294 Y437.6413
G1 X309.056 Y437.5545
G1 X308.8825 Y437.3811
G1 X308.7958 Y437.2076
G1 Y436.8607
G1 X308.8825 Y436.6873
G1 X309.056 Y436.5138
G1 X309.2294 Y436.4271
G1 X309.4896 Y436.3404
G1 X309.9233
G1 X310.1834 Y436.4271
G1 X310.3569 Y436.5138
G1 X310.5304 Y436.6873
G1 X310.6171 Y436.8607
G1 Y437.2076
G1 X310.5304 Y437.3811
G1 X310.3569 Y437.5545
G1 X310.1834 Y437.6413
G1 X310.0013 Y437.702
G0 Z0.1
G0 X308.7958 Y435.7333
G1 F1000.0 Z-0.1
G1 F1500.0 X310.6171
G1 X308.7958 Y435.0394
G1 X310.6171 Y434.3456
G1 X308.7958
G0 Z0.1
G0 Y433.0447
G1 F1000.0 Z-0.1
G1 F1500.0 X310.6171
G1 X310.3569 Y433.3049
G1 X310.2702 Y433.4783
G0 Z0.1
G0 X310.2141 Y419.4869
G1 F1000.0 Z-0.1
G1 F1500.0 X310.3875 Y419.5736
G1 X310.561 Y419.747
G1 X310.6477 Y419.9205
G1 Y420.2674
G1 X310.561 Y420.4409
G1 X310.3875 Y420.6143
G1 X310.2141 Y420.701
G1 X309.9539 Y420.7878
G1 X309.5203
G1 X309.2601 Y420.701
G1 X309.0866 Y420.6143
G1 X308.9132 Y420.4409
G1 X308.8264 Y420.2674
G1 Y419.9205
G1 X308.9132 Y419.747
G1 X309.0866 Y419.5736
G1 X309.2601 Y419.4869
G0 Z0.1
G0 X309.4422 Y418.9405
G1 F1000.0 Z-0.1
G1 F1500.0 X309.2601 Y418.8798
G1 X309.0866 Y418.793
G1 X308.9132 Y418.6196
G1 X308.8264 Y418.4461
G1 Y418.0992
G1 X308.9132 Y417.9258
G1 X309.0866 Y417.7523
G1 X309.2601 Y417.6656
G1 X309.5203 Y417.5789
G1 X309.9539
G1 X310.2141 Y417.6656
G1 X310.3875 Y417.7523
G1 X310.561 Y417.9258
G1 X310.6477 Y418.0992
G1 Y418.4461
G1 X310.561 Y418.6196
G1 X310.3875 Y418.793
G1 X310.2141 Y418.8798
G1 X309.9539 Y418.9665
G1 X309.5203
G1 X309.4422 Y418.9405
G0 Z0.1
G0 X308.8264 Y416.9718
G1 F1000.0 Z-0.1
G1 F1500.0 X310.6477
G1 X308.8264 Y416.2779
G1 X310.6477 Y415.5841
G1 X308.8264
G0 Z0.1
G0 X310.2141 Y414.8903
G1 F1000.0 Z-0.1
G1 F1500.0 X310.3008
G1 X310.4743 Y414.8036
G1 X310.561 Y414.7168
G1 X310.6477 Y414.5434
G1 Y414.1965
G1 X310.561 Y414.023
G1 X310.4743 Y413.9363
G1 X310.3008 Y413.8496
G1 X310.1274
G1 X309.9539 Y413.9363
G1 X309.6937 Y414.1098
G1 X308.8264 Y414.977
G1 Y413.7628
G0 Z0.1
G0 X308.7741 Y400.3351
G1 F1000.0 Z-0.1
G1 F1500.0 X310.5954
G0 Z0.1
G0 X309.7281
G1 F1000.0 Z-0.1
G1 F1500.0 Y399.1209
G0 Z0.1
G0 Y398.4271
G1 F1000.0 Z-0.1
G1 F1500.0 Y397.7333
G0 Z0.1
G0 X310.5954 Y397.2996
G1 F1000.0 Z-0.1
G1 F1500.0 Y398.4271
G1 X308.7741
G0 Z0.1
G0 Y399.1209
G1 F1000.0 Z-0.1
G1 F1500.0 X310.5954
G0 Z0.1
G0 X310.2485 Y396.6925
G1 F1000.0 Z-0.1
G1 F1500.0 X310.3352 Y396.5191
G1 X310.5954 Y396.2589
G1 X308.7741
G0 Z0.1
G0 X309.2371 Y343.6237
G1 F1000.0 Z-0.1
G1 F1500.0 X309.0553 Y343.7146
G1 X308.8735 Y343.8964
G1 X308.7825 Y344.0782
G1 Y344.4419
G1 X308.8735 Y344.6237
G1 X309.0553 Y344.8055
G1 X309.2371 Y344.8964
G1 X309.5098 Y344.9873
G1 X309.9644
G1 X310.2371 Y344.8964
G1 X310.4189 Y344.8055
G1 X310.6007 Y344.6237
G1 X310.6916 Y344.4419
G1 Y344.0782
G1 X310.6007 Y343.8964
G1 X310.4189 Y343.7146
G1 X310.2371 Y343.6237
G0 Z0.1
G0 X309.4189 Y342.9873
G1 F1000.0 Z-0.1
G1 F1500.0 Y342.0782
G0 Z0.1
G0 X308.7825 Y341.8055
G1 F1000.0 Z-0.1
G1 F1500.0 X310.6916 Y342.5328
G1 X308.7825 Y343.2601
G0 Z0.1
G0 X309.7825 Y341.351
G1 F1000.0 Z-0.1
G1 F1500.0 Y340.5328
G1 X309.6916 Y340.2601
G1 X309.6007 Y340.1691
G1 X309.4189 Y340.0782
G1 X309.1462
G1 X308.9644 Y340.1691
G1 X308.8735 Y340.2601
G1 X308.7825 Y340.5328
G1 Y341.351
G1 X310.6916
G1 Y340.5328
G1 X310.6007 Y340.2601
G1 X310.5098 Y340.1691
G1 X310.328 Y340.0782
G1 X310.1462
G1 X309.9644 Y340.1691
G1 X309.8735 Y340.2601
G1 X309.7825 Y340.5328
G0 Z0.1
G0 X310.6916 Y339.4419
G1 F1000.0 Z-0.1
G1 F1500.0 X308.7825
G0 Z0.1
G0 Y338.7146
G1 F1000.0 Z-0.1
G1 F1500.0 X310.6916
G1 X308.7825 Y337.4419
G1 X310.6916
G0 Z0.1
G0 X309.7825 Y325.5707
G1 F1000.0 Z-0.1
G1 F1500.0 Y324.8434
G0 Z0.1
G0 X310.6916 Y324.3888
G1 F1000.0 Z-0.1
G1 F1500.0 Y325.5707
G1 X308.7825
G1 Y324.3888
G0 Z0.1
G0 Y323.8434
G1 F1000.0 Z-0.1
G1 F1500.0 X310.6916
G1 X308.7825 Y323.1161
G1 X310.6916 Y322.3888
G1 X308.7825
G0 Z0.1
G0 X309.7825 Y321.6616
G1 F1000.0 Z-0.1
G1 F1500.0 Y320.9343
G0 Z0.1
G0 Y319.9343
G1 F1000.0 Z-0.1
G1 F1500.0 Y319.1161
G1 X309.8735 Y318.8434
G1 X309.9644 Y318.7525
G1 X310.1462 Y318.6616
G1 X310.328
G1 X310.5098 Y318.7525
G1 X310.6007 Y318.8434
G1 X310.6916 Y319.1161
G1 Y319.9343
G1 X308.7825
G0 Z0.1
G0 Y320.4798
G1 F1000.0 Z-0.1
G1 F1500.0 Y321.6616
G1 X310.6916
G1 Y320.4798
G0 Z0.1
G0 X309.7825 Y319.2979
G1 F1000.0 Z-0.1
G1 F1500.0 X308.7825 Y318.6616
( Inner )
G64
S1000
G0 Z0.1
G0 X247.8973 Y425.4638
G1 F1000.0 Z-0.1
G2 F400.0 X247.8339 Y425.4705 I0.188 J2.1032
G3 X247.8331 Y425.4706 I-0.0089 J-0.0745
G1 X247.5522 Y425.5015
G3 X247.5518 Y425.5016 I-0.0082 J-0.0745
G2 X247.3461 Y425.5294 I0.3576 J3.4185
G3 X247.3442 Y425.5297 I-0.0123 J-0.074
G2 X246.7382 Y425.6695 I0.488 J3.4988
G2 X246.2106 Y425.9114 I0.9838 J2.8416
G2 X245.7348 Y426.2492 I1.8549 J3.1171
G2 X244.9768 Y427.151 I2.2044 J2.6222
G2 X244.5749 Y428.2581 I2.9522 J1.6983
G2 Y429.4191 I3.3677 J0.5805
G2 X244.9769 Y430.5264 I3.3699 J-0.5969
G2 X245.7346 Y431.428 I2.917 J-1.6825
G2 X246.7402 Y432.0085 I2.1751 J-2.6063
G2 X247.8998 Y432.214 I1.157 J-3.155
G2 X249.6036 Y431.7531 I-0.0119 J-3.4239
G2 X250.8144 Y430.5423 I-1.7101 J-2.9208
G2 X251.2753 Y428.8387 I-2.9379 J-1.7089
G2 X250.8143 Y427.1348 I-3.426 J0.0125
G3 X250.814 Y427.1344 I0.0649 J-0.0376
G2 X250.2922 Y426.4457 I-2.8959 J1.6525
G3 X250.2918 Y426.4453 I0.0534 J-0.0527
G2 X249.6056 Y425.9253 I-2.0454 J1.9862
G3 X249.6032 Y425.924 I0.0358 J-0.0659
G2 X249.5599 Y425.9013 I-0.2371 J0.4011
G3 X249.5569 Y425.8999 I0.0312 J-0.0682
G2 X249.1627 Y425.7352 I-1.2585 J2.4588
G1 X249.007 Y425.686
G2 X248.7335 Y425.6148 I-1.3775 J4.7316
G1 X248.6288 Y425.5916
G2 X248.2607 Y425.5222 I-2.2003 J10.6532
G1 X248.1679 Y425.5067
G1 X247.8973 Y425.4638
G0 Z0.1
G0 X247.8972 Y413.214
G1 F1000.0 Z-0.1
G2 F400.0 X247.8998 I0.0 J-3.3604
G2 X249.6036 Y412.7531 I-0.0119 J-3.4239
G2 X250.8144 Y411.5423 I-1.7101 J-2.9208
G2 X251.2753 Y409.8387 I-2.9379 J-1.7089
G2 X250.8143 Y408.1348 I-3.426 J0.0125
G3 X250.814 Y408.1344 I0.0649 J-0.0376
G2 X250.2922 Y407.4457 I-2.8958 J1.6525
G3 X250.2918 Y407.4453 I0.0534 J-0.0527
G2 X249.6056 Y406.9253 I-2.0453 J1.9862
G3 X249.6032 Y406.924 I0.0358 J-0.0659
G2 X249.5599 Y406.9013 I-0.2371 J0.4011
G3 X249.5569 Y406.8999 I0.0312 J-0.0682
G2 X249.1627 Y406.7352 I-1.2585 J2.4588
G1 X249.007 Y406.686
G2 X248.7335 Y406.6148 I-1.3777 J4.7321
G1 X248.6288 Y406.5916
G2 X248.2607 Y406.5222 I-2.201 J10.6572
G1 X248.1679 Y406.5067
G1 X247.8973 Y406.4639
G2 X247.8339 Y406.4705 I0.188 J2.1029
G3 X247.8331 Y406.4706 I-0.0089 J-0.0745
G1 X247.5522 Y406.5015
G3 X247.5518 Y406.5016 I-0.0082 J-0.0745
G2 X247.3461 Y406.5294 I0.3576 J3.4182
G3 X247.3442 Y406.5297 I-0.0123 J-0.074
G2 X246.7382 Y406.6695 I0.488 J3.4987
G2 X246.2106 Y406.9114 I0.9839 J2.8417
G2 X245.7348 Y407.2492 I1.8549 J3.1171
G2 X244.9768 Y408.151 I2.2044 J2.6222
G2 X244.5749 Y409.2581 I2.9522 J1.6983
G2 Y410.4191 I3.3677 J0.5805
G2 X244.9769 Y411.5264 I3.3699 J-0.5969
G2 X245.7346 Y412.428 I2.917 J-1.6825
G2 X246.7402 Y413.0085 I2.1751 J-2.6063
G2 X247.8972 Y413.214 I1.157 J-3.155
G0 Z0.1
G0 X262.36 Y416.5436
G1 F1000.0 Z-0.1
G2 F400.0 X262.3249 Y416.7165 I3.319 J0.7641
G2 Y417.8775 I3.3677 J0.5805
G2 X262.7269 Y418.9847 I3.3699 J-0.5969
G2 X263.4847 Y419.8863 I2.917 J-1.6825
G2 X264.4902 Y420.4669 I2.1751 J-2.6063
G2 X265.6498 Y420.6723 I1.157 J-3.155
G2 X267.3537 Y420.2114 I-0.0119 J-3.4239
G2 X268.5644 Y419.0006 I-1.7101 J-2.9208
G2 X269.0253 Y417.2971 I-2.9379 J-1.7089
G2 X268.5643 Y415.5931 I-3.426 J0.0125
G3 X268.5641 Y415.5927 I0.0649 J-0.0376
G2 X268.0422 Y414.9041 I-2.8958 J1.6525
G3 X268.0418 Y414.9037 I0.0534 J-0.0527
G2 X267.3556 Y414.3837 I-2.0453 J1.9862
G3 X267.3532 Y414.3823 I0.0358 J-0.0659
G2 X267.3099 Y414.3597 I-0.2371 J0.4011
G3 X267.3069 Y414.3582 I0.0312 J-0.0682
G2 X266.9127 Y414.1936 I-1.2585 J2.4588
G1 X266.757 Y414.1444
G2 X266.4835 Y414.0732 I-1.3777 J4.7321
G1 X266.3789 Y414.05
G2 X266.0107 Y413.9805 I-2.201 J10.6572
G1 X265.9179 Y413.9651
G1 X265.6473 Y413.9222
G2 X265.5839 Y413.9288 I0.188 J2.1029
G3 X265.5832 Y413.9289 I-0.0089 J-0.0745
G1 X265.3022 Y413.9599
G3 X265.3018 I-0.0082 J-0.0745
G2 X265.0961 Y413.9877 I0.3576 J3.4182
G3 X265.0942 Y413.988 I-0.0123 J-0.074
G2 X264.4883 Y414.1278 I0.488 J3.4987
G2 X263.9606 Y414.3698 I0.9839 J2.8417
G2 X263.4848 Y414.7076 I1.8549 J3.1171
G2 X262.7268 Y415.6094 I2.2044 J2.6222
G2 X262.36 Y416.5436 I2.9522 J1.6983
G0 Z0.1
G0 X265.0509 Y401.619
G1 F1000.0 Z-0.1
G2 F400.0 X265.6498 Y401.6723 I0.5963 J-3.3071
G2 X267.3537 Y401.2114 I-0.0119 J-3.4239
G2 X268.5644 Y400.0006 I-1.7101 J-2.9208
G2 X269.0253 Y398.2971 I-2.9379 J-1.7089
G2 X268.5643 Y396.5931 I-3.426 J0.0125
G3 X268.5641 Y396.5927 I0.0649 J-0.0376
G2 X268.0422 Y395.9041 I-2.8958 J1.6525
G3 X268.0418 Y395.9037 I0.0534 J-0.0527
G2 X267.3556 Y395.3837 I-2.0453 J1.9862
G3 X267.3532 Y395.3823 I0.0358 J-0.0659
G2 X267.3099 Y395.3597 I-0.2371 J0.4011
G3 X267.3069 Y395.3582 I0.0312 J-0.0682
G2 X266.9127 Y395.1936 I-1.2585 J2.4588
G1 X266.757 Y395.1444
G2 X266.4835 Y395.0732 I-1.3777 J4.7321
G1 X266.3789 Y395.05
G2 X266.0107 Y394.9805 I-2.201 J10.6572
G1 X265.9179 Y394.9651
G1 X265.6473 Y394.9222
G2 X265.5839 Y394.9288 I0.188 J2.1029
G3 X265.5832 Y394.9289 I-0.0089 J-0.0745
G1 X265.3022 Y394.9599
G3 X265.3018 I-0.0082 J-0.0745
G2 X265.0961 Y394.9877 I0.3576 J3.4182
G3 X265.0942 Y394.988 I-0.0123 J-0.074
G2 X264.4883 Y395.1278 I0.488 J3.4987
G2 X263.9606 Y395.3698 I0.9839 J2.8417
G2 X263.4848 Y395.7076 I1.8549 J3.1171
G2 X262.7268 Y396.6094 I2.2044 J2.6222
G2 X262.3249 Y397.7165 I2.9522 J1.6983
G2 Y398.8775 I3.3677 J0.5805
G2 X262.7269 Y399.9848 I3.3699 J-0.5969
G2 X263.4847 Y400.8863 I2.917 J-1.6825
G2 X264.4902 Y401.4669 I2.1751 J-2.6063
G2 X265.0509 Y401.619 I1.157 J-3.155
G0 Z0.1
G0 X280.2949 Y398.8848
G1 F1000.0 Z-0.1
G2 F400.0 X280.6957 Y399.9848 I3.3686 J-0.6042
G2 X281.4534 Y400.8863 I2.917 J-1.6825
G2 X282.459 Y401.4669 I2.1751 J-2.6063
G2 X283.6186 Y401.6723 I1.157 J-3.155
G2 X285.3224 Y401.2114 I-0.0119 J-3.4239
G2 X286.5332 Y400.0006 I-1.7101 J-2.9208
G2 X286.994 Y398.2971 I-2.9379 J-1.7089
G2 X286.5331 Y396.5931 I-3.426 J0.0125
G3 X286.5328 Y396.5927 I0.0649 J-0.0376
G2 X286.011 Y395.9041 I-2.8958 J1.6524
G3 X286.0105 Y395.9037 I0.0534 J-0.0527
G2 X285.3244 Y395.3837 I-2.0453 J1.9862
G3 X285.322 Y395.3823 I0.0358 J-0.0659
G2 X285.2787 Y395.3597 I-0.2371 J0.4011
G3 X285.2757 Y395.3582 I0.0312 J-0.0682
G2 X284.8814 Y395.1936 I-1.2586 J2.4588
G1 X284.7257 Y395.1444
G2 X284.4522 Y395.0732 I-1.3777 J4.7324
G1 X284.3476 Y395.05
G2 X283.9794 Y394.9805 I-2.2013 J10.6585
G1 X283.8866 Y394.9651
G1 X283.6161 Y394.9222
G2 X283.5526 Y394.9288 I0.1881 J2.1039
G3 X283.5519 Y394.9289 I-0.0089 J-0.0745
G1 X283.271 Y394.9599
G3 X283.2706 I-0.0082 J-0.0745
G2 X283.0649 Y394.9877 I0.3577 J3.4187
G3 X283.0629 Y394.988 I-0.0123 J-0.074
G2 X282.457 Y395.1278 I0.4879 J3.4985
G2 X281.9294 Y395.3698 I0.9838 J2.8415
G2 X281.4536 Y395.7076 I1.855 J3.1172
G2 X280.6956 Y396.6094 I2.2044 J2.6223
G2 X280.2936 Y397.7165 I2.9522 J1.6983
G2 Y398.8775 I3.3677 J0.5805
G2 X280.2949 Y398.8848 I3.3699 J-0.5969
G0 Z0.1
G0 X282.9419 Y414.0071
G1 F1000.0 Z-0.1
G2 F400.0 X282.457 Y414.1278 I0.609 J3.4794
G2 X281.9294 Y414.3698 I0.9838 J2.8415
G2 X281.4536 Y414.7076 I1.855 J3.1172
G2 X280.6956 Y415.6094 I2.2044 J2.6223
G2 X280.2936 Y416.7165 I2.9522 J1.6983
G2 Y417.8775 I3.3677 J0.5805
G2 X280.6957 Y418.9847 I3.3699 J-0.5969
G2 X281.4534 Y419.8863 I2.917 J-1.6825
G2 X282.459 Y420.4669 I2.1751 J-2.6063
G2 X283.6186 Y420.6723 I1.157 J-3.155
G2 X285.3224 Y420.2114 I-0.0119 J-3.4239
G2 X286.5332 Y419.0006 I-1.7101 J-2.9208
G2 X286.994 Y417.2971 I-2.9379 J-1.7089
G2 X286.5331 Y415.5931 I-3.426 J0.0125
G3 X286.5328 Y415.5927 I0.0649 J-0.0376
G2 X286.011 Y414.9041 I-2.8958 J1.6524
G3 X286.0105 Y414.9037 I0.0534 J-0.0527
G2 X285.3244 Y414.3837 I-2.0453 J1.9862
G3 X285.322 Y414.3823 I0.0358 J-0.0659
G2 X285.2787 Y414.3597 I-0.2371 J0.4011
G3 X285.2757 Y414.3582 I0.0312 J-0.0682
G2 X284.8814 Y414.1936 I-1.2586 J2.4588
G1 X284.7257 Y414.1444
G2 X284.4522 Y414.0732 I-1.3777 J4.7324
G1 X284.3476 Y414.05
G2 X283.9794 Y413.9805 I-2.2013 J10.6585
G1 X283.8866 Y413.9651
G1 X283.6161 Y413.9222
G2 X283.5526 Y413.9288 I0.1881 J2.1039
G3 X283.5519 Y413.9289 I-0.0089 J-0.0745
G1 X283.271 Y413.9599
G3 X283.2706 I-0.0082 J-0.0745
G2 X283.0649 Y413.9877 I0.3577 J3.4187
G3 X283.0629 Y413.988 I-0.0123 J-0.074
G2 X282.9419 Y414.0071 I0.4879 J3.4985
G0 Z0.1
G0 X296.5874
G1 F1000.0 Z-0.1
G1 F400.0 Y423.6722
G1 X307.3388
G1 Y410.9218
G1 X296.5874
G1 Y414.0071
G0 Z0.1
G0 Y404.6722
G1 F1000.0 Z-0.1
G1 F400.0 X307.3388
G1 Y391.9218
G1 X296.5874
G1 Y404.6722
G0 Z0.1
G0 Y429.9238
G1 F1000.0 Z-0.1
G1 F400.0 X296.5873
G1 Y442.6701
G1 X307.339
G1 Y429.9238
G1 X296.5874
G0 Z0.1
G0 X286.644 Y434.8009
G1 F1000.0 Z-0.1
G2 F400.0 X286.533 Y434.5931 I-3.076 J1.5087
G3 X286.5328 Y434.5927 I0.0649 J-0.0376
G2 X286.0109 Y433.9041 I-2.8958 J1.6525
G3 X286.0105 Y433.9037 I0.0534 J-0.0527
G2 X285.3244 Y433.3837 I-2.0453 J1.9862
G3 X285.322 Y433.3823 I0.0358 J-0.0659
G2 X285.2786 Y433.3597 I-0.2371 J0.4011
G3 X285.2757 Y433.3582 I0.0312 J-0.0682
G2 X284.8814 Y433.1936 I-1.2585 J2.4588
G1 X284.7257 Y433.1444
G2 X284.4522 Y433.0732 I-1.3777 J4.7321
G1 X284.3476 Y433.05
G2 X283.9794 Y432.9805 I-2.201 J10.6572
G1 X283.8866 Y432.9651
G1 X283.6161 Y432.9222
G2 X283.5526 Y432.9288 I0.188 J2.1029
G3 X283.5519 Y432.9289 I-0.0089 J-0.0745
G1 X283.271 Y432.9599
G3 X283.2705 I-0.0082 J-0.0745
G2 X283.0649 Y432.9877 I0.3576 J3.4182
G3 X283.0629 Y432.988 I-0.0123 J-0.074
G2 X282.457 Y433.1278 I0.488 J3.4987
G2 X281.9294 Y433.3698 I0.9839 J2.8417
G2 X281.4535 Y433.7076 I1.8549 J3.1171
G2 X280.6956 Y434.6094 I2.2044 J2.6222
G2 X280.2936 Y435.7165 I2.9522 J1.6983
G2 Y436.8775 I3.3677 J0.5805
G2 X280.6956 Y437.9847 I3.3699 J-0.5969
G2 X281.4534 Y438.8863 I2.917 J-1.6825
G2 X282.459 Y439.4669 I2.1751 J-2.6063
G2 X283.6185 Y439.6723 I1.157 J-3.155
G2 X285.3224 Y439.2114 I-0.0119 J-3.4239
G2 X286.5332 Y438.0006 I-1.7101 J-2.9208
G2 X286.994 Y436.2971 I-2.9379 J-1.7089
G2 X286.644 Y434.8009 I-3.426 J0.0125
G0 Z0.1
G0 X269.0165 Y436.0646
G1 F1000.0 Z-0.1
G2 F400.0 X268.5643 Y434.5931 I-3.4173 J0.245
G3 X268.5641 Y434.5927 I0.0649 J-0.0376
G2 X268.0422 Y433.9041 I-2.8959 J1.6525
G3 X268.0418 Y433.9037 I0.0534 J-0.0527
G2 X267.3556 Y433.3837 I-2.0454 J1.9862
G3 X267.3532 Y433.3823 I0.0358 J-0.0659
G2 X267.3099 Y433.3597 I-0.2371 J0.4011
G3 X267.3069 Y433.3582 I0.0312 J-0.0682
G2 X266.9127 Y433.1936 I-1.2585 J2.4588
G1 X266.757 Y433.1443
G2 X266.4835 Y433.0732 I-1.3775 J4.7316
G1 X266.3789 Y433.05
G2 X266.0107 Y432.9805 I-2.2003 J10.6532
G1 X265.9179 Y432.9651
G1 X265.6473 Y432.9222
G2 X265.5839 Y432.9288 I0.188 J2.1032
G3 X265.5832 Y432.9289 I-0.0089 J-0.0745
G1 X265.3022 Y432.9599
G3 X265.3018 I-0.0082 J-0.0745
G2 X265.0961 Y432.9877 I0.3576 J3.4185
G3 X265.0942 Y432.988 I-0.0123 J-0.074
G2 X264.4883 Y433.1278 I0.488 J3.4988
G2 X263.9606 Y433.3698 I0.9838 J2.8416
G2 X263.4848 Y433.7075 I1.8549 J3.1171
G2 X262.7268 Y434.6094 I2.2044 J2.6222
G2 X262.3249 Y435.7165 I2.9522 J1.6983
G2 Y436.8775 I3.3677 J0.5805
G2 X262.7269 Y437.9847 I3.3699 J-0.5969
G2 X263.4847 Y438.8863 I2.917 J-1.6825
G2 X264.4902 Y439.4669 I2.1751 J-2.6063
G2 X265.6498 Y439.6723 I1.157 J-3.155
G2 X267.3537 Y439.2114 I-0.0119 J-3.4239
G2 X268.5644 Y438.0006 I-1.7101 J-2.9208
G2 X269.0253 Y436.2971 I-2.9379 J-1.7089
G2 X269.0165 Y436.0646 I-3.426 J0.0125
G0 Z0.1
G0 X236.9809 Y455.5958
G1 F1000.0 Z-0.1
G2 F400.0 X236.7851 Y455.3687 I-0.7842 J0.4781
G3 X236.7843 Y455.368 I0.048 J-0.0576
G2 X236.5112 Y455.2101 I-0.5583 J0.6507
G2 X236.3541 Y455.1733 I-0.3002 J0.9267
G3 X236.3503 Y455.1726 I0.011 J-0.0742
G2 X236.2734 Y455.1623 I-0.1183 J0.5895
G3 X236.2706 Y455.1621 I0.0052 J-0.0748
G1 X236.1904 Y455.1535
G2 X236.0307 Y455.1731 I0.131 J1.7332
G3 X236.029 Y455.1733 I-0.0125 J-0.0739
G2 X235.872 Y455.2102 I0.1376 J0.9396
G2 X235.5992 Y455.3678 I0.2762 J0.7928
G3 X235.5987 Y455.3682 I-0.049 J-0.0567
G2 X235.3904 Y455.6159 I0.631 J0.742
G2 X235.2804 Y455.9193 I0.8095 J0.4653
G3 X235.2803 Y455.9194 I-0.0739 J-0.013
G2 Y456.2371 I0.8917 J0.1588
G1 X235.2804
G2 X235.3906 Y456.5408 I0.9235 J-0.1634
G2 X235.5982 Y456.7878 I0.7989 J-0.4608
G2 X235.8737 Y456.9469 I0.5946 J-0.7116
G2 X236.1917 Y457.0032 I0.3191 J-0.8758
G2 X236.5094 Y456.9469 I0.0002 J-0.9237
G2 X236.785 Y456.7879 I-0.3188 J-0.8704
G2 X236.9927 Y456.5406 I-0.5998 J-0.715
G2 X237.1028 Y456.2375 I-0.7949 J-0.4602
G2 Y455.9189 I-0.9364 J-0.1593
G2 X236.9927 Y455.6158 I-0.904 J0.1567
G3 X236.9926 Y455.6156 I0.0649 J-0.0376
G2 X236.9809 Y455.5958 I-0.796 J0.4583
G0 Z0.1
G0 X247.3384 Y394.1672
G1 F1000.0 Z-0.1
G2 F400.0 X247.8998 Y394.214 I0.5587 J-3.3136
G2 X249.6036 Y393.7531 I-0.0119 J-3.4239
G2 X250.8144 Y392.5423 I-1.7101 J-2.9208
G2 X251.2753 Y390.8387 I-2.9379 J-1.7089
G2 X250.8143 Y389.1348 I-3.426 J0.0125
G3 X250.814 Y389.1344 I0.0649 J-0.0376
G2 X250.2922 Y388.4457 I-2.8958 J1.6525
G3 X250.2918 Y388.4453 I0.0534 J-0.0527
G2 X249.6056 Y387.9253 I-2.0453 J1.9862
G3 X249.6032 Y387.924 I0.0358 J-0.0659
G2 X249.5599 Y387.9013 I-0.2371 J0.4011
G3 X249.5569 Y387.8999 I0.0312 J-0.0682
G2 X249.1627 Y387.7352 I-1.2585 J2.4588
G1 X249.007 Y387.686
G2 X248.7335 Y387.6148 I-1.3777 J4.7321
G1 X248.6288 Y387.5917
G2 X248.2607 Y387.5222 I-2.201 J10.6572
G1 X248.1679 Y387.5067
G1 X247.8973 Y387.4639
G2 X247.8339 Y387.4705 I0.188 J2.1029
G3 X247.8331 Y387.4706 I-0.0089 J-0.0745
G1 X247.5522 Y387.5015
G3 X247.5518 Y387.5016 I-0.0082 J-0.0745
G2 X247.3461 Y387.5294 I0.3576 J3.4182
G3 X247.3442 Y387.5297 I-0.0123 J-0.074
G2 X246.7382 Y387.6695 I0.488 J3.4987
G2 X246.2106 Y387.9114 I0.9839 J2.8417
G2 X245.7348 Y388.2492 I1.8549 J3.1171
G2 X244.9768 Y389.151 I2.2044 J2.6222
G2 X244.5749 Y390.2581 I2.9522 J1.6983
G2 Y391.4192 I3.3677 J0.5805
G2 X244.9769 Y392.5264 I3.3699 J-0.5969
G2 X245.7346 Y393.428 I2.917 J-1.6825
G2 X246.7402 Y394.0085 I2.1751 J-2.6063
G2 X247.3384 Y394.1672 I1.157 J-3.155
G0 Z0.1
G0 X247.813 Y375.2129
G1 F1000.0 Z-0.1
G2 F400.0 X247.8998 Y375.214 I0.0841 J-3.3594
G2 X249.6036 Y374.7531 I-0.0119 J-3.4239
G2 X250.8144 Y373.5423 I-1.7101 J-2.9208
G2 X251.2753 Y371.8387 I-2.9379 J-1.7089
G2 X250.8143 Y370.1348 I-3.426 J0.0125
G3 X250.814 Y370.1344 I0.0649 J-0.0376
G2 X250.2922 Y369.4457 I-2.8958 J1.6525
G3 X250.2918 Y369.4453 I0.0534 J-0.0527
G2 X249.6056 Y368.9253 I-2.0453 J1.9862
G3 X249.6032 Y368.924 I0.0358 J-0.0659
G2 X249.5599 Y368.9013 I-0.2371 J0.4011
G3 X249.5569 Y368.8999 I0.0312 J-0.0682
G2 X249.1627 Y368.7352 I-1.2585 J2.4588
G1 X249.007 Y368.686
G2 X248.7335 Y368.6148 I-1.3777 J4.7321
G1 X248.6288 Y368.5916
G2 X248.2607 Y368.5222 I-2.201 J10.6572
G1 X248.1679 Y368.5067
G1 X247.8973 Y368.4638
G2 X247.8339 Y368.4705 I0.188 J2.1029
G3 X247.8331 Y368.4706 I-0.0089 J-0.0745
G1 X247.5522 Y368.5015
G3 X247.5518 Y368.5016 I-0.0082 J-0.0745
G2 X247.3461 Y368.5294 I0.3576 J3.4182
G3 X247.3442 Y368.5297 I-0.0123 J-0.074
G2 X246.7382 Y368.6695 I0.488 J3.4987
G2 X246.2106 Y368.9114 I0.9839 J2.8417
G2 X245.7348 Y369.2492 I1.8549 J3.1171
G2 X244.9768 Y370.151 I2.2044 J2.6222
G2 X244.5749 Y371.2581 I2.9522 J1.6983
G2 Y372.4191 I3.3677 J0.5805
G2 X244.9769 Y373.5264 I3.3699 J-0.5969
G2 X245.7346 Y374.428 I2.917 J-1.6825
G2 X246.7402 Y375.0085 I2.1751 J-2.6063
G2 X247.813 Y375.2129 I1.157 J-3.155
G0 Z0.1
G0 X262.3593 Y378.5468
G1 F1000.0 Z-0.1
G2 F400.0 X262.3249 Y378.7165 I3.3197 J0.7609
G2 Y379.8775 I3.3677 J0.5805
G2 X262.7269 Y380.9848 I3.3699 J-0.5969
G2 X263.4847 Y381.8863 I2.917 J-1.6825
G2 X264.4902 Y382.4669 I2.1751 J-2.6063
G2 X265.6498 Y382.6723 I1.157 J-3.155
G2 X267.3537 Y382.2114 I-0.0119 J-3.4239
G2 X268.5644 Y381.0006 I-1.7101 J-2.9208
G2 X269.0253 Y379.2971 I-2.9379 J-1.7089
G2 X268.5643 Y377.5931 I-3.426 J0.0125
G3 X268.5641 Y377.5927 I0.0649 J-0.0376
G2 X268.0422 Y376.9041 I-2.8958 J1.6525
G3 X268.0418 Y376.9037 I0.0534 J-0.0527
G2 X267.3556 Y376.3837 I-2.0453 J1.9862
G3 X267.3532 Y376.3823 I0.0358 J-0.0659
G2 X267.3099 Y376.3597 I-0.2371 J0.4011
G3 X267.3069 Y376.3582 I0.0312 J-0.0682
G2 X266.9127 Y376.1936 I-1.2585 J2.4588
G1 X266.757 Y376.1444
G2 X266.4835 Y376.0732 I-1.3777 J4.7321
G1 X266.3789 Y376.05
G2 X266.0107 Y375.9805 I-2.201 J10.6572
G1 X265.9179 Y375.9651
G1 X265.6473 Y375.9222
G2 X265.5839 Y375.9288 I0.188 J2.1029
G3 X265.5832 Y375.9289 I-0.0089 J-0.0745
G1 X265.3022 Y375.9599
G3 X265.3018 I-0.0082 J-0.0745
G2 X265.0961 Y375.9878 I0.3576 J3.4182
G3 X265.0942 Y375.988 I-0.0123 J-0.074
G2 X264.4883 Y376.1278 I0.488 J3.4987
G2 X263.9606 Y376.3698 I0.9839 J2.8417
G2 X263.4848 Y376.7076 I1.8549 J3.1171
G2 X262.7268 Y377.6094 I2.2044 J2.6222
G2 X262.3593 Y378.5468 I2.9522 J1.6983
G0 Z0.1
G0 X265.0509 Y363.619
G1 F1000.0 Z-0.1
G2 F400.0 X265.6498 Y363.6723 I0.5963 J-3.3071
G2 X267.3537 Y363.2114 I-0.0119 J-3.4239
G2 X268.5644 Y362.0006 I-1.7101 J-2.9208
G2 X269.0253 Y360.2971 I-2.9379 J-1.7089
G2 X268.5643 Y358.5931 I-3.426 J0.0125
G3 X268.5641 Y358.5927 I0.0649 J-0.0376
G2 X268.0422 Y357.9041 I-2.8958 J1.6525
G3 X268.0418 Y357.9037 I0.0534 J-0.0527
G2 X267.3556 Y357.3837 I-2.0453 J1.9862
G3 X267.3532 Y357.3823 I0.0358 J-0.0659
G2 X267.3099 Y357.3597 I-0.2371 J0.4011
G3 X267.3069 Y357.3582 I0.0312 J-0.0682
G2 X266.9127 Y357.1936 I-1.2585 J2.4588
G1 X266.757 Y357.1443
G2 X266.4835 Y357.0732 I-1.3777 J4.7321
G1 X266.3789 Y357.05
G2 X266.0107 Y356.9805 I-2.201 J10.6572
G1 X265.9179 Y356.9651
G1 X265.6473 Y356.9222
G2 X265.5839 Y356.9288 I0.188 J2.1029
G3 X265.5832 Y356.9289 I-0.0089 J-0.0745
G1 X265.3022 Y356.9599
G3 X265.3018 I-0.0082 J-0.0745
G2 X265.0961 Y356.9877 I0.3576 J3.4182
G3 X265.0942 Y356.988 I-0.0123 J-0.074
G2 X264.4883 Y357.1278 I0.488 J3.4987
G2 X263.9606 Y357.3698 I0.9839 J2.8417
G2 X263.4848 Y357.7075 I1.8549 J3.1171
G2 X262.7268 Y358.6094 I2.2044 J2.6222
G2 X262.3249 Y359.7165 I2.9522 J1.6983
G2 Y360.8775 I3.3677 J0.5805
G2 X262.7269 Y361.9847 I3.3699 J-0.5969
G2 X263.4847 Y362.8863 I2.917 J-1.6825
G2 X264.4902 Y363.4669 I2.1751 J-2.6063
G2 X265.0509 Y363.619 I1.157 J-3.155
G0 Z0.1
G0 X280.2949 Y360.8848
G1 F1000.0 Z-0.1
G2 F400.0 X280.6957 Y361.9847 I3.3686 J-0.6042
G2 X281.4534 Y362.8863 I2.917 J-1.6825
G2 X282.459 Y363.4669 I2.1751 J-2.6063
G2 X283.6186 Y363.6723 I1.157 J-3.155
G2 X285.3224 Y363.2114 I-0.0119 J-3.4239
G2 X286.5332 Y362.0006 I-1.7101 J-2.9208
G2 X286.994 Y360.2971 I-2.9379 J-1.7089
G2 X286.5331 Y358.5931 I-3.426 J0.0125
G3 X286.5328 Y358.5927 I0.0649 J-0.0376
G2 X286.011 Y357.9041 I-2.8958 J1.6524
G3 X286.0105 Y357.9037 I0.0534 J-0.0527
G2 X285.3244 Y357.3837 I-2.0453 J1.9862
G3 X285.322 Y357.3823 I0.0358 J-0.0659
G2 X285.2787 Y357.3597 I-0.2371 J0.4011
G3 X285.2757 Y357.3582 I0.0312 J-0.0682
G2 X284.8814 Y357.1936 I-1.2586 J2.4588
G1 X284.7257 Y357.1443
G2 X284.4522 Y357.0732 I-1.3777 J4.7324
G1 X284.3476 Y357.05
G2 X283.9794 Y356.9805 I-2.2013 J10.6585
G1 X283.8866 Y356.9651
G1 X283.6161 Y356.9222
G2 X283.5526 Y356.9288 I0.1881 J2.1039
G3 X283.5519 Y356.9289 I-0.0089 J-0.0745
G1 X283.271 Y356.9599
G3 X283.2706 I-0.0082 J-0.0745
G2 X283.0649 Y356.9877 I0.3577 J3.4187
G3 X283.0629 Y356.988 I-0.0123 J-0.074
G2 X282.457 Y357.1278 I0.4879 J3.4985
G2 X281.9294 Y357.3698 I0.9838 J2.8415
G2 X281.4536 Y357.7075 I1.855 J3.1172
G2 X280.6956 Y358.6094 I2.2044 J2.6223
G2 X280.2936 Y359.7165 I2.9522 J1.6983
G2 Y360.8775 I3.3677 J0.5805
G2 X280.2949 Y360.8848 I3.3699 J-0.5969
G0 Z0.1
G0 X283.0538 Y344.625
G1 F1000.0 Z-0.1
G2 F400.0 X283.6186 Y344.6723 I0.5621 J-3.3131
G2 X285.3224 Y344.2114 I-0.0119 J-3.4239
G2 X286.5332 Y343.0006 I-1.7101 J-2.9208
G2 X286.994 Y341.2971 I-2.9379 J-1.7089
G2 X286.5331 Y339.5931 I-3.426 J0.0125
G3 X286.5328 Y339.5927 I0.0649 J-0.0376
G2 X286.011 Y338.9041 I-2.8958 J1.6524
G3 X286.0105 Y338.9037 I0.0534 J-0.0527
G2 X285.3244 Y338.3837 I-2.0453 J1.9862
G3 X285.322 Y338.3823 I0.0358 J-0.0659
G2 X285.2787 Y338.3597 I-0.2371 J0.4011
G3 X285.2757 Y338.3582 I0.0312 J-0.0682
G2 X284.8814 Y338.1936 I-1.2586 J2.4588
G1 X284.7257 Y338.1444
G2 X284.4522 Y338.0732 I-1.3777 J4.7324
G1 X284.3476 Y338.05
G2 X283.9794 Y337.9805 I-2.2013 J10.6585
G1 X283.8866 Y337.9651
G1 X283.6161 Y337.9222
G2 X283.5526 Y337.9288 I0.1881 J2.1039
G3 X283.5519 Y337.9289 I-0.0089 J-0.0745
G1 X283.271 Y337.9599
G3 X283.2706 I-0.0082 J-0.0745
G2 X283.0649 Y337.9877 I0.3577 J3.4187
G3 X283.0629 Y337.988 I-0.0123 J-0.074
G2 X282.457 Y338.1278 I0.4879 J3.4985
G2 X281.9294 Y338.3698 I0.9838 J2.8415
G2 X281.4536 Y338.7076 I1.855 J3.1172
G2 X280.6956 Y339.6094 I2.2044 J2.6223
G2 X280.2936 Y340.7165 I2.9522 J1.6983
G2 Y341.8775 I3.3677 J0.5805
G2 X280.6957 Y342.9847 I3.3699 J-0.5969
G2 X281.4534 Y343.8863 I2.917 J-1.6825
G2 X282.459 Y344.4669 I2.1751 J-2.6063
G2 X283.0538 Y344.625 I1.157 J-3.155
G0 Z0.1
G0 X296.5873
G1 F1000.0 Z-0.1
G1 F400.0 Y347.6722
G1 X307.3386
G1 Y334.9218
G1 X296.5873
G1 Y344.625
G0 Z0.1
G0 Y328.6722
G1 F1000.0 Z-0.1
G1 F400.0 X307.3386
G1 Y315.9218
G1 X296.5873
G1 Y328.6722
G0 Z0.1
G0 X286.646 Y323.79
G1 F1000.0 Z-0.1
G2 F400.0 X286.994 Y322.2971 I-3.0507 J-1.4982
G2 X286.5331 Y320.5931 I-3.426 J0.0125
G3 X286.5328 Y320.5927 I0.0649 J-0.0376
G2 X286.011 Y319.9041 I-2.8958 J1.6524
G3 X286.0105 Y319.9037 I0.0534 J-0.0527
G2 X285.3244 Y319.3837 I-2.0453 J1.9862
G3 X285.322 Y319.3823 I0.0358 J-0.0659
G2 X285.2787 Y319.3597 I-0.2371 J0.4011
G3 X285.2757 Y319.3582 I0.0312 J-0.0682
G2 X284.8814 Y319.1936 I-1.2586 J2.4588
G1 X284.7257 Y319.1444
G2 X284.4522 Y319.0732 I-1.3777 J4.7324
G1 X284.3476 Y319.05
G2 X283.9794 Y318.9805 I-2.2013 J10.6585
G1 X283.8866 Y318.9651
G1 X283.6161 Y318.9222
G2 X283.5526 Y318.9288 I0.1881 J2.1039
G3 X283.5519 Y318.9289 I-0.0089 J-0.0745
G1 X283.271 Y318.9599
G3 X283.2706 I-0.0082 J-0.0745
G2 X283.0649 Y318.9877 I0.3577 J3.4187
G3 X283.0629 Y318.988 I-0.0123 J-0.074
G2 X282.457 Y319.1278 I0.4879 J3.4985
G2 X281.9294 Y319.3698 I0.9838 J2.8415
G2 X281.4536 Y319.7076 I1.855 J3.1172
G2 X280.6956 Y320.6094 I2.2044 J2.6223
G2 X280.2936 Y321.7165 I2.9522 J1.6983
G2 Y322.8775 I3.3677 J0.5805
G2 X280.6957 Y323.9848 I3.3699 J-0.5969
G2 X281.4534 Y324.8863 I2.917 J-1.6825
G2 X282.459 Y325.4669 I2.1751 J-2.6063
G2 X283.6186 Y325.6723 I1.157 J-3.155
G2 X285.3224 Y325.2114 I-0.0119 J-3.4239
G2 X286.5332 Y324.0006 I-1.7101 J-2.9208
G2 X286.646 Y323.79 I-2.9379 J-1.7089
G0 Z0.1
G0 X269.0167 Y322.5334
G1 F1000.0 Z-0.1
G2 F400.0 X269.0253 Y322.2971 I-3.3901 J-0.2416
G2 X268.5643 Y320.5931 I-3.426 J0.0125
G3 X268.5641 Y320.5927 I0.0649 J-0.0376
G2 X268.0422 Y319.9041 I-2.8958 J1.6525
G3 X268.0418 Y319.9037 I0.0534 J-0.0527
G2 X267.3556 Y319.3837 I-2.0453 J1.9862
G3 X267.3532 Y319.3823 I0.0358 J-0.0659
G2 X267.3099 Y319.3597 I-0.2371 J0.4011
G3 X267.3069 Y319.3582 I0.0312 J-0.0682
G2 X266.9127 Y319.1936 I-1.2585 J2.4588
G1 X266.757 Y319.1444
G2 X266.4835 Y319.0732 I-1.3777 J4.7321
G1 X266.3789 Y319.05
G2 X266.0107 Y318.9805 I-2.201 J10.6572
G1 X265.9179 Y318.9651
G1 X265.6473 Y318.9222
G2 X265.5839 Y318.9288 I0.188 J2.1029
G3 X265.5832 Y318.9289 I-0.0089 J-0.0745
G1 X265.3022 Y318.9599
G3 X265.3018 I-0.0082 J-0.0745
G2 X265.0961 Y318.9877 I0.3576 J3.4182
G3 X265.0942 Y318.988 I-0.0123 J-0.074
G2 X264.4883 Y319.1278 I0.488 J3.4987
G2 X263.9606 Y319.3698 I0.9839 J2.8417
G2 X263.4848 Y319.7076 I1.8549 J3.1171
G2 X262.7268 Y320.6094 I2.2044 J2.6222
G2 X262.3249 Y321.7165 I2.9522 J1.6983
G2 Y322.8775 I3.3677 J0.5805
G2 X262.7269 Y323.9848 I3.3699 J-0.5969
G2 X263.4847 Y324.8863 I2.917 J-1.6825
G2 X264.4902 Y325.4669 I2.1751 J-2.6063
G2 X265.6498 Y325.6723 I1.157 J-3.155
G2 X267.3537 Y325.2114 I-0.0119 J-3.4239
G2 X268.5644 Y324.0006 I-1.7101 J-2.9208
G2 X269.0167 Y322.5334 I-2.9379 J-1.7089
G0 Z0.1
G0 X266.1561 Y338.0064
G1 F1000.0 Z-0.1
G2 F400.0 X266.0107 Y337.9805 I-1.9783 J10.7008
G1 X265.9179 Y337.9651
G1 X265.6473 Y337.9222
G2 X265.5839 Y337.9288 I0.188 J2.1029
G3 X265.5832 Y337.9289 I-0.0089 J-0.0745
G1 X265.3022 Y337.9599
G3 X265.3018 I-0.0082 J-0.0745
G2 X265.0961 Y337.9877 I0.3576 J3.4182
G3 X265.0942 Y337.988 I-0.0123 J-0.074
G2 X264.4883 Y338.1278 I0.488 J3.4987
G2 X263.9606 Y338.3698 I0.9839 J2.8417
G2 X263.4848 Y338.7076 I1.8549 J3.1171
G2 X262.7268 Y339.6094 I2.2044 J2.6222
G2 X262.3249 Y340.7165 I2.9522 J1.6983
G2 Y341.8775 I3.3677 J0.5805
G2 X262.7269 Y342.9847 I3.3699 J-0.5969
G2 X263.4847 Y343.8863 I2.917 J-1.6825
G2 X264.4902 Y344.4669 I2.1751 J-2.6063
G2 X265.6498 Y344.6723 I1.157 J-3.155
G2 X267.3537 Y344.2114 I-0.0119 J-3.4239
G2 X268.5644 Y343.0006 I-1.7101 J-2.9208
G2 X269.0253 Y341.2971 I-2.9379 J-1.7089
G2 X268.5643 Y339.5931 I-3.426 J0.0125
G3 X268.5641 Y339.5927 I0.0649 J-0.0376
G2 X268.0422 Y338.9041 I-2.8958 J1.6525
G3 X268.0418 Y338.9037 I0.0534 J-0.0527
G2 X267.3556 Y338.3837 I-2.0453 J1.9862
G3 X267.3532 Y338.3823 I0.0358 J-0.0659
G2 X267.3099 Y338.3597 I-0.2371 J0.4011
G3 X267.3069 Y338.3582 I0.0312 J-0.0682
G2 X266.9127 Y338.1936 I-1.2585 J2.4588
G1 X266.757 Y338.1444
G2 X266.4835 Y338.0732 I-1.3777 J4.7321
G1 X266.3789 Y338.05
G2 X266.1561 Y338.0064 I-2.201 J10.6572
G0 Z0.1
G0 X251.19 Y334.5899
G1 F1000.0 Z-0.1
G2 F400.0 X251.2753 Y333.8387 I-3.3135 J-0.7564
G2 X250.8143 Y332.1348 I-3.426 J0.0125
G3 X250.814 Y332.1344 I0.0649 J-0.0376
G2 X250.2922 Y331.4457 I-2.8958 J1.6525
G3 X250.2918 Y331.4453 I0.0534 J-0.0527
G2 X249.6056 Y330.9253 I-2.0453 J1.9862
G3 X249.6032 Y330.924 I0.0358 J-0.0659
G2 X249.5599 Y330.9013 I-0.2371 J0.4011
G3 X249.5569 Y330.8999 I0.0312 J-0.0682
G2 X249.1627 Y330.7352 I-1.2585 J2.4588
G1 X249.007 Y330.686
G2 X248.7335 Y330.6148 I-1.3777 J4.7321
G1 X248.6288 Y330.5916
G2 X248.2607 Y330.5222 I-2.201 J10.6572
G1 X248.1679 Y330.5067
G1 X247.8973 Y330.4639
G2 X247.8339 Y330.4705 I0.188 J2.1029
G3 X247.8331 Y330.4706 I-0.0089 J-0.0745
G1 X247.5522 Y330.5015
G3 X247.5518 Y330.5016 I-0.0082 J-0.0745
G2 X247.3461 Y330.5294 I0.3576 J3.4182
G3 X247.3442 Y330.5297 I-0.0123 J-0.074
G2 X246.7382 Y330.6695 I0.488 J3.4987
G2 X246.2106 Y330.9114 I0.9839 J2.8417
G2 X245.7348 Y331.2492 I1.8549 J3.1171
G2 X244.9768 Y332.151 I2.2044 J2.6222
G2 X244.5749 Y333.2581 I2.9522 J1.6983
G2 Y334.4191 I3.3677 J0.5805
G2 X244.9769 Y335.5264 I3.3699 J-0.5969
G2 X245.7346 Y336.428 I2.917 J-1.6825
G2 X246.7402 Y337.0085 I2.1751 J-2.6063
G2 X247.8998 Y337.214 I1.157 J-3.155
G2 X249.6036 Y336.7531 I-0.0119 J-3.4239
G2 X250.8144 Y335.5423 I-1.7101 J-2.9208
G2 X251.19 Y334.5899 I-2.9379 J-1.7089
G0 Z0.1
G0 X248.4136 Y349.5494
G1 F1000.0 Z-0.1
G2 F400.0 X248.2607 Y349.5222 I-1.9858 J10.6994
G1 X248.1679 Y349.5067
G1 X247.8973 Y349.4638
G2 X247.8339 Y349.4705 I0.188 J2.1029
G3 X247.8331 Y349.4706 I-0.0089 J-0.0745
G1 X247.5522 Y349.5015
G3 X247.5518 Y349.5016 I-0.0082 J-0.0745
G2 X247.3461 Y349.5294 I0.3576 J3.4182
G3 X247.3442 Y349.5297 I-0.0123 J-0.074
G2 X246.7382 Y349.6695 I0.488 J3.4987
G2 X246.2106 Y349.9114 I0.9839 J2.8417
G2 X245.7348 Y350.2492 I1.8549 J3.1171
G2 X244.9768 Y351.151 I2.2044 J2.6222
G2 X244.5749 Y352.2581 I2.9522 J1.6983
G2 Y353.4191 I3.3677 J0.5805
G2 X244.9769 Y354.5264 I3.3699 J-0.5969
G2 X245.7346 Y355.428 I2.917 J-1.6825
G2 X246.7402 Y356.0085 I2.1751 J-2.6063
G2 X247.8998 Y356.214 I1.157 J-3.155
G2 X249.6036 Y355.7531 I-0.0119 J-3.4239
G2 X250.8144 Y354.5423 I-1.7101 J-2.9208
G2 X251.2753 Y352.8387 I-2.9379 J-1.7089
G2 X250.8143 Y351.1348 I-3.426 J0.0125
G3 X250.814 Y351.1344 I0.0649 J-0.0376
G2 X250.2922 Y350.4457 I-2.8958 J1.6525
G3 X250.2918 Y350.4453 I0.0534 J-0.0527
G2 X249.6056 Y349.9253 I-2.0453 J1.9862
G3 X249.6032 Y349.924 I0.0358 J-0.0659
G2 X249.5599 Y349.9013 I-0.2371 J0.4011
G3 X249.5569 Y349.8999 I0.0312 J-0.0682
G2 X249.1627 Y349.7352 I-1.2585 J2.4588
G1 X249.007 Y349.686
G2 X248.7335 Y349.6148 I-1.3777 J4.7321
G1 X248.6288 Y349.5916
G2 X248.4136 Y349.5494 I-2.201 J10.6572
G0 Z0.1
G0 X236.4222 Y302.974
G1 F1000.0 Z-0.1
G2 F400.0 X236.5094 Y302.9469 I-0.2303 J-0.8945
G2 X236.785 Y302.7879 I-0.3188 J-0.8704
G2 X236.9927 Y302.5406 I-0.5998 J-0.715
G2 X237.1028 Y302.2375 I-0.7949 J-0.4602
G2 Y301.9189 I-0.9365 J-0.1593
G2 X236.9927 Y301.6158 I-0.9039 J0.1567
G3 X236.9926 Y301.6156 I0.0649 J-0.0376
G2 X236.7851 Y301.3687 I-0.796 J0.4583
G3 X236.7843 Y301.368 I0.048 J-0.0576
G2 X236.5112 Y301.2101 I-0.5583 J0.6507
G2 X236.3541 Y301.1733 I-0.3002 J0.9267
G3 X236.3503 Y301.1726 I0.011 J-0.0742
G2 X236.2734 Y301.1623 I-0.1183 J0.5895
G3 X236.2706 Y301.1621 I0.0052 J-0.0748
G1 X236.1904 Y301.1535
G2 X236.0307 Y301.1731 I0.1304 J1.7281
G3 X236.029 Y301.1733 I-0.0126 J-0.0739
G2 X235.872 Y301.2102 I0.1375 J0.9391
G2 X235.5992 Y301.3678 I0.2762 J0.7929
G3 X235.5987 Y301.3682 I-0.049 J-0.0567
G2 X235.3904 Y301.6159 I0.631 J0.742
G2 X235.2804 Y301.9192 I0.8094 J0.4653
G3 X235.2803 Y301.9194 I-0.0739 J-0.013
G2 Y302.2371 I0.8917 J0.1588
G1 X235.2804
G2 X235.3906 Y302.5408 I0.9235 J-0.1634
G2 X235.5982 Y302.7878 I0.799 J-0.4608
G2 X235.8737 Y302.9469 I0.5946 J-0.7116
G2 X236.1917 Y303.0032 I0.3191 J-0.8759
G2 X236.4222 Y302.974 I0.0002 J-0.9236
G0 Z0.1
G0 X308.2664 Y302.0894
G1 F1000.0 Z-0.1
G2 F400.0 X308.2803 Y302.2371 I0.9057 J-0.0112
G1 X308.2804
G2 X308.3906 Y302.5408 I0.9235 J-0.1634
G2 X308.5982 Y302.7878 I0.799 J-0.4608
G2 X308.8737 Y302.9469 I0.5946 J-0.7116
G2 X309.1917 Y303.0032 I0.3191 J-0.8759
G2 X309.5094 Y302.9469 I0.0002 J-0.9236
G2 X309.785 Y302.7879 I-0.3188 J-0.8704
G2 X309.9927 Y302.5406 I-0.5998 J-0.715
G2 X310.1028 Y302.2375 I-0.7949 J-0.4602
G2 Y301.9189 I-0.9365 J-0.1593
G2 X309.9927 Y301.6158 I-0.9039 J0.1567
G3 X309.9926 Y301.6156 I0.0649 J-0.0376
G2 X309.7851 Y301.3687 I-0.796 J0.4583
G3 X309.7843 Y301.368 I0.048 J-0.0576
G2 X309.5112 Y301.2101 I-0.5583 J0.6507
G2 X309.3541 Y301.1733 I-0.3002 J0.9267
G3 X309.3503 Y301.1726 I0.011 J-0.0742
G2 X309.2734 Y301.1623 I-0.1183 J0.5895
G3 X309.2706 Y301.1621 I0.0052 J-0.0748
G1 X309.1904 Y301.1535
G2 X309.0307 Y301.1731 I0.1304 J1.7281
G3 X309.029 Y301.1733 I-0.0126 J-0.0739
G2 X308.872 Y301.2102 I0.1375 J0.9391
G2 X308.5992 Y301.3678 I0.2762 J0.7929
G3 X308.5987 Y301.3682 I-0.049 J-0.0567
G2 X308.3904 Y301.6159 I0.631 J0.742
G2 X308.2804 Y301.9192 I0.8094 J0.4653
G3 X308.2803 Y301.9194 I-0.0739 J-0.013
G2 X308.2664 Y302.0894 I0.8917 J0.1588
G0 Z0.1
G0 X309.1904 Y455.1535
G1 F1000.0 Z-0.1
G2 F400.0 X309.0307 Y455.1731 I0.131 J1.7332
G3 X309.029 Y455.1733 I-0.0125 J-0.0739
G2 X308.872 Y455.2102 I0.1376 J0.9396
G2 X308.5992 Y455.3678 I0.2762 J0.7928
G3 X308.5987 Y455.3682 I-0.049 J-0.0567
G2 X308.3904 Y455.6159 I0.631 J0.742
G2 X308.2804 Y455.9193 I0.8095 J0.4653
G3 X308.2803 Y455.9194 I-0.0739 J-0.013
G2 Y456.2371 I0.8917 J0.1588
G1 X308.2804
G2 X308.3906 Y456.5408 I0.9235 J-0.1634
G2 X308.5982 Y456.7878 I0.7989 J-0.4608
G2 X308.8737 Y456.9469 I0.5946 J-0.7116
G2 X309.1917 Y457.0032 I0.3191 J-0.8758
G2 X309.5094 Y456.9469 I0.0002 J-0.9237
G1 X309.5095
G1 X309.5094
G2 X309.785 Y456.7879 I-0.3188 J-0.8704
G2 X309.9927 Y456.5406 I-0.5998 J-0.715
G2 X310.1028 Y456.2375 I-0.7949 J-0.4602
G2 Y455.9189 I-0.9364 J-0.1593
G2 X309.9927 Y455.6158 I-0.904 J0.1567
G3 Y455.6156 I0.0649 J-0.0376
G2 X309.7851 Y455.3687 I-0.796 J0.4583
G3 X309.7843 Y455.368 I0.048 J-0.0576
G2 X309.5112 Y455.2101 I-0.5583 J0.6507
G2 X309.3541 Y455.1733 I-0.3002 J0.9267
G3 X309.3503 Y455.1726 I0.011 J-0.0742
G2 X309.2734 Y455.1623 I-0.1183 J0.5895
G3 X309.2706 Y455.1621 I0.0052 J-0.0748
G1 X309.1904 Y455.1535
( Radio_2 outer )
S1000
G0 Z0.1
G0 X312.1916 Y459.1532
G1 F1000.0 Z-0.1
G1 F400.0 X292.5214
G1 X272.8519
G1 X253.1817
G1 X233.1916
G3 X233.1166 Y459.0782 I0.0 J-0.075
G1 Y443.6797
G1 Y428.2811
G1 Y412.8819
G1 Y397.4834
G1 Y382.0843
G1 Y366.6856
G1 Y351.2865
G1 Y335.888
G1 Y320.4888
G1 Y305.0902
G1 Y299.0782
G3 X233.1916 Y299.0032 I0.075 J0.0
G1 X245.5319
G1 X265.2021
G1 X284.8716
G1 X304.5418
G1 X312.1916
G3 X312.2666 Y299.0782 I0.0 J0.075
G1 Y314.4774
G1 Y329.876
G1 Y345.2751
G1 Y360.6737
G1 Y363.6224
G1 Y379.0216
G1 Y394.4202
G1 Y409.8193
G1 Y425.2179
G1 Y440.617
G1 Y456.0156
G1 Y459.0782
G3 X312.1916 Y459.1532 I-0.075 J0.0
( Text )
G61
S1000
G0 Z0.1
G0 X198.1874 Y278.2233
G1 F1000.0 Z-0.1
G1 F1500.0 Y275.6977
G0 Z0.1
G0 X199.1495
G1 F1000.0 Z-0.1
G1 F1500.0 Y278.2233
G1 X200.8332 Y275.6977
G1 Y278.2233
G0 Z0.1
G0 X201.7953
G1 F1000.0 Z-0.1
G1 F1500.0 Y275.6977
G0 Z0.1
G0 X202.7574
G1 F1000.0 Z-0.1
G1 F1500.0 Y278.2233
G1 X203.7196 Y275.6977
G1 X204.6817 Y278.2233
G1 Y275.6977
G0 Z0.1
G0 X205.6438 Y278.2233
G1 F1000.0 Z-0.1
G1 F1500.0 Y276.4193
G1 X205.7641 Y276.0585
G1 X206.0046 Y275.818
G1 X206.3654 Y275.6977
G1 X206.6059
G1 X206.9667 Y275.818
G1 X207.2073 Y276.0585
G1 X207.3275 Y276.4193
G1 Y278.2233
G0 Z0.1
G0 X208.2896 Y275.6977
G1 F1000.0 Z-0.1
G1 F1500.0 Y278.2233
G1 X209.2518 Y275.6977
G1 X210.2139 Y278.2233
G1 Y275.6977
G0 Z0.1
G0 X211.0557 Y276.0585
G1 F1000.0 Z-0.1
G1 F1500.0 X211.2963 Y275.818
G1 X211.6571 Y275.6977
G1 X212.1381
G1 X212.4989 Y275.818
G1 X212.7395 Y276.0585
G1 Y276.4193
G1 X212.6192 Y276.6599
G1 X212.4989 Y276.7801
G1 X212.2584 Y276.9004
G1 X211.5368 Y277.1409
G1 X211.2963 Y277.2612
G1 X211.176 Y277.3815
G1 X211.0557 Y277.622
G1 Y277.8625
G1 X211.2963 Y278.1031
G1 X211.6571 Y278.2233
G1 X212.1381
G1 X212.4989 Y278.1031
G1 X212.7395 Y277.8625
G0 Z0.1
G0 X197.2253 Y275.6977
G1 F1000.0 Z-0.1
G1 F1500.0 Y278.2233
G1 X196.2631 Y275.6977
G1 X195.301 Y278.2233
G1 Y275.6977
G0 Z0.1
G0 X216.4118 Y258.5452
G1 F1000.0 Z-0.1
G1 F1500.0 X217.3392
G1 X217.6483 Y258.6516
G1 X217.7514 Y258.758
G1 X217.8544 Y258.9709
G1 Y259.1838
G1 X217.7514 Y259.3967
G1 X217.6483 Y259.5032
G1 X217.3392 Y259.6096
G1 X216.4118
G1 Y257.3743
G0 Z0.1
G0 X217.1331 Y258.5452
G1 F1000.0 Z-0.1
G1 F1500.0 X217.8544 Y257.3743
G0 Z0.1
G0 X218.2666
G1 F1000.0 Z-0.1
G1 F1500.0 X219.0909 Y259.6096
G1 X219.9153 Y257.3743
G0 Z0.1
G0 X219.6062 Y258.1194
G1 F1000.0 Z-0.1
G1 F1500.0 X218.5757
G0 Z0.1
G0 X220.2244 Y256.6292
G1 F1000.0 Z-0.1
G1 F1500.0 X222.0792 Y260.0354
G0 Z0.1
G0 X222.6975 Y258.5452
G1 F1000.0 Z-0.1
G1 F1500.0 X223.6249
G1 X223.934 Y258.4387
G1 X224.0371 Y258.3323
G1 X224.1401 Y258.1194
G1 Y257.8001
G1 X224.0371 Y257.5872
G1 X223.934 Y257.4807
G1 X223.6249 Y257.3743
G1 X222.6975
G1 Y259.6096
G1 X223.6249
G1 X223.934 Y259.5032
G1 X224.0371 Y259.3967
G1 X224.1401 Y259.1838
G1 Y258.9709
G1 X224.0371 Y258.758
G1 X223.934 Y258.6516
G1 X223.6249 Y258.5452
G0 Z0.1
G0 X224.8614 Y258.1194
G1 F1000.0 Z-0.1
G1 F1500.0 X225.8919
G0 Z0.1
G0 X226.201 Y257.3743
G1 F1000.0 Z-0.1
G1 F1500.0 X225.3766 Y259.6096
G1 X224.5523 Y257.3743
G0 Z0.1
G0 X226.7162
G1 F1000.0 Z-0.1
G1 F1500.0 Y259.6096
G1 X227.6436
G1 X227.9528 Y259.5032
G1 X228.0558 Y259.3967
G1 X228.1588 Y259.1838
G1 Y258.9709
G1 X228.0558 Y258.758
G1 X227.9528 Y258.6516
G1 X227.6436 Y258.5452
G1 X226.7162
G0 Z0.1
G0 X227.4375
G1 F1000.0 Z-0.1
G1 F1500.0 X228.1588 Y257.3743
G0 Z0.1
G0 X228.9519 Y257.7582
G1 F1000.0 Z-0.1
G1 F1500.0 X228.9832 Y257.6936
G1 X229.1893 Y257.4807
G1 X229.3954 Y257.3743
G1 X229.8076
G1 X230.0136 Y257.4807
G1 X230.2197 Y257.6936
G1 X230.3228 Y257.9065
G1 X230.4258 Y258.2258
G1 Y258.758
G1 X230.3228 Y259.0774
G1 X230.2197 Y259.2903
G1 X230.0136 Y259.5032
G1 X229.8076 Y259.6096
G1 X229.3954
G1 X229.1893 Y259.5032
G1 X228.9832 Y259.2903
G1 X228.8802 Y259.0774
G1 X228.7771 Y258.758
G1 Y258.2258
G1 X228.8802 Y257.9065
G1 X228.9519 Y257.7582
G0 Z0.1
G0 X319.8236 Y257.5618
G1 F1000.0 Z-0.1
G1 F1500.0 X320.0641 Y257.3212
G1 X320.4249 Y257.201
G1 X320.906
G1 X321.2668 Y257.3212
G1 X321.5073 Y257.5618
G1 Y257.9226
G1 X321.387 Y258.1631
G1 X321.2668 Y258.2834
G1 X321.0262 Y258.4036
G1 X320.3046 Y258.6442
G1 X320.0641 Y258.7644
G1 X319.9438 Y258.8847
G1 X319.8236 Y259.1252
G1 Y259.3657
G1 X320.0641 Y259.6063
G1 X320.4249 Y259.7265
G1 X320.906
G1 X321.2668 Y259.6063
G1 X321.5073 Y259.3657
G0 Z0.1
G0 X321.9883 Y259.7265
G1 F1000.0 Z-0.1
G1 F1500.0 X323.6721
G0 Z0.1
G0 X324.2734
G1 F1000.0 Z-0.1
G1 F1500.0 X325.1152
G1 X325.476 Y259.6063
G1 X325.7166 Y259.3657
G1 X325.8368 Y259.1252
G1 X325.9571 Y258.7644
G1 Y258.1631
G1 X325.8368 Y257.8023
G1 X325.7166 Y257.5618
G1 X325.476 Y257.3212
G1 X325.1152 Y257.201
G1 X324.2734
G1 Y259.7265
G0 Z0.1
G0 X322.8302
G1 F1000.0 Z-0.1
G1 F1500.0 Y257.201
G0 Z0.1
G0 X337.6565 Y276.9004
G1 F1000.0 Z-0.1
G1 F1500.0 X338.7389
G1 X339.0997 Y276.7802
G1 X339.22 Y276.6599
G1 X339.3402 Y276.4194
G1 Y276.0586
G1 X339.22 Y275.818
G1 X339.0997 Y275.6978
G1 X338.7389 Y275.5775
G1 X337.6565
G1 Y278.1031
G1 X338.7389
G1 X339.0997 Y277.9828
G1 X339.22 Y277.8625
G1 X339.3402 Y277.622
G1 Y277.3815
G1 X339.22 Y277.1409
G1 X339.0997 Y277.0207
G1 X338.7389 Y276.9004
G0 Z0.1
G0 X340.1821 Y276.4194
G1 F1000.0 Z-0.1
G1 F1500.0 X341.3847
G0 Z0.1
G0 X341.7455 Y275.5775
G1 F1000.0 Z-0.1
G1 F1500.0 X340.7834 Y278.1031
G1 X339.8213 Y275.5775
G0 Z0.1
G0 X342.3468
G1 F1000.0 Z-0.1
G1 F1500.0 Y278.1031
G1 X343.4292
G1 X343.79 Y277.9828
G1 X343.9103 Y277.8625
G1 X344.0306 Y277.622
G1 Y277.3815
G1 X343.9103 Y277.1409
G1 X343.79 Y277.0207
G1 X343.4292 Y276.9004
G1 X342.3468
G0 Z0.1
G0 X343.1887
G1 F1000.0 Z-0.1
G1 F1500.0 X344.0306 Y275.5775
G0 Z0.1
G0 X344.9446 Y276.0345
G1 F1000.0 Z-0.1
G1 F1500.0 X344.9927 Y275.9383
G1 X345.2332 Y275.6978
G1 X345.4737 Y275.5775
G1 X345.9548
G1 X346.1953 Y275.6978
G1 X346.4359 Y275.9383
G1 X346.5561 Y276.1788
G1 X346.6764 Y276.5396
G1 Y277.1409
G1 X346.5561 Y277.5017
G1 X346.4359 Y277.7423
G1 X346.1953 Y277.9828
G1 X345.9548 Y278.1031
G1 X345.4737
G1 X345.2332 Y277.9828
G1 X344.9927 Y277.7423
G1 X344.8724 Y277.5017
G1 X344.7522 Y277.1409
G1 Y276.5396
G1 X344.8724 Y276.1788
G1 X344.9446 Y276.0345
( Inner )
G64
S1000
G0 Z0.1
G0 X316.8985 Y272.6977
G1 F1000.0 Z-0.1
G1 F400.0 X328.6493
G1 Y260.9469
G1 X316.8985
G1 Y272.6977
G0 Z0.1
G0 X338.8735 Y267.7507
G1 F1000.0 Z-0.1
G2 F400.0 X338.9966 Y268.1692 I3.2883 J-0.7403
G2 X339.5771 Y269.1747 I3.1756 J-1.1631
G2 X340.4789 Y269.9326 I2.6079 J-2.1875
G2 X341.5859 Y270.3345 I1.6799 J-2.9015
G3 X341.5861 I-0.0128 J0.0739
G2 X342.7469 I0.5804 J-3.2966
G3 X342.7471 I0.013 J0.0739
G2 X343.854 Y269.9327 I-0.5717 J-3.3
G2 X344.7561 Y269.1744 I-1.7453 J-2.9922
G3 X344.7565 Y269.174 I0.0573 J0.0484
G2 X345.0935 Y268.6992 I-2.4016 J-2.0616
G3 X345.0939 Y268.6984 I0.0649 J0.0376
G2 X345.3356 Y268.1715 I-2.3456 J-1.3946
G2 X345.4705 Y267.5971 I-3.3683 J-1.0945
G3 X345.4706 Y267.5969 I0.0742 J0.011
G2 X345.5103 Y267.3009 I-9.036 J-1.3636
G1 X345.5415 Y267.0087
G2 X345.5347 Y266.9434 I-2.103 J0.1861
G3 X345.5346 Y266.9426 I0.0745 J-0.0089
G1 X345.5036 Y266.6617
G3 Y266.6613 I0.0745 J-0.0082
G2 X345.4758 Y266.4556 I-3.4182 J0.3576
G3 X345.4755 Y266.4537 I0.074 J-0.0123
G2 X345.3357 Y265.8477 I-3.4987 J0.488
G2 X345.0937 Y265.3201 I-2.8417 J0.9839
G2 X344.7559 Y264.8443 I-3.117 J1.8549
G2 X343.8541 Y264.0863 I-2.6223 J2.2045
G2 X342.747 Y263.6844 I-1.6981 J2.9516
G2 X341.586 I-0.5805 J3.3692
G2 X340.4788 Y264.0864 I0.596 J3.3674
G2 X339.5772 Y264.8441 I1.6817 J2.916
G2 X338.9967 Y265.8496 I2.5964 J2.1694
G2 X338.7912 Y267.0095 I3.1944 J1.164
G2 X338.8735 Y267.7507 I3.3706 J0.0009
G0 Z0.1
G0 X355.4281 Y261.7382
G1 F1000.0 Z-0.1
G2 F400.0 X355.4289 Y261.7404 I0.8681 J-0.3153
G2 X355.588 Y262.016 I0.8704 J-0.3188
G2 X355.8352 Y262.2237 I0.715 J-0.5998
G2 X356.1383 Y262.3338 I0.4602 J-0.7948
G2 X356.4569 I0.1593 J-0.9365
G2 X356.76 Y262.2237 I-0.1567 J-0.9039
G3 X356.7602 Y262.2236 I0.0376 J0.0649
G2 X357.0072 Y262.0161 I-0.4583 J-0.796
G3 X357.0078 Y262.0153 I0.0576 J0.048
G2 X357.1657 Y261.7422 I-0.6507 J-0.5583
G2 X357.2025 Y261.5851 I-0.9267 J-0.3002
G3 X357.2032 Y261.5813 I0.0742 J0.011
G2 X357.2135 Y261.5043 I-0.5895 J-0.1183
G3 X357.2138 Y261.5015 I0.0748 J0.0052
G1 X357.2223 Y261.4214
G2 X357.2028 Y261.2617 I-1.7281 J0.1304
G3 X357.2025 Y261.26 I0.0739 J-0.0126
G2 X357.1657 Y261.103 I-0.9392 J0.1375
G2 X357.008 Y260.8302 I-0.7929 J0.2762
G3 X357.0076 Y260.8297 I0.0567 J-0.049
G2 X356.7599 Y260.6214 I-0.742 J0.631
G2 X356.4566 Y260.5114 I-0.4653 J0.8095
G3 X356.4565 Y260.5113 I0.013 J-0.0739
G2 X356.1388 I-0.1588 J0.8917
G1 X356.1387
G2 X355.835 Y260.6216 I0.1634 J0.9235
G2 X355.588 Y260.8292 I0.4608 J0.799
G2 X355.4289 Y261.1047 I0.7116 J0.5946
G2 X355.3726 Y261.4227 I0.8759 J0.3191
G2 X355.4281 Y261.7382 I0.9236 J0.0002
G0 Z0.1
G0 X228.93
G1 F1000.0 Z-0.1
G1 F400.0 Y260.9469
G1 X217.1792
G1 Y272.6977
G1 X228.93
G1 Y261.7382
G0 Z0.1
G0 X206.4305 Y266.2153
G1 F1000.0 Z-0.1
G2 F400.0 X206.3893 Y266.0147 I-16.1646 J3.2165
G2 X206.2609 Y265.5535 I-3.8087 J0.812
G3 X206.2607 Y265.5528 I0.0709 J-0.0245
G2 X206.0728 Y265.1165 I-2.7067 J0.9068
G2 X205.5528 Y264.4304 I-2.552 J1.3941
G2 X204.8634 Y263.908 I-2.4463 J2.5121
G2 X203.1596 Y263.447 I-1.7153 J2.9609
G2 X201.4558 Y263.9079 I0.0109 J3.4196
G2 X200.2452 Y265.1186 I1.6962 J2.9069
G2 X199.7843 Y266.8225 I2.96 J1.715
G2 X199.9897 Y267.9821 I3.3597 J0.0028
G2 X200.5702 Y268.9876 I3.1814 J-1.1664
G2 X201.472 Y269.7455 I2.6035 J-2.1823
G2 X202.579 Y270.1474 I1.6795 J-2.9005
G3 X202.5792 I-0.0128 J0.0739
G2 X203.74 I0.5804 J-3.2977
G3 X203.7402 I0.013 J0.0739
G2 X204.8471 Y269.7455 I-0.5715 J-3.2996
G2 X205.7491 Y268.9873 I-1.7454 J-2.9923
G3 X205.7496 Y268.9868 I0.0573 J0.0484
G2 X206.0866 Y268.512 I-2.4015 J-2.0616
G3 X206.087 Y268.5113 I0.0649 J0.0376
G2 X206.3286 Y267.9844 I-2.3456 J-1.3946
G2 X206.4636 Y267.41 I-3.3683 J-1.0945
G3 Y267.4098 I0.0742 J0.011
G2 X206.5034 Y267.1138 I-9.036 J-1.3636
G1 X206.5344 Y266.8233
G2 X206.5186 Y266.724 I-2.121 J0.2851
G3 X206.5184 Y266.7224 I0.0738 J-0.0135
G1 X206.4847 Y266.5132
G1 X206.4532 Y266.3313
G2 X206.4305 Y266.2153 I-16.1872 J3.1004
G0 Z0.1
G0 X188.1843 Y261.6771
G1 F1000.0 Z-0.1
G2 F400.0 X188.2025 Y261.5851 I-0.9454 J-0.2351
G3 X188.2032 Y261.5813 I0.0742 J0.011
G2 X188.2135 Y261.5043 I-0.5895 J-0.1183
G3 X188.2138 Y261.5015 I0.0748 J0.0052
G1 X188.2223 Y261.4214
G2 X188.2028 Y261.2617 I-1.7281 J0.1304
G3 X188.2025 Y261.26 I0.0739 J-0.0126
G2 X188.1657 Y261.103 I-0.9392 J0.1375
G2 X188.008 Y260.8302 I-0.7929 J0.2762
G3 X188.0076 Y260.8297 I0.0567 J-0.049
G2 X187.7599 Y260.6214 I-0.742 J0.631
G2 X187.4566 Y260.5114 I-0.4653 J0.8095
G3 X187.4564 Y260.5113 I0.013 J-0.0739
G2 X187.1388 I-0.1588 J0.8917
G1 X187.1387
G2 X186.835 Y260.6216 I0.1634 J0.9235
G2 X186.588 Y260.8292 I0.4608 J0.799
G2 X186.4289 Y261.1047 I0.7116 J0.5946
G2 X186.3726 Y261.4227 I0.8759 J0.3191
G2 X186.4289 Y261.7404 I0.9236 J0.0002
G2 X186.588 Y262.016 I0.8704 J-0.3188
G2 X186.8352 Y262.2237 I0.715 J-0.5998
G2 X187.1383 Y262.3338 I0.4602 J-0.7948
G2 X187.4569 I0.1593 J-0.9365
G2 X187.76 Y262.2237 I-0.1567 J-0.9039
G3 X187.7602 Y262.2236 I0.0376 J0.0649
G2 X188.0072 Y262.0161 I-0.4583 J-0.796
G3 X188.0078 Y262.0153 I0.0576 J0.048
G2 X188.1657 Y261.7422 I-0.6507 J-0.5583
G2 X188.1843 Y261.6771 I-0.9267 J-0.3002
G0 Z0.1
G0 X187.3015 Y467.4973
G1 F1000.0 Z-0.1
G2 F400.0 X187.1388 Y467.5113 I-0.0039 J0.9058
G1 X187.1387 Y467.5114
G2 X186.835 Y467.6216 I0.1634 J0.9235
G2 X186.588 Y467.8292 I0.4608 J0.799
G2 X186.4289 Y468.1047 I0.7116 J0.5946
G2 X186.3726 Y468.4227 I0.8759 J0.3191
G2 X186.4289 Y468.7404 I0.9236 J0.0002
G2 X186.588 Y469.016 I0.8704 J-0.3188
G2 X186.8352 Y469.2237 I0.715 J-0.5998
G2 X187.1383 Y469.3338 I0.4602 J-0.7948
G2 X187.4569 I0.1593 J-0.9365
G2 X187.76 Y469.2237 I-0.1567 J-0.9039
G3 X187.7602 Y469.2236 I0.0376 J0.0649
G2 X188.0072 Y469.0161 I-0.4583 J-0.796
G3 X188.0078 Y469.0153 I0.0576 J0.048
G2 X188.1657 Y468.7422 I-0.6507 J-0.5583
G2 X188.2025 Y468.5851 I-0.9267 J-0.3002
G3 X188.2032 Y468.5813 I0.0742 J0.011
G2 X188.2135 Y468.5044 I-0.5895 J-0.1183
G3 X188.2138 Y468.5016 I0.0748 J0.0052
G1 X188.2223 Y468.4214
G2 X188.2028 Y468.2617 I-1.7281 J0.1304
G3 X188.2025 Y468.26 I0.0739 J-0.0126
G2 X188.1657 Y468.103 I-0.9392 J0.1375
G2 X188.008 Y467.8302 I-0.7929 J0.2762
G3 X188.0076 Y467.8297 I0.0567 J-0.049
G2 X187.7599 Y467.6214 I-0.742 J0.631
G2 X187.4566 Y467.5114 I-0.4653 J0.8095
G3 X187.4564 Y467.5113 I0.013 J-0.0739
G2 X187.3015 Y467.4973 I-0.1588 J0.8917
G0 Z0.1
G0 X355.3726 Y468.4187
G1 F1000.0 Z-0.1
G2 F400.0 Y468.4227 I0.9322 J0.0051
G2 X355.4289 Y468.7404 I0.9236 J0.0002
G2 X355.588 Y469.016 I0.8704 J-0.3188
G2 X355.8352 Y469.2237 I0.715 J-0.5998
G2 X356.1383 Y469.3338 I0.4602 J-0.7948
G2 X356.4569 I0.1593 J-0.9365
G2 X356.76 Y469.2237 I-0.1567 J-0.9039
G3 X356.7602 Y469.2236 I0.0376 J0.0649
G2 X357.0072 Y469.0161 I-0.4583 J-0.796
G3 X357.0078 Y469.0153 I0.0576 J0.048
G2 X357.1657 Y468.7422 I-0.6507 J-0.5583
G2 X357.2025 Y468.5851 I-0.9267 J-0.3002
G3 X357.2032 Y468.5813 I0.0742 J0.011
G2 X357.2135 Y468.5044 I-0.5895 J-0.1183
G3 X357.2138 Y468.5016 I0.0748 J0.0052
G1 X357.2223 Y468.4214
G2 X357.2028 Y468.2617 I-1.7281 J0.1304
G3 X357.2025 Y468.26 I0.0739 J-0.0126
G2 X357.1657 Y468.103 I-0.9392 J0.1375
G2 X357.008 Y467.8302 I-0.7929 J0.2762
G3 X357.0076 Y467.8297 I0.0567 J-0.049
G2 X356.7599 Y467.6214 I-0.742 J0.631
G2 X356.4566 Y467.5114 I-0.4653 J0.8095
G3 X356.4565 Y467.5113 I0.013 J-0.0739
G2 X356.1388 I-0.1588 J0.8917
G1 X356.1387 Y467.5114
G2 X355.835 Y467.6216 I0.1634 J0.9235
G2 X355.588 Y467.8292 I0.4608 J0.799
G2 X355.4289 Y468.1047 I0.7116 J0.5946
G2 X355.3726 Y468.4187 I0.8759 J0.3191
( Screen_5 inner )
S1000
G0 Z0.1
G0 X349.2226 Y472.3916
G1 F1000.0 Z-0.1
G1 F400.0 Y291.4537
G1 X345.2666 Y287.4976
G1 X199.3287
G1 X195.3726 Y291.4537
G1 Y472.3916
G1 X199.3287 Y476.3477
G1 X345.2666 Y476.3476
G1 X349.2226 Y472.3916
( Screen_5 outer )
S1000
G0 Z0.1
G0 X361.3507 Y484.4757
G1 F1000.0 Z-0.1
G1 F400.0 X356.3507 Y489.4757
G3 X356.2976 Y489.4976 I-0.053 J-0.053
G1 X187.2976
G3 X187.2446 Y489.4757 I0.0 J-0.075
G1 X182.2446 Y484.4757
G3 X182.2226 Y484.4226 I0.053 J-0.053
G1 Y251.4226
G3 X182.2446 Y251.3696 I0.075 J0.0
G1 X187.2446 Y246.3696
G3 X187.2976 Y246.3476 I0.053 J0.053
G1 X356.2976
G3 X356.3507 Y246.3696 I0.0 J0.075
G1 X361.3507 Y251.3696
G3 X361.3726 Y251.4226 I-0.053 J0.053
G1 Y484.4226
G3 X361.3507 Y484.4757 I-0.075 J0.0
G0 Z0.1
M5
M30
