( Made using CamBam - http://www.cambam.co.uk )
( CutJob01 7/8/2019 9:27:50 PM )
( T0 : 0.0 )
G21 G90 G64 G40
G0 Z0.1
( T0 : 0.0 )
T0 M6
( Text )
G61 G17
M3 S1000
G0 X19.7713 Y544.4318
G1 F1000.0 Z-0.1
G1 F1500.0 Y541.5682
G0 Z0.1
G0 X21.4077
G1 F1000.0 Z-0.1
G1 F1500.0 Y544.4318
G0 Z0.1
G0 X20.7259
G1 F1000.0 Z-0.1
G1 F1500.0 X18.8168
G0 Z0.1
G0 X21.4077 Y543.0682
G1 F1000.0 Z-0.1
G1 F1500.0 X23.3168
G0 Z0.1
G0 X24.4077
G1 F1000.0 Z-0.1
G1 F1500.0 X25.6349
G1 X26.044 Y543.2045
G1 X26.1804 Y543.3409
G1 X26.3168 Y543.6136
G1 Y543.8864
G1 X26.1804 Y544.1591
G1 X26.044 Y544.2955
G1 X25.6349 Y544.4318
G1 X24.4077
G1 Y541.5682
G0 Z0.1
G0 X23.3168
G1 F1000.0 Z-0.1
G1 F1500.0 Y544.4318
G0 Z0.1
G0 X25.3622 Y543.0682
G1 F1000.0 Z-0.1
G1 F1500.0 X26.3168 Y541.5682
G0 Z0.1
G0 X27.2713 Y544.4318
G1 F1000.0 Z-0.1
G1 F1500.0 Y542.3864
G1 X27.4077 Y541.9773
G1 X27.6804 Y541.7045
G1 X28.0895 Y541.5682
G1 X28.3622
G1 X28.7713 Y541.7045
G1 X29.044 Y541.9773
G1 X29.1804 Y542.3864
G1 Y544.4318
G0 Z0.1
G0 X30.1349 Y541.9773
G1 F1000.0 Z-0.1
G1 F1500.0 X30.4077 Y541.7045
G1 X30.8168 Y541.5682
G1 X31.3622
G1 X31.7713 Y541.7045
G1 X32.044 Y541.9773
G1 Y542.3864
G1 X31.9077 Y542.6591
G1 X31.7713 Y542.7955
G1 X31.4986 Y542.9318
G1 X30.6804 Y543.2045
G1 X30.4077 Y543.3409
G1 X30.2713 Y543.4773
G1 X30.1349 Y543.75
G1 Y544.0227
G1 X30.4077 Y544.2955
G1 X30.8168 Y544.4318
G1 X31.3622
G1 X31.7713 Y544.2955
G1 X32.044 Y544.0227
G0 Z0.1
G0 X32.5895 Y544.4318
G1 F1000.0 Z-0.1
G1 F1500.0 X34.4986
G0 Z0.1
G0 X33.544
G1 F1000.0 Z-0.1
G1 F1500.0 Y541.5682
G0 Z0.1
G0 X37.3622
G1 F1000.0 Z-0.1
G1 F1500.0 Y544.4318
G1 X38.5895
G1 X38.9986 Y544.2955
G1 X39.1349 Y544.1591
G1 X39.2713 Y543.8864
G1 Y543.6136
G1 X39.1349 Y543.3409
G1 X38.9986 Y543.2045
G1 X38.5895 Y543.0682
G1 X37.3622
G0 Z0.1
G0 X38.3168
G1 F1000.0 Z-0.1
G1 F1500.0 X39.2713 Y541.5682
G0 Z0.1
G0 X40.2258 Y543.0682
G1 F1000.0 Z-0.1
G1 F1500.0 X41.3168
G0 Z0.1
G0 X41.9986 Y544.4318
G1 F1000.0 Z-0.1
G1 F1500.0 X40.2258
G1 Y541.5682
G1 X41.9986
G0 Z0.1
G0 X42.4077 Y544.4318
G1 F1000.0 Z-0.1
G1 F1500.0 X43.4986 Y541.5682
G1 X44.5895 Y544.4318
G0 Z0.1
G0 X45.2713 Y543.0682
G1 F1000.0 Z-0.1
G1 F1500.0 X46.3622
G0 Z0.1
G0 X47.8622
G1 F1000.0 Z-0.1
G1 F1500.0 X49.0895
G1 X49.4986 Y543.2045
G1 X49.6349 Y543.3409
G1 X49.7713 Y543.6136
G1 Y543.8864
G1 X49.6349 Y544.1591
G1 X49.4986 Y544.2955
G1 X49.0895 Y544.4318
G1 X47.8622
G1 Y541.5682
G0 Z0.1
G0 X47.044
G1 F1000.0 Z-0.1
G1 F1500.0 X45.2713
G1 Y544.4318
G1 X47.044
G0 Z0.1
G0 X48.8168 Y543.0682
G1 F1000.0 Z-0.1
G1 F1500.0 X49.7713 Y541.5682
G0 Z0.1
G0 X50.5895 Y541.9773
G1 F1000.0 Z-0.1
G1 F1500.0 X50.8622 Y541.7045
G1 X51.2713 Y541.5682
G1 X51.8168
G1 X52.2258 Y541.7045
G1 X52.4986 Y541.9773
G1 Y542.3864
G1 X52.3622 Y542.6591
G1 X52.2258 Y542.7955
G1 X51.9531 Y542.9318
G1 X51.1349 Y543.2045
G1 X50.8622 Y543.3409
G1 X50.7258 Y543.4773
G1 X50.5895 Y543.75
G1 Y544.0227
G1 X50.8622 Y544.2955
G1 X51.2713 Y544.4318
G1 X51.8168
G1 X52.2258 Y544.2955
G1 X52.4986 Y544.0227
G0 Z0.1
G0 X53.4531 Y543.0682
G1 F1000.0 Z-0.1
G1 F1500.0 X54.544
G0 Z0.1
G0 X56.044
G1 F1000.0 Z-0.1
G1 F1500.0 X57.2713
G1 X57.6804 Y543.2045
G1 X57.8168 Y543.3409
G1 X57.9531 Y543.6136
G1 Y543.8864
G1 X57.8168 Y544.1591
G1 X57.6804 Y544.2955
G1 X57.2713 Y544.4318
G1 X56.044
G1 Y541.5682
G0 Z0.1
G0 X55.2258
G1 F1000.0 Z-0.1
G1 F1500.0 X53.4531
G1 Y544.4318
G1 X55.2258
G0 Z0.1
G0 X56.9986 Y543.0682
G1 F1000.0 Z-0.1
G1 F1500.0 X57.9531 Y541.5682
G0 Z0.1
G0 X59.3911 Y541.7216
G1 F1000.0 Z-0.1
G1 F1500.0 X71.8205
G1 X71.8338 Y539.5073
G1 X72.4603
G1 X72.4559 Y542.36
G1 X59.3911
G1 Y541.7216
G0 Z0.1
G0 X69.6549 Y532.0453
G1 F1000.0 Z-0.1
G1 F1500.0 X69.3822 Y532.318
G1 X68.9731 Y532.4544
G1 X68.4276
G1 X68.0185 Y532.318
G1 X67.7458 Y532.0453
G1 Y531.7725
G1 X67.8822 Y531.4998
G1 X68.0185 Y531.3634
G1 X68.2913 Y531.2271
G1 X69.1095 Y530.9544
G1 X69.3822 Y530.818
G1 X69.5185 Y530.6816
G1 X69.6549 Y530.4089
G1 Y529.9998
G1 X69.3822 Y529.7271
G1 X68.9731 Y529.5907
G1 X68.4276
G1 X68.0185 Y529.7271
G1 X67.7458 Y529.9998
G0 Z0.1
G0 X69.6161 Y529.3636
G1 F1000.0 Z-0.1
G1 F1500.0 X67.8433
G1 Y526.5
G1 X69.6161
G0 Z0.1
G0 X70.4343
G1 F1000.0 Z-0.1
G1 F1500.0 Y529.3636
G1 X71.5252 Y526.5
G1 X72.6161 Y529.3636
G1 Y526.5
G0 Z0.1
G0 X73.707 Y528.0
G1 F1000.0 Z-0.1
G1 F1500.0 X74.7979
G0 Z0.1
G0 X76.2979
G1 F1000.0 Z-0.1
G1 F1500.0 X77.5252
G1 X77.9343 Y528.1364
G1 X78.0706 Y528.2727
G1 X78.207 Y528.5454
G1 Y528.8182
G1 X78.0706 Y529.0909
G1 X77.9343 Y529.2273
G1 X77.5252 Y529.3636
G1 X76.2979
G1 Y526.5
G0 Z0.1
G0 X75.4797
G1 F1000.0 Z-0.1
G1 F1500.0 X73.707
G1 Y529.3636
G1 X75.4797
G0 Z0.1
G0 X74.564 Y529.9998
G1 F1000.0 Z-0.1
G1 F1500.0 X74.7004 Y530.2725
G1 X74.8367 Y530.6816
G1 Y531.3634
G1 X74.7004 Y531.7725
G1 X74.564 Y532.0453
G1 X74.2913 Y532.318
G1 X74.0185 Y532.4544
G1 X73.4731
G1 X73.2004 Y532.318
G1 X72.9276 Y532.0453
G1 X72.7913 Y531.7725
G1 X72.6549 Y531.3634
G1 Y530.6816
G1 X72.7913 Y530.2725
G1 X72.9276 Y529.9998
G1 X73.2004 Y529.7271
G1 X73.4731 Y529.5907
G1 X74.0185
G1 X74.2913 Y529.7271
G1 X74.564 Y529.9998
G0 Z0.1
G0 X75.5185 Y532.4544
G1 F1000.0 Z-0.1
G1 F1500.0 X76.2004 Y529.5907
G1 X76.8822 Y532.4544
G1 X77.564 Y529.5907
G1 X78.2458 Y532.4544
G0 Z0.1
G0 X77.2524 Y528.0
G1 F1000.0 Z-0.1
G1 F1500.0 X78.207 Y526.5
G0 Z0.1
G0 X71.1549 Y529.5907
G1 F1000.0 Z-0.1
G1 F1500.0 Y532.4544
G0 Z0.1
G0 X72.1095
G1 F1000.0 Z-0.1
G1 F1500.0 X70.2004
G0 Z0.1
G0 X68.9343 Y528.0
G1 F1000.0 Z-0.1
G1 F1500.0 X67.8433
G0 Z0.1
G0 X69.2486 Y505.9678
G1 F1000.0 Z-0.1
G1 F1500.0 Y503.1042
G1 X67.3395 Y505.9678
G1 Y503.1042
G0 Z0.1
G0 X70.244 Y504.0724
G1 F1000.0 Z-0.1
G1 F1500.0 X70.3395 Y503.786
G1 X70.4758 Y503.5133
G1 X70.7486 Y503.2405
G1 X71.0213 Y503.1042
G1 X71.5668
G1 X71.8395 Y503.2405
G1 X72.1122 Y503.5133
G1 X72.2486 Y503.786
G1 X72.3849 Y504.1951
G1 Y504.8769
G1 X72.2486 Y505.286
G1 X72.1122 Y505.5587
G1 X71.8395 Y505.8314
G1 X71.5668 Y505.9678
G1 X71.0213
G1 X70.7486 Y505.8314
G1 X70.4758 Y505.5587
G1 X70.3395 Y505.286
G1 X70.2031 Y504.8769
G1 Y504.1951
G1 X70.244 Y504.0724
G0 Z0.1
G0 X73.3395 Y504.6042
G1 F1000.0 Z-0.1
G1 F1500.0 X74.5668
G1 X74.9758 Y504.7405
G1 X75.1122 Y504.8769
G1 X75.2486 Y505.1496
G1 Y505.4224
G1 X75.1122 Y505.6951
G1 X74.9758 Y505.8314
G1 X74.5668 Y505.9678
G1 X73.3395
G1 Y503.1042
G0 Z0.1
G0 X74.294 Y504.6042
G1 F1000.0 Z-0.1
G1 F1500.0 X75.2486 Y503.1042
G0 Z0.1
G0 X76.2031
G1 F1000.0 Z-0.1
G1 F1500.0 Y505.9678
G1 X77.294 Y503.1042
G1 X78.3849 Y505.9678
G1 Y503.1042
G0 Z0.1
G0 X49.8545 Y509.4088
G1 F1000.0 Z-0.1
G1 F1500.0 X48.4 Y507.5906
G0 Z0.1
G0 Y505.5906
G1 F1000.0 Z-0.1
G1 F1500.0 Y507.5906
G1 X46.9455 Y509.4088
G0 Z0.1
G0 X45.8545 Y508.8633
G1 F1000.0 Z-0.1
G1 F1500.0 X45.4909 Y509.227
G1 X45.1273 Y509.4088
G1 X44.4
G1 X44.0364 Y509.227
G1 X43.6727 Y508.8633
G1 X43.4909 Y508.4997
G1 X43.3091 Y507.9543
G1 Y507.0452
G1 X43.4909 Y506.4997
G1 X43.6727 Y506.1361
G1 X44.0364 Y505.7724
G1 X44.4 Y505.5906
G1 X45.1273
G1 X45.4909 Y505.7724
G1 X45.8545 Y506.1361
G1 X46.0364 Y506.4997
G1 X46.2182 Y507.0452
G1 Y507.9543
G1 X46.0364 Y508.4997
G1 X45.8545 Y508.8633
G0 Z0.1
G0 X42.5818 Y505.5906
G1 F1000.0 Z-0.1
G1 F1500.0 X40.4
G1 Y509.4088
G0 Z0.1
G0 X36.5818 Y507.4088
G1 F1000.0 Z-0.1
G1 F1500.0 X38.2182
G1 X38.7636 Y507.5906
G1 X38.9455 Y507.7724
G1 X39.1273 Y508.1361
G1 Y508.6815
G1 X38.9455 Y509.0452
G1 X38.7636 Y509.227
G1 X38.2182 Y509.4088
G1 X36.5818
G1 Y505.5906
G0 Z0.1
G0 X35.4909
G1 F1000.0 Z-0.1
G1 F1500.0 X33.1273
G1 Y509.4088
G1 X35.4909
G0 Z0.1
G0 X34.5818 Y507.5906
G1 F1000.0 Z-0.1
G1 F1500.0 X33.1273
G0 Z0.1
G0 X31.8545
G1 F1000.0 Z-0.1
G1 F1500.0 Y507.0452
G1 X31.6727 Y506.4997
G1 X31.4909 Y506.1361
G1 X31.1273 Y505.7724
G1 X30.5818 Y505.5906
G1 X29.3091
G1 Y509.4088
G1 X30.5818
G1 X31.1273 Y509.227
G1 X31.4909 Y508.8633
G1 X31.6727 Y508.4997
G1 X31.8545 Y507.9543
G1 Y507.5906
G0 Z0.1
G0 X32.7707 Y517.5906
G1 F1000.0 Z-0.1
G1 F1500.0 X30.5889
G1 Y521.4088
G0 Z0.1
G0 X29.1344
G1 F1000.0 Z-0.1
G1 F1500.0 Y517.5906
G1 X26.5889 Y521.4088
G1 Y517.5906
G0 Z0.1
G0 X25.1344 Y521.4088
G1 F1000.0 Z-0.1
G1 F1500.0 Y518.6815
G1 X24.9525 Y518.1361
G1 X24.5889 Y517.7724
G1 X24.0435 Y517.5906
G1 X23.6798
G1 X23.1344 Y517.7724
G1 X22.7707 Y518.1361
G1 X22.5889 Y518.6815
G1 Y521.4088
G0 Z0.1
G0 X22.3755 Y530.549
G1 F1000.0 Z-0.1
G1 F1500.0 X23.8455 Y534.4078
G1 X25.3155 Y530.549
G0 Z0.1
G0 X26.2343
G1 F1000.0 Z-0.1
G1 F1500.0 Y534.4078
G1 X27.888
G1 X28.4393 Y534.2241
G1 X28.6231 Y534.0403
G1 X28.8068 Y533.6728
G1 Y533.3053
G1 X28.6231 Y532.9378
G1 X28.4393 Y532.7541
G1 X27.888 Y532.5703
G1 X26.2343
G0 Z0.1
G0 X27.5205
G1 F1000.0 Z-0.1
G1 F1500.0 X28.8068 Y530.549
G0 Z0.1
G0 X30.0931
G1 F1000.0 Z-0.1
G1 F1500.0 Y534.4078
G1 X31.5631 Y530.549
G1 X33.0331 Y534.4078
G1 Y530.549
G0 Z0.1
G0 X24.7643 Y531.8353
G1 F1000.0 Z-0.1
G1 F1500.0 X22.9267
G0 Z0.1
G0 X33.8802 Y520.8819
G1 F1000.0 Z-0.1
G1 F1500.0 X33.8616 Y520.8633
G1 X33.6798 Y520.4997
G1 X33.498 Y519.9542
G1 Y519.0452
G1 X33.6798 Y518.4997
G1 X33.8616 Y518.1361
G1 X34.2253 Y517.7724
G1 X34.5889 Y517.5906
G1 X35.3162
G1 X35.6798 Y517.7724
G1 X36.0435 Y518.1361
G1 X36.2253 Y518.4997
G1 X36.4071 Y519.0452
G1 Y519.9542
G1 X36.2253 Y520.4997
G1 X36.0435 Y520.8633
G1 X35.6798 Y521.227
G1 X35.3162 Y521.4088
G1 X34.5889
G1 X34.2253 Y521.227
G1 X33.8802 Y520.8819
G0 Z0.1
G0 X40.2253 Y520.4997
G1 F1000.0 Z-0.1
G1 F1500.0 X40.0435 Y520.8633
G1 X39.6798 Y521.227
G1 X39.3162 Y521.4088
G1 X38.5889
G1 X38.2253 Y521.227
G1 X37.8616 Y520.8633
G1 X37.6798 Y520.4997
G1 X37.498 Y519.9542
G1 Y519.0452
G1 X37.6798 Y518.4997
G1 X37.8616 Y518.1361
G1 X38.2253 Y517.7724
G1 X38.5889 Y517.5906
G1 X39.3162
G1 X39.6798 Y517.7724
G1 X40.0435 Y518.1361
G1 X40.2253 Y518.4997
G0 Z0.1
G0 X41.498 Y518.8633
G1 F1000.0 Z-0.1
G1 F1500.0 X44.0435 Y521.4088
G0 Z0.1
G0 X42.4071 Y519.7724
G1 F1000.0 Z-0.1
G1 F1500.0 X44.0435 Y517.5906
G0 Z0.1
G0 X41.498
G1 F1000.0 Z-0.1
G1 F1500.0 Y521.4088
G0 Z0.1
G0 X337.2145 Y503.1042
G1 F1000.0 Z-0.1
G1 F1500.0 Y505.9678
G1 X339.1236 Y503.1042
G1 Y505.9678
G0 Z0.1
G0 X340.269 Y505.395
G1 F1000.0 Z-0.1
G1 F1500.0 X340.2145 Y505.286
G1 X340.0781 Y504.8769
G1 Y504.1951
G1 X340.2145 Y503.786
G1 X340.3508 Y503.5133
G1 X340.6236 Y503.2405
G1 X340.8963 Y503.1042
G1 X341.4418
G1 X341.7145 Y503.2405
G1 X341.9872 Y503.5133
G1 X342.1236 Y503.786
G1 X342.2599 Y504.1951
G1 Y504.8769
G1 X342.1236 Y505.286
G1 X341.9872 Y505.5587
G1 X341.7145 Y505.8314
G1 X341.4418 Y505.9678
G1 X340.8963
G1 X340.6236 Y505.8314
G1 X340.3508 Y505.5587
G1 X340.269 Y505.395
G0 Z0.1
G0 X343.2145 Y504.6042
G1 F1000.0 Z-0.1
G1 F1500.0 X344.4418
G1 X344.8508 Y504.7405
G1 X344.9872 Y504.8769
G1 X345.1236 Y505.1496
G1 Y505.4224
G1 X344.9872 Y505.6951
G1 X344.8508 Y505.8314
G1 X344.4418 Y505.9678
G1 X343.2145
G1 Y503.1042
G0 Z0.1
G0 X344.169 Y504.6042
G1 F1000.0 Z-0.1
G1 F1500.0 X345.1236 Y503.1042
G0 Z0.1
G0 X346.0781
G1 F1000.0 Z-0.1
G1 F1500.0 Y505.9678
G1 X347.169 Y503.1042
G1 X348.2599 Y505.9678
G1 Y503.1042
G0 Z0.1
G0 X365.5799 Y505.5906
G1 F1000.0 Z-0.1
G1 F1500.0 Y509.4088
G1 X366.8527
G1 X367.3981 Y509.227
G1 X367.7617 Y508.8633
G1 X367.9436 Y508.4997
G1 X368.1254 Y507.9543
G1 Y507.0452
G1 X367.9436 Y506.4997
G1 X367.7617 Y506.1361
G1 X367.3981 Y505.7724
G1 X366.8527 Y505.5906
G1 X365.5799
G0 Z0.1
G0 X369.3981 Y507.5906
G1 F1000.0 Z-0.1
G1 F1500.0 X370.8527
G0 Z0.1
G0 X372.8527 Y507.4088
G1 F1000.0 Z-0.1
G1 F1500.0 X374.489
G1 X375.0345 Y507.5906
G1 X375.2163 Y507.7724
G1 X375.3981 Y508.1361
G1 Y508.6815
G1 X375.2163 Y509.0452
G1 X375.0345 Y509.227
G1 X374.489 Y509.4088
G1 X372.8527
G1 Y505.5906
G0 Z0.1
G0 X371.7617
G1 F1000.0 Z-0.1
G1 F1500.0 X369.3981
G1 Y509.4088
G1 X371.7617
G0 Z0.1
G0 X376.6708
G1 F1000.0 Z-0.1
G1 F1500.0 Y505.5906
G1 X378.8527
G0 Z0.1
G0 X379.9436 Y506.1361
G1 F1000.0 Z-0.1
G1 F1500.0 X380.3072 Y505.7724
G1 X380.6708 Y505.5906
G1 X381.3981
G1 X381.7617 Y505.7724
G1 X382.1254 Y506.1361
G1 X382.3072 Y506.4997
G1 X382.489 Y507.0452
G1 Y507.9543
G1 X382.3072 Y508.4997
G1 X382.1254 Y508.8633
G1 X381.7617 Y509.227
G1 X381.3981 Y509.4088
G1 X380.6708
G1 X380.3072 Y509.227
G1 X379.9436 Y508.8633
G1 X379.7617 Y508.4997
G1 X379.5799 Y507.9543
G1 Y507.0452
G1 X379.7617 Y506.4997
G1 X379.9436 Y506.1361
G0 Z0.1
G0 X383.2163 Y509.4088
G1 F1000.0 Z-0.1
G1 F1500.0 X384.6708 Y507.5906
G1 Y505.5906
G0 Z0.1
G0 Y507.5906
G1 F1000.0 Z-0.1
G1 F1500.0 X386.1254 Y509.4088
G0 Z0.1
G0 X384.1166 Y517.5906
G1 F1000.0 Z-0.1
G1 F1500.0 X384.4802 Y517.7724
G1 X384.8438 Y518.1361
G1 X385.0256 Y518.4997
G1 X385.2075 Y519.0452
G1 Y519.9542
G1 X385.0256 Y520.4997
G1 X384.8438 Y520.8633
G1 X384.4802 Y521.227
G1 X384.1166 Y521.4088
G1 X383.3893
G1 X383.0256 Y521.227
G1 X382.662 Y520.8633
G1 X382.4802 Y520.4997
G1 X382.2984 Y519.9542
G1 Y519.0452
G1 X382.4802 Y518.4997
G1 X382.662 Y518.1361
G1 X383.0256 Y517.7724
G1 X383.3893 Y517.5906
G1 X384.1166
G0 Z0.1
G0 X381.5711
G1 F1000.0 Z-0.1
G1 F1500.0 X379.3893
G1 Y521.4088
G0 Z0.1
G0 X377.9347
G1 F1000.0 Z-0.1
G1 F1500.0 Y517.5906
G1 X375.3893 Y521.4088
G1 Y517.5906
G0 Z0.1
G0 X373.9347 Y521.4088
G1 F1000.0 Z-0.1
G1 F1500.0 Y518.6815
G1 X373.7529 Y518.1361
G1 X373.3893 Y517.7724
G1 X372.8438 Y517.5906
G1 X372.4802
G1 X371.9347 Y517.7724
G1 X371.5711 Y518.1361
G1 X371.3893 Y518.6815
G1 Y521.4088
G0 Z0.1
G0 X382.5751 Y530.549
G1 F1000.0 Z-0.1
G1 F1500.0 X384.0451 Y534.4078
G1 X385.5151 Y530.549
G0 Z0.1
G0 X386.4339
G1 F1000.0 Z-0.1
G1 F1500.0 Y534.4078
G1 X388.0876
G1 X388.6389 Y534.2241
G1 X388.8227 Y534.0403
G1 X389.0064 Y533.6728
G1 Y533.3053
G1 X388.8227 Y532.9378
G1 X388.6389 Y532.7541
G1 X388.0876 Y532.5703
G1 X386.4339
G0 Z0.1
G0 X387.7201
G1 F1000.0 Z-0.1
G1 F1500.0 X389.0064 Y530.549
G0 Z0.1
G0 X390.2927
G1 F1000.0 Z-0.1
G1 F1500.0 Y534.4078
G1 X391.7627 Y530.549
G1 X393.2327 Y534.4078
G1 Y530.549
G0 Z0.1
G0 X384.9639 Y531.8353
G1 F1000.0 Z-0.1
G1 F1500.0 X383.1263
G0 Z0.1
G0 X384.4797 Y541.0909
G1 F1000.0 Z-0.1
G1 F1500.0 X382.7069
G1 Y543.9545
G1 X384.4797
G0 Z0.1
G0 X383.7978 Y542.5909
G1 F1000.0 Z-0.1
G1 F1500.0 X382.7069
G0 Z0.1
G0 X382.0251 Y543.9545
G1 F1000.0 Z-0.1
G1 F1500.0 X380.9342 Y541.0909
G1 X379.8433 Y543.9545
G0 Z0.1
G0 X379.4342
G1 F1000.0 Z-0.1
G1 F1500.0 X377.6615
G1 Y541.0909
G1 X379.4342
G0 Z0.1
G0 X378.7524 Y542.5909
G1 F1000.0 Z-0.1
G1 F1500.0 X377.6615
G0 Z0.1
G0 X376.7069 Y541.0909
G1 F1000.0 Z-0.1
G1 F1500.0 X375.7524 Y542.5909
G0 Z0.1
G0 X374.7978
G1 F1000.0 Z-0.1
G1 F1500.0 X376.0251
G1 X376.4342 Y542.7273
G1 X376.5706 Y542.8636
G1 X376.7069 Y543.1364
G1 Y543.4091
G1 X376.5706 Y543.6818
G1 X376.4342 Y543.8182
G1 X376.0251 Y543.9545
G1 X374.7978
G1 Y541.0909
G0 Z0.1
G0 X370.9797
G1 F1000.0 Z-0.1
G1 F1500.0 Y543.9545
G0 Z0.1
G0 X370.0251
G1 F1000.0 Z-0.1
G1 F1500.0 X371.9342
G0 Z0.1
G0 X369.4797 Y543.5455
G1 F1000.0 Z-0.1
G1 F1500.0 X369.2069 Y543.8182
G1 X368.7978 Y543.9545
G1 X368.2524
G1 X367.8433 Y543.8182
G1 X367.5706 Y543.5455
G1 Y543.2727
G1 X367.7069 Y543.0
G1 X367.8433 Y542.8636
G1 X368.116 Y542.7273
G1 X368.9342 Y542.4545
G1 X369.2069 Y542.3182
G1 X369.3433 Y542.1818
G1 X369.4797 Y541.9091
G1 Y541.5
G1 X369.2069 Y541.2273
G1 X368.7978 Y541.0909
G1 X368.2524
G1 X367.8433 Y541.2273
G1 X367.5706 Y541.5
G0 Z0.1
G0 X366.616 Y543.9545
G1 F1000.0 Z-0.1
G1 F1500.0 Y541.9091
G1 X366.4796 Y541.5
G1 X366.2069 Y541.2273
G1 X365.7978 Y541.0909
G1 X365.5251
G1 X365.116 Y541.2273
G1 X364.8433 Y541.5
G1 X364.7069 Y541.9091
G1 Y543.9545
G0 Z0.1
G0 X362.7978 Y542.5909
G1 F1000.0 Z-0.1
G1 F1500.0 X363.7524 Y541.0909
G0 Z0.1
G0 X361.8433
G1 F1000.0 Z-0.1
G1 F1500.0 Y543.9545
G1 X363.0706
G1 X363.4797 Y543.8182
G1 X363.616 Y543.6818
G1 X363.7524 Y543.4091
G1 Y543.1364
G1 X363.616 Y542.8636
G1 X363.4797 Y542.7273
G1 X363.0706 Y542.5909
G1 X361.8433
G0 Z0.1
G0 X360.7524
G1 F1000.0 Z-0.1
G1 F1500.0 X358.8433
G0 Z0.1
G0 Y543.9545
G1 F1000.0 Z-0.1
G1 F1500.0 Y541.0909
G0 Z0.1
G0 X357.2069
G1 F1000.0 Z-0.1
G1 F1500.0 Y543.9545
G0 Z0.1
G0 X358.1615
G1 F1000.0 Z-0.1
G1 F1500.0 X356.2524
G0 Z0.1
G0 X355.1165 Y542.36
G1 F1000.0 Z-0.1
G1 F1500.0 X342.0532
G1 X342.0472 Y539.5073
G1 X342.6737
G1 X342.6869 Y541.7216
G1 X342.6871
G1 X355.1165
G1 Y542.36
G0 Z0.1
G0 X360.7524 Y541.0909
G1 F1000.0 Z-0.1
G1 F1500.0 Y543.9545
G0 Z0.1
G0 X348.8744 Y533.6761
G1 F1000.0 Z-0.1
G1 F1500.0 X348.1926 Y530.8125
G1 X347.5107 Y533.6761
G1 X346.8289 Y530.8125
G1 X346.1471 Y533.6761
G0 Z0.1
G0 X345.2198 Y533.2125
G1 F1000.0 Z-0.1
G1 F1500.0 X345.1926 Y533.267
G1 X344.9198 Y533.5398
G1 X344.6471 Y533.6761
G1 X344.1016
G1 X343.8289 Y533.5398
G1 X343.5562 Y533.267
G1 X343.4198 Y532.9943
G1 X343.2835 Y532.5852
G1 Y531.9034
G1 X343.4198 Y531.4943
G1 X343.5562 Y531.2216
G1 X343.8289 Y530.9488
G1 X344.1016 Y530.8125
G1 X344.6471
G1 X344.9198 Y530.9488
G1 X345.1926 Y531.2216
G1 X345.3289 Y531.4943
G1 X345.4653 Y531.9034
G1 Y532.5852
G1 X345.3289 Y532.9943
G1 X345.2198 Y533.2125
G0 Z0.1
G0 X342.738 Y533.6761
G1 F1000.0 Z-0.1
G1 F1500.0 X340.8289
G0 Z0.1
G0 X340.2835 Y533.267
G1 F1000.0 Z-0.1
G1 F1500.0 X340.0107 Y533.5398
G1 X339.6016 Y533.6761
G1 X339.0562
G1 X338.6471 Y533.5398
G1 X338.3744 Y533.267
G1 Y532.9943
G1 X338.5107 Y532.7216
G1 X338.6471 Y532.5852
G1 X338.9198 Y532.4488
G1 X339.738 Y532.1761
G1 X340.0107 Y532.0398
G1 X340.1471 Y531.9034
G1 X340.2835 Y531.6307
G1 Y531.2216
G1 X340.0107 Y530.9488
G1 X339.6016 Y530.8125
G1 X339.0562
G1 X338.6471 Y530.9488
G1 X338.3744 Y531.2216
G0 Z0.1
G0 X340.2446 Y530.5854
G1 F1000.0 Z-0.1
G1 F1500.0 X338.4719
G1 Y527.7218
G1 X340.2446
G0 Z0.1
G0 X341.0628
G1 F1000.0 Z-0.1
G1 F1500.0 Y530.5854
G1 X342.1537 Y527.7218
G1 X343.2446 Y530.5854
G1 Y527.7218
G0 Z0.1
G0 X344.3355 Y529.2218
G1 F1000.0 Z-0.1
G1 F1500.0 X345.4265
G0 Z0.1
G0 X346.9265
G1 F1000.0 Z-0.1
G1 F1500.0 X348.1537
G1 X348.5628 Y529.3581
G1 X348.6992 Y529.4945
G1 X348.8355 Y529.7672
G1 Y530.0399
G1 X348.6992 Y530.3127
G1 X348.5628 Y530.449
G1 X348.1537 Y530.5854
G1 X346.9265
G1 Y527.7218
G0 Z0.1
G0 X346.1083
G1 F1000.0 Z-0.1
G1 F1500.0 X344.3355
G1 Y530.5854
G1 X346.1083
G0 Z0.1
G0 X347.881 Y529.2218
G1 F1000.0 Z-0.1
G1 F1500.0 X348.8355 Y527.7218
G0 Z0.1
G0 X341.7835 Y530.8125
G1 F1000.0 Z-0.1
G1 F1500.0 Y533.6761
G0 Z0.1
G0 X339.5628 Y529.2218
G1 F1000.0 Z-0.1
G1 F1500.0 X338.4719
G0 Z0.1
G0 X385.2978 Y541.0909
G1 F1000.0 Z-0.1
G1 F1500.0 Y543.9545
G1 X386.5251
G1 X386.9342 Y543.8182
G1 X387.0706 Y543.6818
G1 X387.2069 Y543.4091
G1 Y543.1364
G1 X387.0706 Y542.8636
G1 X386.9342 Y542.7273
G1 X386.5251 Y542.5909
G1 X385.2978
G0 Z0.1
G0 X386.2524
G1 F1000.0 Z-0.1
G1 F1500.0 X387.2069 Y541.0909
G0 Z0.1
G0 X388.0251 Y541.5
G1 F1000.0 Z-0.1
G1 F1500.0 X388.2978 Y541.2273
G1 X388.7069 Y541.0909
G1 X389.2524
G1 X389.6615 Y541.2273
G1 X389.9342 Y541.5
G1 Y541.9091
G1 X389.7978 Y542.1818
G1 X389.6615 Y542.3182
G1 X389.3887 Y542.4545
G1 X388.5706 Y542.7273
G1 X388.2978 Y542.8636
G1 X388.1615 Y543.0
G1 X388.0251 Y543.2727
G1 Y543.5455
G1 X388.2978 Y543.8182
G1 X388.7069 Y543.9545
G1 X389.2524
G1 X389.6615 Y543.8182
G1 X389.9342 Y543.5455
G0 Z0.1
G0 X390.8887 Y542.5909
G1 F1000.0 Z-0.1
G1 F1500.0 X391.9797
G0 Z0.1
G0 X393.4796
G1 F1000.0 Z-0.1
G1 F1500.0 X394.7069
G1 X395.116 Y542.7273
G1 X395.2524 Y542.8636
G1 X395.3887 Y543.1364
G1 Y543.4091
G1 X395.2524 Y543.6818
G1 X395.116 Y543.8182
G1 X394.7069 Y543.9545
G1 X393.4796
G1 Y541.0909
G0 Z0.1
G0 X392.6615
G1 F1000.0 Z-0.1
G1 F1500.0 X390.8887
G1 Y543.9545
G1 X392.6615
G0 Z0.1
G0 X394.4342 Y542.5909
G1 F1000.0 Z-0.1
G1 F1500.0 X395.3887 Y541.0909
G0 Z0.1
G0 X392.8438 Y521.4088
G1 F1000.0 Z-0.1
G1 F1500.0 X390.2984 Y518.8633
G0 Z0.1
G0 Y517.5906
G1 F1000.0 Z-0.1
G1 F1500.0 Y521.4088
G0 Z0.1
G0 X389.0256 Y520.4997
G1 F1000.0 Z-0.1
G1 F1500.0 X388.8438 Y520.8633
G1 X388.4802 Y521.227
G1 X388.1165 Y521.4088
G1 X387.3893
G1 X387.0256 Y521.227
G1 X386.662 Y520.8633
G1 X386.4802 Y520.4997
G1 X386.2984 Y519.9542
G1 Y519.0452
G1 X386.4802 Y518.4997
G1 X386.662 Y518.1361
G1 X387.0256 Y517.7724
G1 X387.3893 Y517.5906
G1 X388.1165
G1 X388.4802 Y517.7724
G1 X388.8438 Y518.1361
G1 X389.0256 Y518.4997
G0 Z0.1
G0 X391.2075 Y519.7724
G1 F1000.0 Z-0.1
G1 F1500.0 X392.8438 Y517.5906
( Inner )
G64
S1000
G0 Z0.1
G0 X17.2619 Y535.3747
G1 F1000.0 Z-0.1
G1 F400.0 X20.3522
G1 Y529.6247
G1 X17.2619
G1 Y535.3747
G0 Z0.1
G0 Y522.3747
G1 F1000.0 Z-0.1
G1 F400.0 X20.3522
G1 Y516.6247
G1 X17.2619
G1 Y522.3747
G0 Z0.1
G0 X24.2619 Y510.3747
G1 F1000.0 Z-0.1
G1 F400.0 X27.3522
G1 Y504.6247
G1 X24.2619
G1 Y510.3747
G0 Z0.1
G0 X35.0623 Y529.6247
G1 F1000.0 Z-0.1
G1 F400.0 Y535.3747
G1 X38.1526
G1 Y529.6247
G1 X35.0623
G0 Z0.1
G0 X46.2619 Y522.3747
G1 F1000.0 Z-0.1
G1 F400.0 X49.3522
G1 Y516.6247
G1 X46.2619
G1 Y522.3747
G0 Z0.1
G0 X51.7915 Y510.3747
G1 F1000.0 Z-0.1
G1 F400.0 X54.8818
G1 Y504.6247
G1 X51.7915
G1 Y510.3747
G0 Z0.1
G0 X70.1126 Y515.9335
G1 F1000.0 Z-0.1
G2 F400.0 X69.9879 Y516.7705 I2.7706 J0.8406
G2 X70.1629 Y517.7581 I2.8702 J0.0008
G2 X70.6572 Y518.6143 I2.7042 J-0.9905
G2 X71.4251 Y519.2597 I2.2208 J-1.8628
G2 X72.3678 Y519.602 I1.4305 J-2.4708
G3 X72.368 I-0.0128 J0.0739
G2 X73.3564 I0.4942 J-2.8072
G3 X73.3566 I0.013 J0.0739
G2 X74.2991 Y519.2598 I-0.4868 J-2.8101
G2 X75.0674 Y518.6141 I-1.4863 J-2.5483
G3 X75.0678 Y518.6136 I0.0573 J0.0484
G2 X75.3547 Y518.2094 I-2.0448 J-1.7553
G3 X75.3551 Y518.2087 I0.0649 J0.0376
G2 X75.5607 Y517.7604 I-1.9954 J-1.1865
G2 X75.6757 Y517.2712 I-2.8688 J-0.9321
G3 Y517.271 I0.0742 J0.011
G2 X75.7096 Y517.0184 I-7.6914 J-1.161
G1 X75.7361 Y516.7697
G2 X75.7304 Y516.7153 I-1.7886 J0.1593
G3 Y516.7146 I0.0745 J-0.0089
G1 X75.7039 Y516.4744
G3 X75.7038 Y516.474 I0.0745 J-0.0082
G2 X75.6802 Y516.2989 I-2.9157 J0.3052
G3 X75.6799 Y516.297 I0.074 J-0.0123
G2 X75.5608 Y515.7809 I-2.9794 J0.4155
G2 X75.3549 Y515.3319 I-2.4189 J0.8376
G2 X75.0673 Y514.9267 I-2.6546 J1.5798
G2 X74.2993 Y514.2813 I-2.2332 J1.8774
G2 X73.3566 Y513.939 I-1.4461 J2.5136
G2 X72.3679 I-0.4944 J2.8692
G2 X71.425 Y514.2813 I0.5076 J2.8677
G2 X70.6572 Y514.9266 I1.432 J2.4831
G2 X70.1629 Y515.7828 I2.211 J1.8473
G2 X70.1126 Y515.9335 I2.7203 J0.9913
G0 Z0.1
G0 X94.512 Y516.0491
G1 F1000.0 Z-0.1
G1 F400.0 X94.5513 Y516.4281
G1 X94.5951 Y516.8138
G2 X94.708 Y517.5771 I11.5182 J-1.3139
G1 X94.7501 Y517.7943
G2 X94.8907 Y518.3627 I6.7502 J-1.3684
G3 X94.8912 Y518.3643 I-0.072 J0.0211
G2 X94.936 Y518.5104 I2.1144 J-0.5694
G3 X94.9371 Y518.5139 I-0.0709 J0.0245
G2 X94.961 Y518.5866 I1.0719 J-0.3125
G3 X94.9616 Y518.5883 I-0.0704 J0.0259
G2 X95.4922 Y519.7454 I5.9293 J-2.0185
G1 X95.4923 Y519.7455
G2 X96.2305 Y520.7855 I6.3554 J-3.729
G3 X96.2307 Y520.7858 I-0.0572 J0.0485
G2 X98.2033 Y522.4437 I5.7483 J-4.8368
G2 X100.6249 Y523.3229 I3.6921 J-6.3949
G2 X103.1645 I1.2698 J-7.2719
G2 X105.5863 Y522.4437 I-1.2732 J-7.2816
G2 X107.5586 Y520.786 I-3.693 J-6.3961
G2 X108.8284 Y518.5866 I-5.6763 J-4.7434
G2 X109.2778 Y516.0498 I-6.9233 J-2.5348
G2 X108.8283 Y513.5128 I-7.4363 J0.0091
G2 X107.5586 Y511.3135 I-6.9488 J2.5457
G2 X105.5862 Y509.6558 I-5.689 J4.7665
G2 X103.1645 Y508.7766 I-3.7043 J6.4283
G2 X100.6249 I-1.2698 J7.3059
G2 X98.2033 Y509.6557 I1.272 J7.2784
G2 X96.2307 Y511.3137 I3.8028 J6.527
G3 X96.2305 Y511.3139 I-0.0573 J-0.0483
G2 X95.4923 Y512.354 I5.6327 J4.7801
G1 X95.4922
G2 X94.9618 Y513.5108 I5.4016 J3.177
G1 X94.928 Y513.6141
G1 X94.8961 Y513.7185
G1 Y513.7186
G2 X94.8382 Y513.9264 I3.9512 J1.2117
G3 X94.838 Y513.9271 I-0.0728 J-0.0182
G2 X94.7407 Y514.351 I7.2993 J1.8985
G2 X94.6041 Y515.2126 I10.9117 J2.1719
G1 Y515.2127
G1 X94.5744 Y515.4615
G1 X94.5434 Y515.7461
G3 X94.5432 Y515.7474 I-0.0746 J-0.0081
G2 X94.5359 Y515.8178 I1.6513 J0.2084
G3 X94.5356 Y515.8207 I-0.0747 J-0.0062
G2 X94.528 Y515.894 I1.9758 J0.2415
G3 X94.5277 Y515.8965 I-0.0747 J-0.0063
G2 X94.512 Y516.0491 I4.6182 J0.5539
G0 Z0.1
G0 X121.1498
G1 F1000.0 Z-0.1
G1 F400.0 Y524.8113
G1 X121.1518 Y539.8742
G1 Y554.9371
G1 X121.1538 Y569.925
G1 X131.2616
G1 X147.1308
G1 X163.0
G1 X178.8692
G1 X194.7384
G1 X210.6076
G1 X226.4768
G1 X242.346
G1 X258.2152
G1 X274.0844
G1 X289.8783
G1 Y562.2516
G1 X289.8813 Y547.1887
G1 Y532.1258
G1 X289.8843 Y517.0629
G1 Y502.075
G1 X279.7665
G1 X263.8973
G1 X248.0265
G1 X232.1572
G1 X216.2881
G1 X200.4188
G1 X184.5496
G1 X168.6805
G1 X152.8112
G1 X136.942
G1 X121.1478
G1 X121.1498 Y509.7483
G1 Y516.0491
G0 Z0.1
G0 X105.7591 Y544.8595
G1 F1000.0 Z-0.1
G2 F400.0 X102.2661 Y543.9816 I-3.5066 J6.5641
G2 X98.5394 Y544.9898 I0.0268 J7.4913
G3 X98.5392 Y544.9899 I-0.0376 J-0.0649
G2 X97.2036 Y545.9687 I3.7241 J6.4821
G3 X97.2034 Y545.9688 I-0.0508 J-0.0552
G2 X96.1327 Y547.2289 I4.4423 J4.8596
G2 X95.8926 Y547.6353 I4.5504 J2.9627
G1 X95.8056 Y547.8044
G1 X95.7241 Y547.9763
G2 X95.6734 Y548.0908 I3.9046 J1.7978
G2 X95.4903 Y548.5636 I7.9991 J3.3691
G3 X95.4895 Y548.5657 I-0.0707 J-0.025
G2 X95.4693 Y548.6246 I0.7266 J0.2815
G3 X95.4676 Y548.6298 I-0.0719 J-0.0214
G2 X95.4466 Y548.6929 I0.7277 J0.2768
G3 X95.4459 Y548.6952 I-0.0721 J-0.0206
G2 X95.1534 Y549.8125 I9.9819 J3.2099
G3 X95.1526 Y549.8161 I-0.0735 J-0.015
G2 X95.1388 Y549.8829 I0.7133 J0.1825
G3 X95.1375 Y549.8893 I-0.0741 J-0.0118
G2 X95.1235 Y549.9585 I0.7393 J0.1854
G3 X95.1222 Y549.9649 I-0.0741 J-0.0114
G2 X95.1081 Y550.0367 I0.7685 J0.1888
G3 X95.1068 Y550.0431 I-0.0742 J-0.0111
G2 X95.0925 Y550.1175 I0.8014 J0.1927
G3 X95.0913 Y550.1239 I-0.0742 J-0.0108
G2 X95.0768 Y550.201 I0.8387 J0.1974
G3 X95.0756 Y550.2073 I-0.0743 J-0.0105
G2 X95.061 Y550.2873 I0.8813 J0.203
G3 X95.0598 Y550.2936 I-0.0743 J-0.0102
G2 X95.045 Y550.3765 I0.9307 J0.2096
G3 X95.0439 Y550.3826 I-0.0743 J-0.01
G2 X95.0288 Y550.4686 I0.9885 J0.2176
G3 X95.0284 Y550.4712 I-0.0744 J-0.0098
G1 X94.9581 Y550.8934
G1 X94.8839 Y551.3647
G1 X94.9356 Y551.695
G3 X94.9357 Y551.6953 I-0.0741 J0.0116
G2 X94.9907 Y552.0358 I21.4023 J-3.2858
G3 X94.9908 Y552.0362 I-0.0739 J0.0126
G2 X95.0293 Y552.2631 I26.6464 J-4.4011
G1 X95.0521 Y552.3925
G1 X95.1169 Y552.7373
G2 X95.2144 Y553.1935 I16.9757 J-3.389
G2 X95.3713 Y553.7939 I10.8431 J-2.5127
G1 X95.4196 Y553.9524
G1 X95.4456 Y554.0332
G1 X95.5044 Y554.2062
G2 X95.8923 Y555.0935 I6.1991 J-2.1813
G2 X97.032 Y556.5973 I5.5493 J-3.0219
G3 X97.0321 Y556.5974 I-0.0523 J0.0537
G2 X98.5392 Y557.7395 I5.2618 J-5.3779
G3 X98.5393 Y557.7396 I-0.0374 J0.065
G2 X100.3368 Y558.488 I3.7612 J-6.5008
G3 X100.337 I-0.0196 J0.0724
G2 X102.2659 Y558.7477 I1.9287 J-7.0318
G2 X105.9925 Y557.7397 I-0.0183 J-7.4599
G2 X108.6411 Y555.0911 I-3.7358 J-6.3843
G2 X109.6491 Y551.3647 I-6.4314 J-3.7393
G2 X108.6411 Y547.6382 I-7.4403 J0.0131
G2 X105.9925 Y544.9896 I-6.3896 J3.741
G2 X105.7591 Y544.8595 I-3.74 J6.434
G0 Z0.1
G0 X304.5122 Y551.0471
G1 F1000.0 Z-0.1
G1 F400.0 X304.5643 Y551.3801
G3 X304.5644 Y551.3803 I-0.0741 J0.0116
G2 X304.6194 Y551.7209 I21.4906 J-3.3001
G3 X304.6195 Y551.7212 I-0.0739 J0.0126
G2 X304.658 Y551.9481 I27.0074 J-4.4624
G1 X304.6808 Y552.0775
G1 X304.7456 Y552.4224
G2 X304.8431 Y552.8785 I17.064 J-3.4078
G2 X305.0 Y553.4789 I10.8668 J-2.5189
G1 X305.0483 Y553.6374
G1 X305.0743 Y553.7183
G1 X305.1331 Y553.8912
G2 X305.521 Y554.7785 I6.2038 J-2.1834
G2 X306.6607 Y556.2823 I5.5485 J-3.0213
G3 X306.6608 Y556.2824 I-0.0523 J0.0537
G2 X308.1679 Y557.4246 I5.2562 J-5.3704
G3 X308.168 I-0.0374 J0.065
G2 X309.9655 Y558.1731 I3.7629 J-6.5045
G3 X309.9657 I-0.0196 J0.0724
G2 X311.8946 Y558.4328 I1.9306 J-7.0468
G2 X315.6212 Y557.4247 I-0.0182 J-7.4595
G2 X318.2697 Y554.7762 I-3.7206 J-6.3692
G2 X319.2778 Y551.0496 I-6.48 J-3.7525
G2 X318.8284 Y548.5129 I-7.3509 J-0.0058
G2 X317.5585 Y546.3134 I-6.9705 J2.5582
G2 X315.5863 Y544.6558 I-5.6524 J4.7232
G2 X313.1645 Y543.7766 I-3.7063 J6.4335
G2 X310.6249 I-1.2698 J7.3029
G2 X308.2033 Y544.6557 I1.2724 J7.2794
G2 X306.2307 Y546.3137 I3.8025 J6.5267
G3 X306.2305 Y546.3139 I-0.0573 J-0.0483
G2 X305.4923 Y547.354 I5.633 J4.7804
G1 X305.4922
G2 X304.9618 Y548.5108 I5.4017 J3.177
G1 X304.9281 Y548.6141
G1 X304.8961 Y548.7185
G1 Y548.7186
G2 X304.8382 Y548.9264 I3.9512 J1.2117
G3 X304.838 Y548.9271 I-0.0728 J-0.0182
G2 X304.7407 Y549.351 I7.2993 J1.8985
G2 X304.6041 Y550.2126 I10.9117 J2.1719
G1 X304.5744 Y550.4615
G1 X304.5434 Y550.7461
G3 X304.5432 Y550.7474 I-0.0746 J-0.0081
G2 X304.5359 Y550.8178 I1.6513 J0.2084
G3 X304.5356 Y550.8207 I-0.0747 J-0.0062
G2 X304.528 Y550.8939 I1.9758 J0.2415
G3 X304.5277 Y550.8965 I-0.0747 J-0.0063
G2 X304.5122 Y551.0471 I4.6182 J0.5539
G0 Z0.1
G0 X310.4131 Y523.2226
G1 F1000.0 Z-0.1
G2 F400.0 X310.6747 Y523.2732 I1.532 J-7.2235
G2 X313.2142 I1.2698 J-7.2719
G2 X315.636 Y522.3939 I-1.2732 J-7.2817
G2 X317.6083 Y520.7362 I-3.6929 J-6.3961
G2 X318.8781 Y518.5369 I-5.6763 J-4.7434
G2 X319.3275 Y516.0001 I-6.9233 J-2.5348
G2 X318.8781 Y513.463 I-7.4362 J0.0091
G2 X317.6083 Y511.2638 I-6.9488 J2.5457
G2 X315.636 Y509.6061 I-5.689 J4.7666
G2 X313.2142 Y508.7268 I-3.7043 J6.4283
G2 X310.6746 I-1.2698 J7.3059
G2 X308.253 Y509.606 I1.272 J7.2784
G2 X306.2804 Y511.264 I3.8028 J6.527
G3 X306.2802 Y511.2642 I-0.0573 J-0.0483
G2 X305.542 Y512.3042 I5.6327 J4.7801
G1 Y512.3043
G2 X305.0115 Y513.461 I5.4016 J3.177
G1 X304.9778 Y513.5644
G1 X304.9458 Y513.6688
G2 X304.8879 Y513.8767 I3.9513 J1.2117
G3 X304.8878 Y513.8774 I-0.0728 J-0.0182
G2 X304.7904 Y514.3013 I7.2995 J1.8986
G2 X304.6538 Y515.1629 I10.9118 J2.172
G1 X304.6241 Y515.4117
G1 X304.5931 Y515.6964
G3 X304.593 Y515.6977 I-0.0746 J-0.0081
G2 X304.5856 Y515.7681 I1.6513 J0.2084
G3 X304.5853 Y515.771 I-0.0747 J-0.0062
G2 X304.5777 Y515.8442 I1.9758 J0.2415
G3 X304.5774 Y515.8468 I-0.0747 J-0.0063
G2 X304.5617 Y515.9993 I4.6182 J0.5539
G1 X304.601 Y516.3784
G1 X304.6448 Y516.764
G2 X304.7577 Y517.5273 I11.5181 J-1.3139
G1 X304.7998 Y517.7446
G2 X304.9404 Y518.313 I6.7501 J-1.3683
G3 X304.9409 Y518.3146 I-0.072 J0.0211
G2 X304.9857 Y518.4607 I2.1143 J-0.5694
G3 X304.9869 Y518.4642 I-0.0709 J0.0245
G2 X305.0108 Y518.5368 I1.0718 J-0.3125
G3 X305.0114 Y518.5385 I-0.0704 J0.0259
G2 X305.542 Y519.6957 I5.9293 J-2.0185
G1 Y519.6958
G2 X306.2802 Y520.7358 I6.3554 J-3.7291
G3 X306.2804 Y520.7361 I-0.0572 J0.0485
G2 X308.253 Y522.394 I5.7483 J-4.8368
G2 X310.4131 Y523.2226 I3.6921 J-6.3949
G0 Z0.1
G0 X339.9185 Y517.3331
G1 F1000.0 Z-0.1
G2 F400.0 X340.0379 Y517.7581 I2.8147 J-0.5618
G2 X340.5323 Y518.6143 I2.7042 J-0.9905
G2 X341.3002 Y519.2597 I2.2208 J-1.8628
G2 X342.2428 Y519.602 I1.4305 J-2.4708
G3 X342.243 I-0.0128 J0.0739
G2 X343.2315 I0.4942 J-2.8072
G3 X343.2317 I0.013 J0.0739
G2 X344.1742 Y519.2598 I-0.4868 J-2.8101
G2 X344.9425 Y518.6141 I-1.4863 J-2.5483
G3 X344.9429 Y518.6136 I0.0573 J0.0484
G2 X345.2297 Y518.2094 I-2.0448 J-1.7553
G3 X345.2302 Y518.2087 I0.0649 J0.0376
G2 X345.4358 Y517.7604 I-1.9954 J-1.1865
G2 X345.5507 Y517.2712 I-2.8688 J-0.9321
G3 Y517.271 I0.0742 J0.011
G2 X345.5847 Y517.0184 I-7.6914 J-1.161
G1 X345.6112 Y516.7697
G2 X345.6055 Y516.7153 I-1.7886 J0.1593
G3 X345.6054 Y516.7146 I0.0745 J-0.0089
G1 X345.579 Y516.4744
G3 X345.5789 Y516.474 I0.0745 J-0.0082
G2 X345.5552 Y516.2989 I-2.9157 J0.3052
G3 X345.5549 Y516.297 I0.074 J-0.0123
G2 X345.4359 Y515.7809 I-2.9794 J0.4155
G2 X345.23 Y515.3319 I-2.4189 J0.8376
G2 X344.9423 Y514.9267 I-2.6546 J1.5798
G2 X344.1744 Y514.2813 I-2.2332 J1.8774
G2 X343.2316 Y513.939 I-1.4461 J2.5136
G2 X342.2429 I-0.4944 J2.8692
G2 X341.3 Y514.2813 I0.5076 J2.8677
G2 X340.5323 Y514.9266 I1.432 J2.4831
G2 X340.038 Y515.7828 I2.211 J1.8473
G2 X339.863 Y516.7705 I2.7203 J0.9913
G2 X339.9185 Y517.3331 I2.8702 J0.0008
G0 Z0.1
G0 X360.5328 Y510.3747
G1 F1000.0 Z-0.1
G1 F400.0 X363.6231
G1 Y504.6247
G1 X360.5328
G1 Y510.3747
G0 Z0.1
G0 X366.0623 Y516.6247
G1 F1000.0 Z-0.1
G1 F400.0 Y522.3747
G1 X369.1526
G1 Y516.6247
G1 X366.0623
G0 Z0.1
G0 X377.4615 Y529.6247
G1 F1000.0 Z-0.1
G1 F400.0 Y535.3747
G1 X380.5518
G1 Y529.6247
G1 X377.4615
G0 Z0.1
G0 X395.2619
G1 F1000.0 Z-0.1
G1 F400.0 Y535.3747
G1 X398.3522
G1 Y529.6247
G1 X395.2619
G0 Z0.1
G0 Y522.3747
G1 F1000.0 Z-0.1
G1 F400.0 X398.1526
G1 Y516.6247
G1 X395.0623
G1 Y522.3747
G1 X395.2619
G0 Z0.1
G0 X391.1526 Y510.3747
G1 F1000.0 Z-0.1
G1 F400.0 Y504.6247
G1 X388.0623
G1 Y510.3747
G1 X391.1526
( Top outer )
S1000
G0 Z0.1
G0 X4.25 Y553.6101
G1 F1000.0 Z-0.1
G1 F400.0 X4.219 Y538.8677
G1 X4.2176 Y538.3517
G3 Y538.3515 I0.075 J-0.0002
G1 Y534.3003
G1 Y527.1885
G3 X4.2181 Y527.1794 I0.075 J0.0
G1 X4.9154 Y521.4682
G3 X4.9184 Y521.4545 I0.0744 J0.0091
G1 X7.5514 Y513.1957
G3 X7.5566 Y513.1835 I0.0715 J0.0228
G1 X11.052 Y506.5641
G3 X11.0632 Y506.5483 I0.0663 J0.035
G1 X15.253 Y502.0076
G3 X15.2655 Y501.9967 I0.0551 J0.0509
G1 X23.0466 Y496.6246
G3 X23.0673 Y496.6146 I0.0426 J0.0617
G1 X32.4671 Y493.7383
G3 X32.489 Y493.735 I0.0219 J0.0717
G1 X38.8563
G1 X53.5988 Y493.733
G1 X61.5037
G1 X76.2462 Y493.731
G1 X337.4535
G1 X352.196 Y493.733
G1 X366.9384 Y493.735
G1 X366.9385
G1 X366.9384
G1 X381.2121
G3 X381.2341 Y493.7383 I0.0 J0.075
G1 X390.6324 Y496.6146
G3 X390.6531 Y496.6246 I-0.0219 J0.0717
G1 X398.4341 Y501.9967
G3 X398.4466 Y502.0076 I-0.0426 J0.0617
G1 X402.6365 Y506.5483
G3 X402.6477 Y506.5641 I-0.0551 J0.0509
G1 X406.1446 Y513.1835
G3 X406.1497 Y513.1957 I-0.0663 J0.035
G1 X408.7813 Y521.4545
G3 X408.7843 Y521.4682 I-0.0715 J0.0228
G1 X409.4816 Y527.1794
G3 X409.4821 Y527.1885 I-0.0744 J0.0091
G1 Y534.3003
G1 Y538.3511
G1 X409.6148 Y553.0933
G1 Y553.0934
G1 X409.6188 Y553.5954
G3 X409.5689 Y553.6749 I-0.0745 J0.0087
G1 X394.2023 Y559.0225
G1 X378.8364 Y564.3723
G1 X372.196 Y566.6843
G3 X370.9507 Y567.1174 I-188.5498 J-540.138
G3 X369.7832 Y567.5232 I-154.5162 J-442.6741
G3 X368.6886 Y567.9034 I-133.9972 J-384.0115
G3 X367.6623 Y568.2596 I-119.9543 J-343.9354
G3 X366.7001 Y568.5934 I-109.6027 J-314.4466
G3 X364.8957 Y569.2185 I-140.968 J-403.9819
G3 X363.3166 Y569.7647 I-125.227 J-359.4796
G3 X361.9346 Y570.242 I-114.0371 J-327.9584
G3 X360.7252 Y570.659 I-105.583 J-304.213
G3 X359.6669 Y571.0235 I-98.904 J-285.4915
G3 X357.8143 Y571.6602 I-132.5362 J-382.6138
G3 X356.4245 Y572.1367 I-120.0408 J-347.8252
G3 X354.3393 Y572.8498 I-159.0544 J-461.7367
G3 X352.2532 Y573.5606 I-194.1602 J-566.4228
G1 X348.3194 Y574.8937
G3 X348.3193 I-0.0241 J-0.071
G1 X344.8751 Y576.0538
G3 X344.875 I-0.0239 J-0.0711
G1 X341.8599 Y577.0647
G1 X341.8598
G1 X339.2206 Y577.9463
G1 X339.2205
G1 X334.6001 Y579.4838
G1 X334.6
G1 X331.1336 Y580.6333
G1 X331.1335
G1 X325.9324 Y582.3535
G1 X320.7304 Y584.0712
G3 X320.707 Y584.075 I-0.0235 J-0.0712
G1 X311.0467 Y584.0845
G1 X311.0466
G1 X302.5939 Y584.093
G1 X302.5938
G1 X295.1977 Y584.1008
G1 X295.1976
G1 X288.726 Y584.1081
G2 X283.0633 Y584.1149 I7.9084 J8991.1851
G1 X273.1536 Y584.1278
G1 X273.1535
G1 X265.7213 Y584.1386
G1 X265.7212
G1 X254.5728 Y584.1569
G1 X243.4244 Y584.1782
G1 X223.7769 Y584.2232
G1 X194.3058 Y584.2993
G1 X186.938 Y584.3182
G1 X175.8862 Y584.3452
G1 X164.8345 Y584.3699
G1 X147.0913 Y584.4032
G1 X147.0912
G1 X120.4763 Y584.4417
G1 X93.8614 Y584.4731
G3 X93.8369 Y584.469 I-0.0001 J-0.075
G1 X4.3006 Y553.6809
G3 X4.25 Y553.6101 I0.0244 J-0.0709
G0 Z0.1
M5
M30
