( Made using CamBam - http://www.cambam.co.uk )
( CutJob01 7/8/2019 9:26:38 PM )
( T0 : 0.0 )
G21 G90 G64 G40
G0 Z0.1
( T0 : 0.0 )
T0 M6
( Text )
G61 G17
M3 S1000
G0 X64.1575 Y441.3636
G1 F1000.0 Z-0.1
G1 F1500.0 X64.3393 Y441.5455
G1 X64.4302 Y441.8182
G1 Y442.1818
G1 X64.3393 Y442.4546
G1 X64.1575 Y442.6364
G1 X63.9756
G1 X63.7938 Y442.5455
G1 X63.7029 Y442.4545
G1 X63.6119 Y442.2727
G1 X63.4301 Y441.7273
G1 X63.3391 Y441.5455
G1 X63.2482 Y441.4545
G1 X63.0663 Y441.3636
G1 X62.7936
G1 X62.6118 Y441.5455
G1 X62.5208 Y441.8182
G1 Y442.1818
G1 X62.6118 Y442.4546
G1 X62.7936 Y442.6364
G0 Z0.1
G0 X61.1414
G1 F1000.0 Z-0.1
G1 F1500.0 Y441.8182
G1 X61.2324 Y441.5455
G1 X61.3233 Y441.4545
G1 X61.5051 Y441.3636
G1 X61.7779
G1 X61.9597 Y441.4545
G1 X62.0507 Y441.5455
G1 X62.1416 Y441.8182
G1 Y442.6364
G1 X60.2325
G0 Z0.1
G0 X60.0117 Y442.6318
G1 F1000.0 Z-0.1
G1 F1500.0 X58.1026
G0 Z0.1
G0 X58.739
G1 F1000.0 Z-0.1
G1 F1500.0 X60.0117 Y441.3591
G0 Z0.1
G0 X59.1935 Y442.1773
G1 F1000.0 Z-0.1
G1 F1500.0 X58.1026 Y441.3591
G0 Z0.1
G0 X56.9653 Y442.0
G1 F1000.0 Z-0.1
G1 F1500.0 X55.9653 Y441.3636
G0 Z0.1
G0 X55.9655 Y442.6364
G1 F1000.0 Z-0.1
G1 F1500.0 X57.8746
G1 Y441.8182
G1 X57.7836 Y441.5455
G1 X57.6927 Y441.4545
G1 X57.5109 Y441.3636
G1 X57.329
G1 X57.1472 Y441.4545
G1 X57.0563 Y441.5455
G1 X56.9653 Y441.8182
G1 Y442.6364
G0 Z0.1
G0 X77.4584 Y431.0
G1 F1000.0 Z-0.1
G1 F1500.0 X78.4584
G1 Y430.0
G1 X77.4584
G1 Y431.0
G0 Z0.1
G0 Y430.0
G1 F1000.0 Z-0.1
G1 F1500.0 X76.4584 Y429.0
G1 X79.4583
G1 X78.4584 Y430.0
G0 Z0.1
G0 X84.516 Y435.9158
G1 F1000.0 Z-0.1
G1 F1500.0 X86.3656
G1 X86.1014 Y436.18
G1 X86.0133 Y436.3562
G0 Z0.1
G0 X84.516 Y437.237
G1 F1000.0 Z-0.1
G1 F1500.0 X86.3656
G1 X84.516 Y437.9416
G1 X86.3656 Y438.6462
G1 X84.516
G0 Z0.1
G0 X84.8859 Y439.3861
G1 F1000.0 Z-0.1
G1 F1500.0 X84.9564 Y439.3509
G1 X85.2206 Y439.2628
G1 X85.661
G1 X85.9252 Y439.3509
G1 X86.1014 Y439.4389
G1 X86.2775 Y439.6151
G1 X86.3656 Y439.7912
G1 Y440.1436
G1 X86.2775 Y440.3197
G1 X86.1014 Y440.4959
G1 X85.9252 Y440.584
G1 X85.661 Y440.672
G1 X85.2206
G1 X84.9564 Y440.584
G1 X84.7802 Y440.4959
G1 X84.6041 Y440.3197
G1 X84.516 Y440.1436
G1 Y439.7912
G1 X84.6041 Y439.6151
G1 X84.7802 Y439.4389
G1 X84.8859 Y439.3861
G0 Z0.1
G0 X84.9564 Y441.2005
G1 F1000.0 Z-0.1
G1 F1500.0 X84.7802 Y441.2886
G1 X84.6041 Y441.4647
G1 X84.516 Y441.6409
G1 Y441.9932
G1 X84.6041 Y442.1694
G1 X84.7802 Y442.3455
G1 X84.9564 Y442.4336
G1 X85.2206 Y442.5217
G1 X85.661
G1 X85.9252 Y442.4336
G1 X86.1014 Y442.3455
G1 X86.2775 Y442.1694
G1 X86.3656 Y441.9932
G1 Y441.6409
G1 X86.2775 Y441.4647
G1 X86.1014 Y441.2886
G1 X85.9252 Y441.2005
G0 Z0.1
G0 X95.2125 Y431.031
G1 F1000.0 Z-0.1
G2 F1500.0 X95.3164 Y431.1071 I0.4012 J-0.4393
G2 X95.4587 Y431.166 I0.2889 J-0.4963
G2 X95.6126 Y431.1863 I0.1508 J-0.5494
G2 X95.912 Y431.1053 I-0.0019 J-0.6008
G2 X96.1248 Y430.8925 I-0.2974 J-0.5102
G2 X96.2058 Y430.5931 I-0.525 J-0.3027
G2 X96.1248 Y430.2938 I-0.5978 J0.0011
G2 X95.912 Y430.081 I-0.4862 J0.2734
G2 X95.7657 Y430.028 I-0.2679 J0.5112
G2 X95.6126 Y430.0 I-0.3763 J1.6254
G2 X95.4596 Y430.028 I0.4035 J2.6371
G2 X95.3133 Y430.081 I0.1416 J0.6196
G2 X95.1005 Y430.2938 I0.2738 J0.4866
G2 X95.0195 Y430.5931 I0.5361 J0.3056
G2 X95.0398 Y430.7471 I0.5637 J0.0039
G2 X95.0987 Y430.8893 I0.5759 J-0.1552
G2 X95.1932 Y431.0126 I0.5165 J-0.2982
G2 X95.2125 Y431.031 I0.4205 J-0.4208
G0 Z0.1
G0 X96.2137 Y430.5962
G1 F1000.0 Z-0.1
G1 F1500.0 X96.3807 Y430.4878
G2 X96.6142 Y430.3005 I-0.916 J-1.3816
G2 X96.7819 Y430.0525 I-0.5147 J-0.5287
G2 X96.7796 Y429.529 I-0.6776 J-0.2587
G2 X96.6731 Y429.364 I-0.5516 J0.2391
G2 X96.4464 Y429.1792 I-0.7619 J0.7032
G2 X96.3207 Y429.1044 I-0.743 J1.1059
G1 X96.1923 Y429.0343
G0 Z0.1
G0 X96.1874
G1 F1000.0 Z-0.1
G2 F1500.0 X96.1065 Y428.7436 I-0.595 J0.009
G2 X95.8937 Y428.5308 I-0.4816 J0.2688
G2 X95.7474 Y428.4778 I-0.2684 J0.5127
G2 X95.5943 Y428.4498 I-0.3715 J1.5977
G2 X95.4404 Y428.4701 I0.0305 J0.8241
G2 X95.2981 Y428.5291 I0.1603 J0.5883
G2 X95.1749 Y428.6235 I0.2986 J0.5171
G2 X95.0804 Y428.7468 I0.4623 J0.4523
G2 X95.0215 Y428.889 I0.5006 J0.2907
G2 X95.0012 Y429.043 I0.5799 J0.1549
G2 X95.0215 Y429.1969 I0.5914 J0.0002
G2 X95.0804 Y429.3392 I0.5739 J-0.1544
G2 X95.1749 Y429.4624 I0.5157 J-0.2976
G2 X95.2981 Y429.5569 I0.4191 J-0.419
G2 X95.4404 Y429.6158 I0.2965 J-0.5146
G2 X95.5943 Y429.6361 I0.1543 J-0.5754
G2 X95.7483 Y429.6158 I0.0001 J-0.5926
G2 X95.8905 Y429.5569 I-0.1541 J-0.5732
G2 X96.0138 Y429.4624 I-0.2982 J-0.5166
G2 X96.1082 Y429.3392 I-0.4176 J-0.4181
G2 X96.1672 Y429.1969 I-0.5149 J-0.2966
G2 X96.1875 Y429.043 I-0.5974 J-0.1572
G2 X96.1874 Y429.0343 I-0.5951 J0.0003
G0 Z0.1
G0 X85.9719 Y422.5142
G1 F1000.0 Z-0.1
G1 F1500.0 X86.1538 Y422.6051
G1 X86.3356 Y422.787
G1 X86.4265 Y422.9688
G1 Y423.3324
G1 X86.3356 Y423.5142
G1 X86.1538 Y423.696
G1 X85.9719 Y423.787
G1 X85.6992 Y423.8779
G1 X85.2447
G1 X84.9719 Y423.787
G1 X84.7901 Y423.696
G1 X84.6083 Y423.5142
G1 X84.5174 Y423.3324
G1 Y422.9688
G1 X84.6083 Y422.787
G1 X84.7901 Y422.6051
G1 X84.9719 Y422.5142
G0 Z0.1
G0 X85.1628 Y421.9415
G1 F1000.0 Z-0.1
G1 F1500.0 X84.9719 Y421.8779
G1 X84.7901 Y421.787
G1 X84.6083 Y421.6051
G1 X84.5174 Y421.4233
G1 Y421.0597
G1 X84.6083 Y420.8779
G1 X84.7901 Y420.696
G1 X84.9719 Y420.6051
G1 X85.2447 Y420.5142
G1 X85.6992
G1 X85.9719 Y420.6051
G1 X86.1538 Y420.696
G1 X86.3356 Y420.8779
G1 X86.4265 Y421.0597
G1 Y421.4233
G1 X86.3356 Y421.6051
G1 X86.1538 Y421.787
G1 X85.9719 Y421.8779
G1 X85.6992 Y421.9688
G1 X85.2447
G1 X85.1628 Y421.9415
G0 Z0.1
G0 X84.5174 Y419.8779
G1 F1000.0 Z-0.1
G1 F1500.0 X86.4265
G1 X84.5174 Y419.1506
G1 X86.4265 Y418.4233
G1 X84.5174
G0 Z0.1
G0 X85.9719 Y417.696
G1 F1000.0 Z-0.1
G1 F1500.0 X86.0628
G1 X86.2447 Y417.6051
G1 X86.3356 Y417.5142
G1 X86.4265 Y417.3324
G1 Y416.9688
G1 X86.3356 Y416.787
G1 X86.2447 Y416.696
G1 X86.0628 Y416.6051
G1 X85.881
G1 X85.6992 Y416.696
G1 X85.4265 Y416.8779
G1 X84.5174 Y417.787
G1 Y416.5142
G0 Z0.1
G0 X84.516 Y404.1708
G1 F1000.0 Z-0.1
G1 F1500.0 X86.3656 Y403.4662
G1 X84.516 Y402.7615
G0 Z0.1
G0 Y402.3211
G1 F1000.0 Z-0.1
G1 F1500.0 X86.3656
G1 Y401.7046
G1 X86.2775 Y401.4404
G1 X86.1014 Y401.2642
G1 X85.9252 Y401.1761
G1 X85.661 Y401.0881
G1 X85.2206
G1 X84.9564 Y401.1761
G1 X84.7802 Y401.2642
G1 X84.6041 Y401.4404
G1 X84.516 Y401.7046
G1 Y402.3211
G0 Z0.1
G0 X85.1325 Y403.0258
G1 F1000.0 Z-0.1
G1 F1500.0 Y403.9066
G0 Z0.1
G0 X87.4977 Y403.3352
G1 F1000.0 Z-0.1
G1 F1500.0 X89.389
G0 Z0.1
G0 X88.4884
G1 F1000.0 Z-0.1
G1 F1500.0 Y402.0743
G0 Z0.1
G0 Y401.3538
G1 F1000.0 Z-0.1
G1 F1500.0 Y400.6333
G0 Z0.1
G0 X89.389 Y400.183
G1 F1000.0 Z-0.1
G1 F1500.0 Y401.3538
G1 X87.4977
G0 Z0.1
G0 Y402.0743
G1 F1000.0 Z-0.1
G1 F1500.0 X89.389
G0 Z0.1
G0 X89.0288 Y399.5526
G1 F1000.0 Z-0.1
G1 F1500.0 X89.1188 Y399.3725
G1 X89.389 Y399.1023
G1 X87.4977
G0 Z0.1
G0 X86.3656 Y399.3265
G1 F1000.0 Z-0.1
G1 F1500.0 Y400.4715
G1 X84.516
G0 Z0.1
G0 X85.4848
G1 F1000.0 Z-0.1
G1 F1500.0 Y399.7669
G0 Z0.1
G0 X86.0133 Y398.7099
G1 F1000.0 Z-0.1
G1 F1500.0 X86.1014 Y398.5338
G1 X86.3656 Y398.2696
G1 X84.516
G0 Z0.1
G0 X84.5174 Y385.5157
G1 F1000.0 Z-0.1
G1 F1500.0 X86.4265 Y384.7884
G1 X84.5174 Y384.0612
G0 Z0.1
G0 Y383.6066
G1 F1000.0 Z-0.1
G1 F1500.0 X86.4265
G1 Y382.9703
G1 X86.3356 Y382.6975
G1 X86.1538 Y382.5157
G1 X85.9719 Y382.4248
G1 X85.6992 Y382.3339
G1 X85.2447
G1 X84.9719 Y382.4248
G1 X84.7901 Y382.5157
G1 X84.6083 Y382.6975
G1 X84.5174 Y382.9703
G1 Y383.6066
G0 Z0.1
G0 X85.1538 Y384.3339
G1 F1000.0 Z-0.1
G1 F1500.0 Y385.243
G0 Z0.1
G0 X85.5174 Y381.6975
G1 F1000.0 Z-0.1
G1 F1500.0 Y380.9703
G0 Z0.1
G0 X85.9719 Y380.0612
G1 F1000.0 Z-0.1
G1 F1500.0 X86.0628
G1 X86.2447 Y379.9703
G1 X86.3356 Y379.8793
G1 X86.4265 Y379.6975
G1 Y379.3339
G1 X86.3356 Y379.1521
G1 X86.2447 Y379.0612
G1 X86.0628 Y378.9703
G1 X85.881
G1 X85.6992 Y379.0612
G1 X85.4265 Y379.243
G1 X84.5174 Y380.1521
G1 Y378.8793
G0 Z0.1
G0 X86.4265 Y380.5157
G1 F1000.0 Z-0.1
G1 F1500.0 Y381.6975
G1 X84.5174
G0 Z0.1
G0 Y366.3455
G1 F1000.0 Z-0.1
G1 F1500.0 X86.3656
G1 Y365.729
G1 X86.2775 Y365.4647
G1 X86.1014 Y365.2886
G1 X85.9252 Y365.2005
G1 X85.661 Y365.1124
G1 X85.2206
G1 X84.9564 Y365.2005
G1 X84.7802 Y365.2886
G1 X84.6041 Y365.4647
G1 X84.516 Y365.729
G1 Y366.3455
G1 X84.5174
G0 Z0.1
G0 X84.516 Y364.4959
G1 F1000.0 Z-0.1
G1 F1500.0 X86.3656
G1 X84.516 Y363.7912
G1 X86.3656 Y363.0866
G1 X84.516
G0 Z0.1
G0 X85.4848 Y362.382
G1 F1000.0 Z-0.1
G1 F1500.0 Y361.6774
G0 Z0.1
G0 X86.3656 Y361.237
G1 F1000.0 Z-0.1
G1 F1500.0 Y362.382
G1 X84.516
G1 Y361.237
G0 Z0.1
G0 Y360.092
G1 F1000.0 Z-0.1
G1 F1500.0 X86.3656
G1 X86.1014 Y360.3562
G1 X86.0133 Y360.5323
G0 Z0.1
G0 X87.5437 Y360.3278
G1 F1000.0 Z-0.1
G1 F1500.0 X89.4116
G1 X89.1448 Y360.5947
G1 X89.0558 Y360.7726
G0 Z0.1
G0 X89.4116 Y361.3952
G1 F1000.0 Z-0.1
G1 F1500.0 X87.5437 Y362.1068
G1 X89.4116 Y362.8184
G0 Z0.1
G0 X88.1663 Y363.2632
G1 F1000.0 Z-0.1
G1 F1500.0 Y364.1527
G0 Z0.1
G0 X87.5437 Y364.4196
G1 F1000.0 Z-0.1
G1 F1500.0 X89.4116 Y363.708
G1 X87.5437 Y362.9963
G0 Z0.1
G0 X89.4116 Y364.8643
G1 F1000.0 Z-0.1
G1 F1500.0 X87.5437
G1 X89.4116 Y366.1096
G1 X87.5437
G0 Z0.1
G0 X69.9094 Y371.3286
G1 F1000.0 Z-0.1
G1 F1500.0 Y372.5104
G1 X68.0003
G1 Y371.3286
G0 Z0.1
G0 X69.0003 Y371.7831
G1 F1000.0 Z-0.1
G1 F1500.0 Y372.5104
G0 Z0.1
G0 X69.9094 Y372.965
G1 F1000.0 Z-0.1
G1 F1500.0 Y374.2377
G0 Z0.1
G0 Y374.6922
G1 F1000.0 Z-0.1
G1 F1500.0 X68.5458
G1 X68.2731 Y374.7831
G1 X68.0912 Y374.965
G1 X68.0003 Y375.2377
G1 Y375.4195
G1 X68.0912 Y375.6922
G1 X68.2731 Y375.874
G1 X68.5458 Y375.965
G1 X69.9094
G0 Z0.1
G0 X68.0003 Y376.6922
G1 F1000.0 Z-0.1
G1 F1500.0 X69.9094
G1 X68.0003 Y377.4195
G1 X69.9094 Y378.1468
G1 X68.0003
G0 Z0.1
G0 X68.5 Y379.0
G1 F1000.0 Z-0.1
G1 F1500.0 Y383.0
G1 X63.5
G0 Z0.1
G0 X68.0003 Y390.3741
G1 F1000.0 Z-0.1
G1 F1500.0 Y391.6468
G1 X68.9094 Y390.7377
G1 X69.1822 Y390.5559
G1 X69.364 Y390.465
G1 X69.5458
G1 X69.7276 Y390.5559
G1 X69.8185 Y390.6468
G1 X69.9094 Y390.8286
G1 Y391.1922
G1 X69.8185 Y391.3741
G1 X69.7276 Y391.465
G1 X69.5458 Y391.5559
G1 X69.4549
G0 Z0.1
G0 X69.6367 Y392.1922
G1 F1000.0 Z-0.1
G1 F1500.0 X69.8185 Y392.3741
G1 X69.9094 Y392.6468
G1 Y393.0104
G1 X69.8185 Y393.2832
G1 X69.6367 Y393.465
G1 X69.4549
G1 X69.2731 Y393.3741
G1 X69.1822 Y393.2832
G1 X69.0912 Y393.1013
G1 X68.9094 Y392.5559
G1 X68.8185 Y392.3741
G1 X68.7276 Y392.2832
G1 X68.5458 Y392.1922
G1 X68.2731
G1 X68.0912 Y392.3741
G1 X68.0003 Y392.6468
G1 Y393.0104
G1 X68.0912 Y393.2832
G1 X68.2731 Y393.465
G0 Z0.1
G0 X68.0003 Y393.8286
G1 F1000.0 Z-0.1
G1 F1500.0 Y394.9195
G1 X69.9094
G0 Z0.1
G0 X68.0003 Y395.6468
G1 F1000.0 Z-0.1
G1 F1500.0 X69.9094
G1 X68.0003 Y396.3741
G1 X69.9094 Y397.1013
G1 X68.0003
G0 Z0.1
G0 X67.9989 Y409.7658
G1 F1000.0 Z-0.1
G1 F1500.0 X69.8486
G1 X69.5843 Y410.03
G1 X69.4963 Y410.2062
G0 Z0.1
G0 X69.5843 Y410.9989
G1 F1000.0 Z-0.1
G1 F1500.0 X69.7605 Y411.175
G1 X69.8486 Y411.4392
G1 Y411.7916
G1 X69.7605 Y412.0558
G1 X69.5843 Y412.2319
G1 X69.4082
G1 X69.232 Y412.1439
G1 X69.144 Y412.0558
G1 X69.0559 Y411.8796
G1 X68.8797 Y411.3512
G1 X68.7916 Y411.175
G1 X68.7036 Y411.0869
G1 X68.5274 Y410.9989
G1 X68.2632
G1 X68.087 Y411.175
G1 X67.9989 Y411.4392
G1 Y411.7916
G1 X68.087 Y412.0558
G1 X68.2632 Y412.2319
G0 Z0.1
G0 X67.9989 Y412.5843
G1 F1000.0 Z-0.1
G1 F1500.0 Y413.6412
G1 X69.8486
G0 Z0.1
G0 X67.9989 Y414.3458
G1 F1000.0 Z-0.1
G1 F1500.0 X69.8486
G1 X67.9989 Y415.0504
G1 X69.8486 Y415.7551
G1 X67.9989
G0 Z0.1
G0 X68.0003 Y373.6013
G1 F1000.0 Z-0.1
G1 F1500.0 X69.9094
G0 Z0.1
G0 X68.5 Y370.0
G1 F1000.0 Z-0.1
G1 F1500.0 Y360.0
G0 Z0.1
G0 X67.9824 Y358.4668
G1 F1000.0 Z-0.1
G1 F1500.0 X69.909
G1 X67.9824 Y357.7329
G1 X69.909 Y356.9989
G1 X67.9824
G0 Z0.1
G0 Y356.265
G1 F1000.0 Z-0.1
G1 F1500.0 X69.909
G0 Z0.1
G0 X69.0833 Y355.8063
G1 F1000.0 Z-0.1
G1 F1500.0 X67.9824 Y354.9806
G0 Z0.1
G0 Y354.3384
G1 F1000.0 Z-0.1
G1 F1500.0 X69.909
G1 Y353.5127
G1 X69.8173 Y353.2375
G1 X69.7255 Y353.1457
G1 X69.542 Y353.054
G1 X69.3585
G1 X69.1751 Y353.1457
G1 X69.0833 Y353.2375
G1 X68.9916 Y353.5127
G1 Y354.3384
G0 Z0.1
G0 Y353.6962
G1 F1000.0 Z-0.1
G1 F1500.0 X67.9824 Y353.054
G0 Z0.1
G0 X68.5 Y352.0
G1 F1000.0 Z-0.1
G1 F1500.0 Y347.0
G1 X63.5
G0 Z0.1
G0 X69.909 Y354.9806
G1 F1000.0 Z-0.1
G1 F1500.0 X68.6246 Y356.265
G0 Z0.1
G0 X84.5174 Y347.696
G1 F1000.0 Z-0.1
G1 F1500.0 X86.4265
G1 Y347.0596
G1 X86.3356 Y346.7869
G1 X86.1538 Y346.6051
G1 X85.9719 Y346.5142
G1 X85.6992 Y346.4233
G1 X85.2447
G1 X84.9719 Y346.5142
G1 X84.7901 Y346.6051
G1 X84.6083 Y346.7869
G1 X84.5174 Y347.0596
G1 Y347.696
G0 Z0.1
G0 Y345.7869
G1 F1000.0 Z-0.1
G1 F1500.0 X86.4265
G1 X84.5174 Y345.0596
G1 X86.4265 Y344.3324
G1 X84.5174
G0 Z0.1
G0 X85.5174 Y343.6051
G1 F1000.0 Z-0.1
G1 F1500.0 Y342.8778
G0 Z0.1
G0 X86.4265 Y342.4233
G1 F1000.0 Z-0.1
G1 F1500.0 Y343.6051
G1 X84.5174
G1 Y342.4233
G0 Z0.1
G0 X85.9719 Y341.8778
G1 F1000.0 Z-0.1
G1 F1500.0 X86.0628
G1 X86.2447 Y341.7869
G1 X86.3356 Y341.696
G1 X86.4265 Y341.5142
G1 Y341.1505
G1 X86.3356 Y340.9687
G1 X86.2447 Y340.8778
G1 X86.0628 Y340.7869
G1 X85.881
G1 X85.6992 Y340.8778
G1 X85.4265 Y341.0596
G1 X84.5174 Y341.9687
G1 Y340.696
G0 Z0.1
G0 X87.6321 Y340.9687
G1 F1000.0 Z-0.1
G1 F1500.0 Y342.2415
G1 X88.5412 Y341.3324
G1 X88.8139 Y341.1506
G1 X88.9957 Y341.0596
G1 X89.1776
G1 X89.3594 Y341.1506
G1 X89.4503 Y341.2415
G1 X89.5412 Y341.4233
G1 Y341.7869
G1 X89.4503 Y341.9687
G1 X89.3594 Y342.0596
G1 X89.1776 Y342.1506
G1 X89.0867
G0 Z0.1
G0 X89.5412 Y342.6051
G1 F1000.0 Z-0.1
G1 F1500.0 X87.6321 Y343.3324
G1 X89.5412 Y344.0596
G0 Z0.1
G0 X88.2685 Y344.5142
G1 F1000.0 Z-0.1
G1 F1500.0 Y345.4233
G0 Z0.1
G0 X87.6321 Y345.696
G1 F1000.0 Z-0.1
G1 F1500.0 X89.5412 Y344.9687
G1 X87.6321 Y344.2415
G0 Z0.1
G0 X89.5412 Y346.1506
G1 F1000.0 Z-0.1
G1 F1500.0 X87.6321
G1 X89.5412 Y347.4233
G1 X87.6321
G0 Z0.1
G0 X85.5174 Y328.537
G1 F1000.0 Z-0.1
G1 F1500.0 Y327.7188
G1 X85.4265 Y327.446
G1 X85.3356 Y327.3551
G1 X85.1538 Y327.2642
G1 X84.881
G1 X84.6992 Y327.3551
G1 X84.6083 Y327.446
G1 X84.5174 Y327.7188
G1 Y328.537
G1 X86.4265
G1 Y327.7188
G1 X86.3356 Y327.446
G1 X86.2447 Y327.3551
G1 X86.0628 Y327.2642
G1 X85.881
G1 X85.6992 Y327.3551
G1 X85.6083 Y327.446
G1 X85.5174 Y327.7188
G0 Z0.1
G0 Y326.7188
G1 F1000.0 Z-0.1
G1 F1500.0 X85.2447
G1 X84.9719 Y326.6279
G1 X84.7901 Y326.537
G1 X84.6083 Y326.3551
G1 X84.5174 Y326.1733
G1 Y325.8097
G1 X84.6083 Y325.6279
G1 X84.7901 Y325.446
G1 X84.9719 Y325.3551
G1 X85.2447 Y325.2642
G1 X85.6992
G1 X85.9719 Y325.3551
G1 X86.1538 Y325.446
G1 X86.3356 Y325.6279
G1 X86.4265 Y325.8097
G1 Y326.1733
G1 X86.3356 Y326.3551
G1 X86.1538 Y326.537
G1 X85.9719 Y326.6279
G1 X85.6992 Y326.7188
G1 X85.5174
G0 Z0.1
G0 X86.4265 Y324.9006
G1 F1000.0 Z-0.1
G1 F1500.0 Y323.6279
G0 Z0.1
G0 Y323.1733
G1 F1000.0 Z-0.1
G1 F1500.0 X84.5174
G0 Z0.1
G0 X85.5174
G1 F1000.0 Z-0.1
G1 F1500.0 Y321.9006
G0 Z0.1
G0 X86.4265
G1 F1000.0 Z-0.1
G1 F1500.0 X84.5174
G0 Z0.1
G0 Y324.2642
G1 F1000.0 Z-0.1
G1 F1500.0 X86.4265
G0 Z0.1
G0 X64.3012 Y325.7273
G1 F1000.0 Z-0.1
G1 F1500.0 X62.3921
G0 Z0.1
G0 X62.0822 Y326.0372
G1 F1000.0 Z-0.1
G1 F1500.0 X61.9541 Y325.9091
G1 X61.7722 Y325.8182
G1 X61.4995 Y325.7273
G1 X61.045
G1 X60.7723 Y325.8182
G1 X60.5904 Y325.9091
G1 X60.4086 Y326.0909
G1 X60.3177 Y326.3636
G1 Y327.0
G1 X60.3178
G1 X62.2268
G1 Y326.3636
G1 X62.1359 Y326.0909
G1 X62.0822 Y326.0372
G0 Z0.1
G0 X62.3921 Y327.0
G1 F1000.0 Z-0.1
G1 F1500.0 X64.3012
G0 Z0.1
G0 X63.3921
G1 F1000.0 Z-0.1
G1 F1500.0 Y325.7273
G0 Z0.1
G0 X59.1154 Y327.0
G1 F1000.0 Z-0.1
G1 F1500.0 Y326.1818
G1 X59.2064 Y325.9091
G1 X59.2974 Y325.8182
G1 X59.4792 Y325.7273
G1 X59.7519
G1 X59.9337 Y325.8182
G1 X60.0247 Y325.9091
G1 X60.1157 Y326.1818
G1 Y327.0
G1 X58.2066
G0 Z0.1
G0 X58.0245
G1 F1000.0 Z-0.1
G1 F1500.0 X56.1154
G0 Z0.1
G0 X57.1154
G1 F1000.0 Z-0.1
G1 F1500.0 Y325.7273
G0 Z0.1
G0 X58.0245
G1 F1000.0 Z-0.1
G1 F1500.0 X56.1154
G0 Z0.1
G0 X109.5 Y317.0
G1 F1000.0 Z-0.1
G1 F1500.0 X106.5
G1 Y373.0
G0 Z0.1
G0 X105.5909 Y374.1818
G1 F1000.0 Z-0.1
G1 F1500.0 Y375.3636
G1 X107.5
G1 Y374.1818
G0 Z0.1
G0 X106.5909 Y374.6364
G1 F1000.0 Z-0.1
G1 F1500.0 Y375.3636
G0 Z0.1
G0 X107.5 Y376.0909
G1 F1000.0 Z-0.1
G1 F1500.0 X105.5909
G1 X107.5 Y377.3636
G1 X105.5909
G0 Z0.1
G0 X105.9727 Y378.1273
G1 F1000.0 Z-0.1
G1 F1500.0 X106.0455 Y378.0909
G1 X106.3182 Y378.0
G1 X106.7727
G1 X107.0455 Y378.0909
G1 X107.2273 Y378.1818
G1 X107.4091 Y378.3636
G1 X107.5 Y378.5454
G1 Y378.9091
G1 X107.4091 Y379.0909
G1 X107.2273 Y379.2727
G1 X107.0455 Y379.3636
G1 X106.7727 Y379.4545
G1 X106.3182
G1 X106.0455 Y379.3636
G1 X105.8636 Y379.2727
G1 X105.6818 Y379.0909
G1 X105.5909 Y378.9091
G1 Y378.5454
G1 X105.6818 Y378.3636
G1 X105.8636 Y378.1818
G1 X105.9727 Y378.1273
G0 Z0.1
G0 X105.5909 Y380.0909
G1 F1000.0 Z-0.1
G1 F1500.0 X107.5
G0 Z0.1
G0 X106.5909
G1 F1000.0 Z-0.1
G1 F1500.0 Y381.3636
G0 Z0.1
G0 X107.5
G1 F1000.0 Z-0.1
G1 F1500.0 X105.5909
G0 Z0.1
G0 Y383.2727
G1 F1000.0 Z-0.1
G1 F1500.0 X107.5
G1 Y382.4545
G1 X107.4091 Y382.1818
G1 X107.3182 Y382.0909
G1 X107.1364 Y382.0
G1 X106.8636
G1 X106.6818 Y382.0909
G1 X106.5909 Y382.1818
G1 X106.5 Y382.4545
G1 Y383.2727
G0 Z0.1
G0 Y383.9091
G1 F1000.0 Z-0.1
G1 F1500.0 X106.7727
G1 X107.0455 Y384.0
G1 X107.2273 Y384.0909
G1 X107.4091 Y384.2727
G1 X107.5 Y384.4545
G1 Y384.8182
G1 X107.4091 Y385.0
G1 X107.2273 Y385.1818
G1 X107.0455 Y385.2727
G1 X106.7727 Y385.3636
G1 X106.3182
G1 X106.0455 Y385.2727
G1 X105.8636 Y385.1818
G1 X105.6818 Y385.0
G1 X105.5909 Y384.8182
G1 Y384.4545
G1 X105.6818 Y384.2727
G1 X105.8636 Y384.0909
G1 X106.0455 Y384.0
G1 X106.3182 Y383.9091
G1 X106.5
G0 Z0.1
G0 X105.5909 Y385.9091
G1 F1000.0 Z-0.1
G1 F1500.0 X106.5909 Y386.5454
G0 Z0.1
G0 Y387.1818
G1 F1000.0 Z-0.1
G1 F1500.0 Y386.3636
G1 X106.6818 Y386.0909
G1 X106.7727 Y386.0
G1 X106.9545 Y385.9091
G1 X107.1364
G1 X107.3182 Y386.0
G1 X107.4091 Y386.0909
G1 X107.5 Y386.3636
G1 Y387.1818
G1 X105.5909
G0 Z0.1
G0 X106.0455 Y387.8182
G1 F1000.0 Z-0.1
G1 F1500.0 X105.8636 Y387.9091
G1 X105.6818 Y388.0909
G1 X105.5909 Y388.2727
G1 Y388.6364
G1 X105.6818 Y388.8182
G1 X105.8636 Y389.0
G1 X106.0455 Y389.0909
G1 X106.3182 Y389.1818
G1 X106.7727
G1 X107.0455 Y389.0909
G1 X107.2273 Y389.0
G1 X107.4091 Y388.8182
G1 X107.5 Y388.6364
G1 Y388.2727
G1 X107.4091 Y388.0909
G1 X107.2273 Y387.9091
G1 X107.0455 Y387.8182
G0 Z0.1
G0 X107.5 Y389.8182
G1 F1000.0 Z-0.1
G1 F1500.0 X105.5909
G0 Z0.1
G0 Y390.5454
G1 F1000.0 Z-0.1
G1 F1500.0 X107.5
G1 X105.5909 Y391.2727
G1 X107.5 Y392.0
G1 X105.5909
G0 Z0.1
G0 X106.5 Y393.0
G1 F1000.0 Z-0.1
G1 F1500.0 Y447.0
G1 X109.5
G0 Z0.1
G0 X121.5378 Y441.1701
G1 F1000.0 Z-0.1
G1 F1500.0 X121.3644 Y441.2568
G1 X121.1909 Y441.4303
G1 X121.1042 Y441.6038
G1 Y441.9507
G1 X121.1909 Y442.1241
G1 X121.3644 Y442.2976
G1 X121.5378 Y442.3843
G1 X121.798 Y442.471
G1 X122.2316
G1 X122.4918 Y442.3843
G1 X122.6653 Y442.2976
G1 X122.8387 Y442.1241
G1 X122.9255 Y441.9507
G1 Y441.6038
G1 X122.8387 Y441.4303
G1 X122.6653 Y441.2568
G1 X122.4918 Y441.1701
G0 Z0.1
G0 X122.3097 Y440.6237
G1 F1000.0 Z-0.1
G1 F1500.0 X122.2316 Y440.6498
G1 X121.798
G1 X121.5378 Y440.563
G1 X121.3644 Y440.4763
G1 X121.1909 Y440.3028
G1 X121.1042 Y440.1294
G1 Y439.7825
G1 X121.1909 Y439.609
G1 X121.3644 Y439.4356
G1 X121.5378 Y439.3488
G1 X121.798 Y439.2621
G1 X122.2316
G1 X122.4918 Y439.3488
G1 X122.6653 Y439.4356
G1 X122.8387 Y439.609
G1 X122.9255 Y439.7825
G1 Y440.1294
G1 X122.8387 Y440.3028
G1 X122.6653 Y440.4763
G1 X122.4918 Y440.563
G1 X122.3097 Y440.6237
G0 Z0.1
G0 X121.1042 Y438.655
G1 F1000.0 Z-0.1
G1 F1500.0 X122.9255
G1 X121.1042 Y437.9612
G1 X122.9255 Y437.2674
G1 X121.1042
G0 Z0.1
G0 Y435.9665
G1 F1000.0 Z-0.1
G1 F1500.0 X122.9255
G1 X122.6653 Y436.2266
G1 X122.5786 Y436.4001
G0 Z0.1
G0 X122.5225 Y422.4086
G1 F1000.0 Z-0.1
G1 F1500.0 X122.6959 Y422.4953
G1 X122.8694 Y422.6688
G1 X122.9561 Y422.8423
G1 Y423.1892
G1 X122.8694 Y423.3626
G1 X122.6959 Y423.5361
G1 X122.5225 Y423.6228
G1 X122.2623 Y423.7095
G1 X121.8286
G1 X121.5685 Y423.6228
G1 X121.395 Y423.5361
G1 X121.2216 Y423.3626
G1 X121.1348 Y423.1892
G1 Y422.8423
G1 X121.2216 Y422.6688
G1 X121.395 Y422.4953
G1 X121.5685 Y422.4086
G0 Z0.1
G0 X121.7506 Y421.8622
G1 F1000.0 Z-0.1
G1 F1500.0 X121.5685 Y421.8015
G1 X121.395 Y421.7148
G1 X121.2216 Y421.5413
G1 X121.1348 Y421.3679
G1 Y421.021
G1 X121.2216 Y420.8475
G1 X121.395 Y420.6741
G1 X121.5685 Y420.5873
G1 X121.8286 Y420.5006
G1 X122.2623
G1 X122.5225 Y420.5873
G1 X122.6959 Y420.6741
G1 X122.8694 Y420.8475
G1 X122.9561 Y421.021
G1 Y421.3679
G1 X122.8694 Y421.5413
G1 X122.6959 Y421.7148
G1 X122.5225 Y421.8015
G1 X122.2623 Y421.8883
G1 X121.8286
G1 X121.7506 Y421.8622
G0 Z0.1
G0 X121.1348 Y419.8935
G1 F1000.0 Z-0.1
G1 F1500.0 X122.9561
G1 X121.1348 Y419.1997
G1 X122.9561 Y418.5059
G1 X121.1348
G0 Z0.1
G0 X122.5225 Y417.8121
G1 F1000.0 Z-0.1
G1 F1500.0 X122.6092
G1 X122.7826 Y417.7253
G1 X122.8694 Y417.6386
G1 X122.9561 Y417.4652
G1 Y417.1182
G1 X122.8694 Y416.9448
G1 X122.7826 Y416.8581
G1 X122.6092 Y416.7713
G1 X122.4357
G1 X122.2623 Y416.8581
G1 X122.0021 Y417.0315
G1 X121.1348 Y417.8988
G1 Y416.6846
G0 Z0.1
G0 X121.0825 Y403.2568
G1 F1000.0 Z-0.1
G1 F1500.0 X122.9038
G0 Z0.1
G0 X122.0365
G1 F1000.0 Z-0.1
G1 F1500.0 Y402.0427
G0 Z0.1
G0 Y401.3488
G1 F1000.0 Z-0.1
G1 F1500.0 Y400.655
G0 Z0.1
G0 X122.9038 Y400.2214
G1 F1000.0 Z-0.1
G1 F1500.0 Y401.3488
G1 X121.0825
G0 Z0.1
G0 Y402.0427
G1 F1000.0 Z-0.1
G1 F1500.0 X122.9038
G0 Z0.1
G0 X122.5569 Y399.6143
G1 F1000.0 Z-0.1
G1 F1500.0 X122.6436 Y399.4408
G1 X122.9038 Y399.1807
G1 X121.0825
G0 Z0.1
G0 X121.5455 Y346.5454
G1 F1000.0 Z-0.1
G1 F1500.0 X121.3636 Y346.6364
G1 X121.1818 Y346.8182
G1 X121.0909 Y347.0
G1 Y347.3636
G1 X121.1818 Y347.5454
G1 X121.3636 Y347.7273
G1 X121.5455 Y347.8182
G1 X121.8182 Y347.9091
G1 X122.2727
G1 X122.5455 Y347.8182
G1 X122.7273 Y347.7273
G1 X122.9091 Y347.5454
G1 X123.0 Y347.3636
G1 Y347.0
G1 X122.9091 Y346.8182
G1 X122.7273 Y346.6364
G1 X122.5455 Y346.5454
G0 Z0.1
G0 X121.7273 Y345.9091
G1 F1000.0 Z-0.1
G1 F1500.0 Y345.0
G0 Z0.1
G0 X121.0909 Y344.7273
G1 F1000.0 Z-0.1
G1 F1500.0 X123.0 Y345.4545
G1 X121.0909 Y346.1818
G0 Z0.1
G0 X122.0909 Y344.2727
G1 F1000.0 Z-0.1
G1 F1500.0 Y343.4545
G1 X122.0 Y343.1818
G1 X121.9091 Y343.0909
G1 X121.7273 Y343.0
G1 X121.4546
G1 X121.2727 Y343.0909
G1 X121.1818 Y343.1818
G1 X121.0909 Y343.4545
G1 Y344.2727
G1 X123.0
G1 Y343.4545
G1 X122.9091 Y343.1818
G1 X122.8182 Y343.0909
G1 X122.6364 Y343.0
G1 X122.4546
G1 X122.2727 Y343.0909
G1 X122.1818 Y343.1818
G1 X122.0909 Y343.4545
G0 Z0.1
G0 X123.0 Y342.3636
G1 F1000.0 Z-0.1
G1 F1500.0 X121.0909
G0 Z0.1
G0 Y341.6364
G1 F1000.0 Z-0.1
G1 F1500.0 X123.0
G1 X121.0909 Y340.3636
G1 X123.0
G0 Z0.1
G0 X122.0909 Y328.4924
G1 F1000.0 Z-0.1
G1 F1500.0 Y327.7652
G0 Z0.1
G0 X123.0 Y327.3106
G1 F1000.0 Z-0.1
G1 F1500.0 Y328.4924
G1 X121.0909
G1 Y327.3106
G0 Z0.1
G0 Y326.7652
G1 F1000.0 Z-0.1
G1 F1500.0 X123.0
G1 X121.0909 Y326.0379
G1 X123.0 Y325.3106
G1 X121.0909
G0 Z0.1
G0 X122.0909 Y324.5833
G1 F1000.0 Z-0.1
G1 F1500.0 Y323.8561
G0 Z0.1
G0 Y322.8561
G1 F1000.0 Z-0.1
G1 F1500.0 Y322.0379
G1 X122.1818 Y321.7652
G1 X122.2727 Y321.6742
G1 X122.4546 Y321.5833
G1 X122.6364
G1 X122.8182 Y321.6742
G1 X122.9091 Y321.7652
G1 X123.0 Y322.0379
G1 Y322.8561
G1 X121.0909
G0 Z0.1
G0 Y323.4015
G1 F1000.0 Z-0.1
G1 F1500.0 Y324.5833
G1 X123.0
G1 Y323.4015
G0 Z0.1
G0 X122.0909 Y322.2197
G1 F1000.0 Z-0.1
G1 F1500.0 X121.0909 Y321.5833
( Inner )
G64
S1000
G0 Z0.1
G0 X60.2057 Y428.3856
G1 F1000.0 Z-0.1
G2 F400.0 X60.1422 Y428.3922 I0.188 J2.1032
G3 X60.1415 Y428.3923 I-0.0089 J-0.0745
G1 X59.8606 Y428.4233
G3 X59.8602 I-0.0082 J-0.0745
G2 X59.6545 Y428.4512 I0.3576 J3.4185
G3 X59.6525 Y428.4514 I-0.0123 J-0.074
G2 X59.0466 Y428.5912 I0.488 J3.4988
G2 X58.519 Y428.8332 I0.9838 J2.8416
G2 X58.0432 Y429.171 I1.8549 J3.1171
G2 X57.2852 Y430.0728 I2.2044 J2.6222
G2 X56.8832 Y431.1799 I2.9522 J1.6983
G2 Y432.3409 I3.3677 J0.5805
G2 X57.2853 Y433.4482 I3.3699 J-0.5969
G2 X58.043 Y434.3497 I2.917 J-1.6825
G2 X59.0486 Y434.9303 I2.1751 J-2.6063
G2 X60.2082 Y435.1357 I1.157 J-3.155
G2 X61.912 Y434.6748 I-0.0119 J-3.4239
G2 X63.1228 Y433.464 I-1.7101 J-2.9208
G2 X63.5836 Y431.7605 I-2.9379 J-1.7089
G2 X63.1227 Y430.0565 I-3.426 J0.0125
G3 X63.1224 Y430.0561 I0.0649 J-0.0376
G2 X62.6006 Y429.3675 I-2.8959 J1.6525
G3 X62.6002 Y429.3671 I0.0534 J-0.0527
G2 X61.914 Y428.8471 I-2.0454 J1.9862
G3 X61.9116 Y428.8457 I0.0358 J-0.0659
G2 X61.8683 Y428.8231 I-0.2371 J0.4011
G3 X61.8653 Y428.8216 I0.0312 J-0.0682
G2 X61.471 Y428.657 I-1.2585 J2.4588
G1 X61.3154 Y428.6078
G2 X61.0418 Y428.5366 I-1.3775 J4.7316
G1 X60.9372 Y428.5134
G2 X60.569 Y428.4439 I-2.2003 J10.6532
G1 X60.4762 Y428.4285
G1 X60.2057 Y428.3856
G0 Z0.1
G0 X60.2056 Y416.1357
G1 F1000.0 Z-0.1
G2 F400.0 X60.2082 I0.0 J-3.3604
G2 X61.912 Y415.6749 I-0.0119 J-3.4239
G2 X63.1228 Y414.4641 I-1.7101 J-2.9208
G2 X63.5836 Y412.7605 I-2.9379 J-1.7089
G2 X63.1227 Y411.0565 I-3.426 J0.0125
G3 X63.1224 Y411.0561 I0.0649 J-0.0376
G2 X62.6006 Y410.3675 I-2.8958 J1.6525
G3 X62.6002 Y410.3671 I0.0534 J-0.0527
G2 X61.914 Y409.8471 I-2.0453 J1.9862
G3 X61.9116 Y409.8457 I0.0358 J-0.0659
G2 X61.8683 Y409.8231 I-0.2371 J0.4011
G3 X61.8653 Y409.8217 I0.0312 J-0.0682
G2 X61.471 Y409.657 I-1.2585 J2.4588
G1 X61.3154 Y409.6078
G2 X61.0418 Y409.5366 I-1.3777 J4.7321
G1 X60.9372 Y409.5134
G2 X60.569 Y409.444 I-2.201 J10.6572
G1 X60.4762 Y409.4285
G1 X60.2057 Y409.3856
G2 X60.1422 Y409.3922 I0.188 J2.1029
G3 X60.1415 Y409.3923 I-0.0089 J-0.0745
G1 X59.8606 Y409.4233
G3 X59.8602 I-0.0082 J-0.0745
G2 X59.6545 Y409.4512 I0.3576 J3.4182
G3 X59.6525 Y409.4515 I-0.0123 J-0.074
G2 X59.0466 Y409.5912 I0.488 J3.4987
G2 X58.519 Y409.8332 I0.9839 J2.8417
G2 X58.0432 Y410.171 I1.8549 J3.1171
G2 X57.2852 Y411.0728 I2.2044 J2.6222
G2 X56.8832 Y412.1799 I2.9522 J1.6983
G2 Y413.3409 I3.3677 J0.5805
G2 X57.2853 Y414.4482 I3.3699 J-0.5969
G2 X58.043 Y415.3497 I2.917 J-1.6825
G2 X59.0486 Y415.9303 I2.1751 J-2.6063
G2 X60.2056 Y416.1357 I1.157 J-3.155
G0 Z0.1
G0 X74.6684 Y419.4653
G1 F1000.0 Z-0.1
G2 F400.0 X74.6333 Y419.6382 I3.319 J0.7641
G2 Y420.7992 I3.3677 J0.5805
G2 X75.0353 Y421.9065 I3.3699 J-0.5969
G2 X75.793 Y422.8081 I2.917 J-1.6825
G2 X76.7986 Y423.3886 I2.1751 J-2.6063
G2 X77.9582 Y423.5941 I1.157 J-3.155
G2 X79.662 Y423.1332 I-0.0119 J-3.4239
G2 X80.8728 Y421.9224 I-1.7101 J-2.9208
G2 X81.3337 Y420.2188 I-2.9379 J-1.7089
G2 X80.8727 Y418.5149 I-3.426 J0.0125
G3 X80.8724 Y418.5145 I0.0649 J-0.0376
G2 X80.3506 Y417.8258 I-2.8958 J1.6525
G3 X80.3502 Y417.8254 I0.0534 J-0.0527
G2 X79.664 Y417.3054 I-2.0453 J1.9862
G3 X79.6616 Y417.3041 I0.0358 J-0.0659
G2 X79.6183 Y417.2814 I-0.2371 J0.4011
G3 X79.6153 Y417.28 I0.0312 J-0.0682
G2 X79.2211 Y417.1153 I-1.2585 J2.4588
G1 X79.0654 Y417.0661
G2 X78.7919 Y416.9949 I-1.3777 J4.7321
G1 X78.6872 Y416.9717
G2 X78.3191 Y416.9023 I-2.201 J10.6572
G1 X78.2263 Y416.8868
G1 X77.9557 Y416.8439
G2 X77.8923 Y416.8506 I0.188 J2.1029
G3 X77.8915 Y416.8507 I-0.0089 J-0.0745
G1 X77.6106 Y416.8816
G3 X77.6102 Y416.8817 I-0.0082 J-0.0745
G2 X77.4045 Y416.9095 I0.3576 J3.4182
G3 X77.4026 Y416.9098 I-0.0123 J-0.074
G2 X76.7966 Y417.0496 I0.488 J3.4987
G2 X76.269 Y417.2915 I0.9839 J2.8417
G2 X75.7932 Y417.6293 I1.8549 J3.1171
G2 X75.0352 Y418.5311 I2.2044 J2.6222
G2 X74.6684 Y419.4653 I2.9522 J1.6983
G0 Z0.1
G0 X77.3593 Y404.5408
G1 F1000.0 Z-0.1
G2 F400.0 X77.9582 Y404.5941 I0.5963 J-3.3071
G2 X79.662 Y404.1332 I-0.0119 J-3.4239
G2 X80.8728 Y402.9224 I-1.7101 J-2.9208
G2 X81.3337 Y401.2188 I-2.9379 J-1.7089
G2 X80.8727 Y399.5149 I-3.426 J0.0125
G3 X80.8724 Y399.5145 I0.0649 J-0.0376
G2 X80.3506 Y398.8258 I-2.8958 J1.6525
G3 X80.3502 Y398.8254 I0.0534 J-0.0527
G2 X79.664 Y398.3054 I-2.0453 J1.9862
G3 X79.6616 Y398.3041 I0.0358 J-0.0659
G2 X79.6183 Y398.2814 I-0.2371 J0.4011
G3 X79.6153 Y398.28 I0.0312 J-0.0682
G2 X79.2211 Y398.1153 I-1.2585 J2.4588
G1 X79.0654 Y398.0661
G2 X78.7919 Y397.9949 I-1.3777 J4.7321
G1 X78.6872 Y397.9718
G2 X78.3191 Y397.9023 I-2.201 J10.6572
G1 X78.2263 Y397.8868
G1 X77.9557 Y397.844
G2 X77.8923 Y397.8506 I0.188 J2.1029
G3 X77.8915 Y397.8507 I-0.0089 J-0.0745
G1 X77.6106 Y397.8816
G3 X77.6102 Y397.8817 I-0.0082 J-0.0745
G2 X77.4045 Y397.9095 I0.3576 J3.4182
G3 X77.4026 Y397.9098 I-0.0123 J-0.074
G2 X76.7966 Y398.0496 I0.488 J3.4987
G2 X76.269 Y398.2915 I0.9839 J2.8417
G2 X75.7932 Y398.6293 I1.8549 J3.1171
G2 X75.0352 Y399.5311 I2.2044 J2.6222
G2 X74.6333 Y400.6382 I2.9522 J1.6983
G2 Y401.7993 I3.3677 J0.5805
G2 X75.0353 Y402.9065 I3.3699 J-0.5969
G2 X75.793 Y403.8081 I2.917 J-1.6825
G2 X76.7986 Y404.3886 I2.1751 J-2.6063
G2 X77.3593 Y404.5408 I1.157 J-3.155
G0 Z0.1
G0 X92.6033 Y401.8065
G1 F1000.0 Z-0.1
G2 F400.0 X93.004 Y402.9065 I3.3686 J-0.6042
G2 X93.7618 Y403.8081 I2.917 J-1.6825
G2 X94.7673 Y404.3886 I2.1751 J-2.6063
G2 X95.9269 Y404.5941 I1.157 J-3.155
G2 X97.6308 Y404.1332 I-0.0119 J-3.4239
G2 X98.8416 Y402.9224 I-1.7101 J-2.9208
G2 X99.3024 Y401.2188 I-2.9379 J-1.7089
G2 X98.8414 Y399.5149 I-3.426 J0.0125
G3 X98.8412 Y399.5145 I0.0649 J-0.0376
G2 X98.3193 Y398.8258 I-2.8958 J1.6524
G3 X98.3189 Y398.8254 I0.0534 J-0.0527
G2 X97.6328 Y398.3054 I-2.0453 J1.9862
G3 X97.6304 Y398.3041 I0.0358 J-0.0659
G2 X97.587 Y398.2814 I-0.2371 J0.4011
G3 X97.584 Y398.28 I0.0312 J-0.0682
G2 X97.1898 Y398.1153 I-1.2586 J2.4588
G1 X97.0341 Y398.0661
G2 X96.7606 Y397.9949 I-1.3777 J4.7324
G1 X96.656 Y397.9718
G2 X96.2878 Y397.9023 I-2.2013 J10.6585
G1 X96.195 Y397.8868
G1 X95.9244 Y397.844
G2 X95.861 Y397.8506 I0.1881 J2.1039
G3 X95.8603 Y397.8507 I-0.0089 J-0.0745
G1 X95.5793 Y397.8816
G3 X95.5789 Y397.8817 I-0.0082 J-0.0745
G2 X95.3733 Y397.9095 I0.3577 J3.4187
G3 X95.3713 Y397.9098 I-0.0123 J-0.074
G2 X94.7654 Y398.0496 I0.4879 J3.4985
G2 X94.2378 Y398.2915 I0.9838 J2.8415
G2 X93.7619 Y398.6293 I1.855 J3.1172
G2 X93.004 Y399.5311 I2.2044 J2.6223
G2 X92.602 Y400.6382 I2.9522 J1.6983
G2 Y401.7993 I3.3677 J0.5805
G2 X92.6033 Y401.8065 I3.3699 J-0.5969
G0 Z0.1
G0 X95.2502 Y416.9288
G1 F1000.0 Z-0.1
G2 F400.0 X94.7654 Y417.0496 I0.609 J3.4794
G2 X94.2378 Y417.2915 I0.9838 J2.8415
G2 X93.7619 Y417.6293 I1.855 J3.1172
G2 X93.004 Y418.5311 I2.2044 J2.6223
G2 X92.602 Y419.6382 I2.9522 J1.6983
G2 Y420.7992 I3.3677 J0.5805
G2 X93.004 Y421.9065 I3.3699 J-0.5969
G2 X93.7618 Y422.8081 I2.917 J-1.6825
G2 X94.7673 Y423.3886 I2.1751 J-2.6063
G2 X95.9269 Y423.5941 I1.157 J-3.155
G2 X97.6308 Y423.1332 I-0.0119 J-3.4239
G2 X98.8416 Y421.9224 I-1.7101 J-2.9208
G2 X99.3024 Y420.2188 I-2.9379 J-1.7089
G2 X98.8414 Y418.5149 I-3.426 J0.0125
G3 X98.8412 Y418.5145 I0.0649 J-0.0376
G2 X98.3193 Y417.8258 I-2.8958 J1.6524
G3 X98.3189 Y417.8254 I0.0534 J-0.0527
G2 X97.6328 Y417.3054 I-2.0453 J1.9862
G3 X97.6304 Y417.3041 I0.0358 J-0.0659
G2 X97.587 Y417.2814 I-0.2371 J0.4011
G3 X97.584 Y417.28 I0.0312 J-0.0682
G2 X97.1898 Y417.1153 I-1.2586 J2.4588
G1 X97.0341 Y417.0661
G2 X96.7606 Y416.9949 I-1.3777 J4.7324
G1 X96.656 Y416.9717
G2 X96.2878 Y416.9023 I-2.2013 J10.6585
G1 X96.195 Y416.8868
G1 X95.9244 Y416.844
G2 X95.861 Y416.8506 I0.1881 J2.1039
G3 X95.8603 Y416.8507 I-0.0089 J-0.0745
G1 X95.5793 Y416.8816
G3 X95.5789 Y416.8817 I-0.0082 J-0.0745
G2 X95.3733 Y416.9095 I0.3577 J3.4187
G3 X95.3713 Y416.9098 I-0.0123 J-0.074
G2 X95.2502 Y416.9288 I0.4879 J3.4985
G0 Z0.1
G0 X108.8958
G1 F1000.0 Z-0.1
G1 F400.0 Y426.5939
G1 X119.6472
G1 Y413.8436
G1 X108.8958
G1 Y416.9288
G0 Z0.1
G0 Y407.5939
G1 F1000.0 Z-0.1
G1 F400.0 X119.6471
G1 Y394.8436
G1 X108.8958
G1 Y407.5939
G0 Z0.1
G0 Y432.8456
G1 F1000.0 Z-0.1
G1 F400.0 X108.8956
G1 Y445.5919
G1 X119.6473
G1 Y432.8456
G1 X108.8958
G0 Z0.1
G0 X98.9524 Y437.7227
G1 F1000.0 Z-0.1
G2 F400.0 X98.8414 Y437.5149 I-3.076 J1.5087
G3 X98.8412 Y437.5145 I0.0649 J-0.0376
G2 X98.3193 Y436.8258 I-2.8958 J1.6525
G3 X98.3189 Y436.8254 I0.0534 J-0.0527
G2 X97.6328 Y436.3054 I-2.0453 J1.9862
G3 X97.6304 Y436.3041 I0.0358 J-0.0659
G2 X97.587 Y436.2814 I-0.2371 J0.4011
G3 X97.584 Y436.28 I0.0312 J-0.0682
G2 X97.1898 Y436.1153 I-1.2585 J2.4588
G1 X97.0341 Y436.0661
G2 X96.7606 Y435.9949 I-1.3777 J4.7321
G1 X96.656 Y435.9717
G2 X96.2878 Y435.9023 I-2.201 J10.6572
G1 X96.195 Y435.8868
G1 X95.9244 Y435.8439
G2 X95.861 Y435.8506 I0.188 J2.1029
G3 X95.8603 Y435.8507 I-0.0089 J-0.0745
G1 X95.5793 Y435.8816
G3 X95.5789 Y435.8817 I-0.0082 J-0.0745
G2 X95.3732 Y435.9095 I0.3576 J3.4182
G3 X95.3713 Y435.9098 I-0.0123 J-0.074
G2 X94.7654 Y436.0496 I0.488 J3.4987
G2 X94.2378 Y436.2915 I0.9839 J2.8417
G2 X93.7619 Y436.6293 I1.8549 J3.1171
G2 X93.0039 Y437.5311 I2.2044 J2.6222
G2 X92.602 Y438.6382 I2.9522 J1.6983
G2 Y439.7992 I3.3677 J0.5805
G2 X93.004 Y440.9065 I3.3699 J-0.5969
G2 X93.7618 Y441.8081 I2.917 J-1.6825
G2 X94.7673 Y442.3886 I2.1751 J-2.6063
G2 X95.9269 Y442.5941 I1.157 J-3.155
G2 X97.6308 Y442.1332 I-0.0119 J-3.4239
G2 X98.8416 Y440.9224 I-1.7101 J-2.9208
G2 X99.3024 Y439.2188 I-2.9379 J-1.7089
G2 X98.9524 Y437.7227 I-3.426 J0.0125
G0 Z0.1
G0 X81.3249 Y438.9864
G1 F1000.0 Z-0.1
G2 F400.0 X80.8727 Y437.5149 I-3.4173 J0.245
G3 X80.8724 Y437.5145 I0.0649 J-0.0376
G2 X80.3506 Y436.8258 I-2.8959 J1.6525
G3 X80.3502 Y436.8254 I0.0534 J-0.0527
G2 X79.664 Y436.3054 I-2.0454 J1.9862
G3 X79.6616 Y436.3041 I0.0358 J-0.0659
G2 X79.6183 Y436.2814 I-0.2371 J0.4011
G3 X79.6153 Y436.28 I0.0312 J-0.0682
G2 X79.2211 Y436.1153 I-1.2585 J2.4588
G1 X79.0654 Y436.0661
G2 X78.7919 Y435.9949 I-1.3775 J4.7316
G1 X78.6872 Y435.9717
G2 X78.3191 Y435.9023 I-2.2003 J10.6532
G1 X78.2263 Y435.8868
G1 X77.9557 Y435.8439
G2 X77.8923 Y435.8506 I0.188 J2.1032
G3 X77.8915 Y435.8507 I-0.0089 J-0.0745
G1 X77.6106 Y435.8816
G3 X77.6102 Y435.8817 I-0.0082 J-0.0745
G2 X77.4045 Y435.9095 I0.3576 J3.4185
G3 X77.4026 Y435.9098 I-0.0123 J-0.074
G2 X76.7966 Y436.0496 I0.488 J3.4988
G2 X76.269 Y436.2915 I0.9838 J2.8416
G2 X75.7932 Y436.6293 I1.8549 J3.1171
G2 X75.0352 Y437.5311 I2.2044 J2.6222
G2 X74.6333 Y438.6382 I2.9522 J1.6983
G2 Y439.7992 I3.3677 J0.5805
G2 X75.0353 Y440.9065 I3.3699 J-0.5969
G2 X75.793 Y441.8081 I2.917 J-1.6825
G2 X76.7986 Y442.3886 I2.1751 J-2.6063
G2 X77.9582 Y442.5941 I1.157 J-3.155
G2 X79.662 Y442.1332 I-0.0119 J-3.4239
G2 X80.8728 Y440.9224 I-1.7101 J-2.9208
G2 X81.3337 Y439.2188 I-2.9379 J-1.7089
G2 X81.3249 Y438.9864 I-3.426 J0.0125
G0 Z0.1
G0 X49.2893 Y458.5176
G1 F1000.0 Z-0.1
G2 F400.0 X49.0935 Y458.2904 I-0.7842 J0.4781
G3 X49.0927 Y458.2898 I0.048 J-0.0576
G2 X48.8196 Y458.1319 I-0.5583 J0.6507
G2 X48.6625 Y458.0951 I-0.3002 J0.9267
G3 X48.6587 Y458.0944 I0.011 J-0.0742
G2 X48.5817 Y458.0841 I-0.1183 J0.5895
G3 X48.5789 Y458.0838 I0.0052 J-0.0748
G1 X48.4988 Y458.0753
G2 X48.3391 Y458.0948 I0.131 J1.7332
G3 X48.3374 Y458.0951 I-0.0125 J-0.0739
G2 X48.1804 Y458.1319 I0.1376 J0.9396
G2 X47.9075 Y458.2896 I0.2762 J0.7928
G3 X47.9071 Y458.29 I-0.049 J-0.0567
G2 X47.6988 Y458.5377 I0.631 J0.742
G2 X47.5887 Y458.841 I0.8095 J0.4653
G3 Y458.8411 I-0.0739 J-0.013
G2 Y459.1588 I0.8917 J0.1588
G1 Y459.1589
G2 X47.699 Y459.4626 I0.9235 J-0.1634
G2 X47.9066 Y459.7096 I0.7989 J-0.4608
G2 X48.1821 Y459.8687 I0.5946 J-0.7116
G2 X48.5001 Y459.925 I0.3191 J-0.8758
G2 X48.8178 Y459.8687 I0.0002 J-0.9237
G2 X49.0934 Y459.7096 I-0.3188 J-0.8704
G2 X49.3011 Y459.4624 I-0.5998 J-0.715
G2 X49.4112 Y459.1593 I-0.7949 J-0.4602
G2 Y458.8407 I-0.9364 J-0.1593
G2 X49.3011 Y458.5376 I-0.904 J0.1567
G3 X49.301 Y458.5374 I0.0649 J-0.0376
G2 X49.2893 Y458.5176 I-0.796 J0.4583
G0 Z0.1
G0 X59.6468 Y397.089
G1 F1000.0 Z-0.1
G2 F400.0 X60.2082 Y397.1357 I0.5587 J-3.3136
G2 X61.912 Y396.6749 I-0.0119 J-3.4239
G2 X63.1228 Y395.4641 I-1.7101 J-2.9208
G2 X63.5836 Y393.7605 I-2.9379 J-1.7089
G2 X63.1227 Y392.0566 I-3.426 J0.0125
G3 X63.1224 Y392.0562 I0.0649 J-0.0376
G2 X62.6006 Y391.3675 I-2.8958 J1.6525
G3 X62.6002 Y391.3671 I0.0534 J-0.0527
G2 X61.914 Y390.8471 I-2.0453 J1.9862
G3 X61.9116 Y390.8457 I0.0358 J-0.0659
G2 X61.8683 Y390.8231 I-0.2371 J0.4011
G3 X61.8653 Y390.8217 I0.0312 J-0.0682
G2 X61.471 Y390.657 I-1.2585 J2.4588
G1 X61.3154 Y390.6078
G2 X61.0418 Y390.5366 I-1.3777 J4.7321
G1 X60.9372 Y390.5134
G2 X60.569 Y390.444 I-2.201 J10.6572
G1 X60.4762 Y390.4285
G1 X60.2057 Y390.3856
G2 X60.1422 Y390.3923 I0.188 J2.1029
G3 X60.1415 I-0.0089 J-0.0745
G1 X59.8606 Y390.4233
G3 X59.8602 I-0.0082 J-0.0745
G2 X59.6545 Y390.4512 I0.3576 J3.4182
G3 X59.6525 Y390.4515 I-0.0123 J-0.074
G2 X59.0466 Y390.5912 I0.488 J3.4987
G2 X58.519 Y390.8332 I0.9839 J2.8417
G2 X58.0432 Y391.171 I1.8549 J3.1171
G2 X57.2852 Y392.0728 I2.2044 J2.6222
G2 X56.8832 Y393.1799 I2.9522 J1.6983
G2 Y394.3409 I3.3677 J0.5805
G2 X57.2853 Y395.4482 I3.3699 J-0.5969
G2 X58.043 Y396.3497 I2.917 J-1.6825
G2 X59.0486 Y396.9303 I2.1751 J-2.6063
G2 X59.6468 Y397.089 I1.157 J-3.155
G0 Z0.1
G0 X60.1214 Y378.1347
G1 F1000.0 Z-0.1
G2 F400.0 X60.2082 Y378.1357 I0.0841 J-3.3594
G2 X61.912 Y377.6748 I-0.0119 J-3.4239
G2 X63.1228 Y376.464 I-1.7101 J-2.9208
G2 X63.5836 Y374.7605 I-2.9379 J-1.7089
G2 X63.1227 Y373.0565 I-3.426 J0.0125
G3 X63.1224 Y373.0561 I0.0649 J-0.0376
G2 X62.6006 Y372.3675 I-2.8958 J1.6525
G3 X62.6002 Y372.3671 I0.0534 J-0.0527
G2 X61.914 Y371.8471 I-2.0453 J1.9862
G3 X61.9116 Y371.8457 I0.0358 J-0.0659
G2 X61.8683 Y371.8231 I-0.2371 J0.4011
G3 X61.8653 Y371.8216 I0.0312 J-0.0682
G2 X61.471 Y371.657 I-1.2585 J2.4588
G1 X61.3154 Y371.6078
G2 X61.0418 Y371.5366 I-1.3777 J4.7321
G1 X60.9372 Y371.5134
G2 X60.569 Y371.4439 I-2.201 J10.6572
G1 X60.4762 Y371.4285
G1 X60.2057 Y371.3856
G2 X60.1422 Y371.3922 I0.188 J2.1029
G3 X60.1415 Y371.3923 I-0.0089 J-0.0745
G1 X59.8606 Y371.4233
G3 X59.8602 I-0.0082 J-0.0745
G2 X59.6545 Y371.4511 I0.3576 J3.4182
G3 X59.6525 Y371.4514 I-0.0123 J-0.074
G2 X59.0466 Y371.5912 I0.488 J3.4987
G2 X58.519 Y371.8332 I0.9839 J2.8417
G2 X58.0432 Y372.171 I1.8549 J3.1171
G2 X57.2852 Y373.0728 I2.2044 J2.6222
G2 X56.8832 Y374.1799 I2.9522 J1.6983
G2 Y375.3409 I3.3677 J0.5805
G2 X57.2853 Y376.4482 I3.3699 J-0.5969
G2 X58.043 Y377.3497 I2.917 J-1.6825
G2 X59.0486 Y377.9303 I2.1751 J-2.6063
G2 X60.1214 Y378.1347 I1.157 J-3.155
G0 Z0.1
G0 X74.6676 Y381.4686
G1 F1000.0 Z-0.1
G2 F400.0 X74.6333 Y381.6382 I3.3197 J0.7609
G2 Y382.7993 I3.3677 J0.5805
G2 X75.0353 Y383.9065 I3.3699 J-0.5969
G2 X75.793 Y384.8081 I2.917 J-1.6825
G2 X76.7986 Y385.3886 I2.1751 J-2.6063
G2 X77.9582 Y385.5941 I1.157 J-3.155
G2 X79.662 Y385.1332 I-0.0119 J-3.4239
G2 X80.8728 Y383.9224 I-1.7101 J-2.9208
G2 X81.3337 Y382.2188 I-2.9379 J-1.7089
G2 X80.8727 Y380.5149 I-3.426 J0.0125
G3 X80.8724 Y380.5145 I0.0649 J-0.0376
G2 X80.3506 Y379.8258 I-2.8958 J1.6525
G3 X80.3502 Y379.8254 I0.0534 J-0.0527
G2 X79.664 Y379.3054 I-2.0453 J1.9862
G3 X79.6616 Y379.3041 I0.0358 J-0.0659
G2 X79.6183 Y379.2814 I-0.2371 J0.4011
G3 X79.6153 Y379.28 I0.0312 J-0.0682
G2 X79.2211 Y379.1153 I-1.2585 J2.4588
G1 X79.0654 Y379.0661
G2 X78.7919 Y378.9949 I-1.3777 J4.7321
G1 X78.6872 Y378.9718
G2 X78.3191 Y378.9023 I-2.201 J10.6572
G1 X78.2263 Y378.8868
G1 X77.9557 Y378.844
G2 X77.8923 Y378.8506 I0.188 J2.1029
G3 X77.8915 Y378.8507 I-0.0089 J-0.0745
G1 X77.6106 Y378.8816
G3 X77.6102 Y378.8817 I-0.0082 J-0.0745
G2 X77.4045 Y378.9095 I0.3576 J3.4182
G3 X77.4026 Y378.9098 I-0.0123 J-0.074
G2 X76.7966 Y379.0496 I0.488 J3.4987
G2 X76.269 Y379.2915 I0.9839 J2.8417
G2 X75.7932 Y379.6293 I1.8549 J3.1171
G2 X75.0352 Y380.5311 I2.2044 J2.6222
G2 X74.6676 Y381.4686 I2.9522 J1.6983
G0 Z0.1
G0 X77.3593 Y366.5407
G1 F1000.0 Z-0.1
G2 F400.0 X77.9582 Y366.5941 I0.5963 J-3.3071
G2 X79.662 Y366.1332 I-0.0119 J-3.4239
G2 X80.8728 Y364.9224 I-1.7101 J-2.9208
G2 X81.3337 Y363.2188 I-2.9379 J-1.7089
G2 X80.8727 Y361.5149 I-3.426 J0.0125
G3 X80.8724 Y361.5145 I0.0649 J-0.0376
G2 X80.3506 Y360.8258 I-2.8958 J1.6525
G3 X80.3502 Y360.8254 I0.0534 J-0.0527
G2 X79.664 Y360.3054 I-2.0453 J1.9862
G3 X79.6616 Y360.3041 I0.0358 J-0.0659
G2 X79.6183 Y360.2814 I-0.2371 J0.4011
G3 X79.6153 Y360.28 I0.0312 J-0.0682
G2 X79.2211 Y360.1153 I-1.2585 J2.4588
G1 X79.0654 Y360.0661
G2 X78.7919 Y359.9949 I-1.3777 J4.7321
G1 X78.6872 Y359.9717
G2 X78.3191 Y359.9023 I-2.201 J10.6572
G1 X78.2263 Y359.8868
G1 X77.9557 Y359.8439
G2 X77.8923 Y359.8506 I0.188 J2.1029
G3 X77.8915 Y359.8507 I-0.0089 J-0.0745
G1 X77.6106 Y359.8816
G3 X77.6102 Y359.8817 I-0.0082 J-0.0745
G2 X77.4045 Y359.9095 I0.3576 J3.4182
G3 X77.4026 Y359.9098 I-0.0123 J-0.074
G2 X76.7966 Y360.0496 I0.488 J3.4987
G2 X76.269 Y360.2915 I0.9839 J2.8417
G2 X75.7932 Y360.6293 I1.8549 J3.1171
G2 X75.0352 Y361.5311 I2.2044 J2.6222
G2 X74.6333 Y362.6382 I2.9522 J1.6983
G2 Y363.7992 I3.3677 J0.5805
G2 X75.0353 Y364.9065 I3.3699 J-0.5969
G2 X75.793 Y365.8081 I2.917 J-1.6825
G2 X76.7986 Y366.3886 I2.1751 J-2.6063
G2 X77.3593 Y366.5407 I1.157 J-3.155
G0 Z0.1
G0 X92.6033 Y363.8065
G1 F1000.0 Z-0.1
G2 F400.0 X93.004 Y364.9065 I3.3686 J-0.6042
G2 X93.7618 Y365.8081 I2.917 J-1.6825
G2 X94.7673 Y366.3886 I2.1751 J-2.6063
G2 X95.9269 Y366.5941 I1.157 J-3.155
G2 X97.6308 Y366.1332 I-0.0119 J-3.4239
G2 X98.8416 Y364.9224 I-1.7101 J-2.9208
G2 X99.3024 Y363.2188 I-2.9379 J-1.7089
G2 X98.8414 Y361.5149 I-3.426 J0.0125
G3 X98.8412 Y361.5145 I0.0649 J-0.0376
G2 X98.3193 Y360.8258 I-2.8958 J1.6524
G3 X98.3189 Y360.8254 I0.0534 J-0.0527
G2 X97.6328 Y360.3054 I-2.0453 J1.9862
G3 X97.6304 Y360.3041 I0.0358 J-0.0659
G2 X97.587 Y360.2814 I-0.2371 J0.4011
G3 X97.584 Y360.28 I0.0312 J-0.0682
G2 X97.1898 Y360.1153 I-1.2586 J2.4588
G1 X97.0341 Y360.0661
G2 X96.7606 Y359.9949 I-1.3777 J4.7324
G1 X96.656 Y359.9717
G2 X96.2878 Y359.9023 I-2.2013 J10.6585
G1 X96.195 Y359.8868
G1 X95.9244 Y359.8439
G2 X95.861 Y359.8506 I0.1881 J2.1039
G3 X95.8603 Y359.8507 I-0.0089 J-0.0745
G1 X95.5793 Y359.8816
G3 X95.5789 Y359.8817 I-0.0082 J-0.0745
G2 X95.3733 Y359.9095 I0.3577 J3.4187
G3 X95.3713 Y359.9098 I-0.0123 J-0.074
G2 X94.7654 Y360.0496 I0.4879 J3.4985
G2 X94.2378 Y360.2915 I0.9838 J2.8415
G2 X93.7619 Y360.6293 I1.855 J3.1172
G2 X93.004 Y361.5311 I2.2044 J2.6223
G2 X92.602 Y362.6382 I2.9522 J1.6983
G2 Y363.7992 I3.3677 J0.5805
G2 X92.6033 Y363.8065 I3.3699 J-0.5969
G0 Z0.1
G0 X95.3622 Y347.5467
G1 F1000.0 Z-0.1
G2 F400.0 X95.9269 Y347.5941 I0.5621 J-3.3131
G2 X97.6308 Y347.1332 I-0.0119 J-3.4239
G2 X98.8416 Y345.9224 I-1.7101 J-2.9208
G2 X99.3024 Y344.2188 I-2.9379 J-1.7089
G2 X98.8414 Y342.5149 I-3.426 J0.0125
G3 X98.8412 Y342.5145 I0.0649 J-0.0376
G2 X98.3193 Y341.8258 I-2.8958 J1.6524
G3 X98.3189 Y341.8254 I0.0534 J-0.0527
G2 X97.6328 Y341.3054 I-2.0453 J1.9862
G3 X97.6304 Y341.3041 I0.0358 J-0.0659
G2 X97.587 Y341.2814 I-0.2371 J0.4011
G3 X97.584 Y341.28 I0.0312 J-0.0682
G2 X97.1898 Y341.1153 I-1.2586 J2.4588
G1 X97.0341 Y341.0661
G2 X96.7606 Y340.9949 I-1.3777 J4.7324
G1 X96.656 Y340.9717
G2 X96.2878 Y340.9023 I-2.2013 J10.6585
G1 X96.195 Y340.8868
G1 X95.9244 Y340.844
G2 X95.861 Y340.8506 I0.1881 J2.1039
G3 X95.8603 Y340.8507 I-0.0089 J-0.0745
G1 X95.5793 Y340.8816
G3 X95.5789 Y340.8817 I-0.0082 J-0.0745
G2 X95.3733 Y340.9095 I0.3577 J3.4187
G3 X95.3713 Y340.9098 I-0.0123 J-0.074
G2 X94.7654 Y341.0496 I0.4879 J3.4985
G2 X94.2378 Y341.2915 I0.9838 J2.8415
G2 X93.7619 Y341.6293 I1.855 J3.1172
G2 X93.004 Y342.5311 I2.2044 J2.6223
G2 X92.602 Y343.6382 I2.9522 J1.6983
G2 Y344.7992 I3.3677 J0.5805
G2 X93.004 Y345.9065 I3.3699 J-0.5969
G2 X93.7618 Y346.8081 I2.917 J-1.6825
G2 X94.7673 Y347.3886 I2.1751 J-2.6063
G2 X95.3622 Y347.5467 I1.157 J-3.155
G0 Z0.1
G0 X108.8957
G1 F1000.0 Z-0.1
G1 F400.0 Y350.5939
G1 X119.647
G1 Y337.8436
G1 X108.8957
G1 Y347.5467
G0 Z0.1
G0 Y331.5939
G1 F1000.0 Z-0.1
G1 F400.0 X119.647
G1 Y318.8436
G1 X108.8957
G1 Y331.5939
G0 Z0.1
G0 X98.9544 Y326.7117
G1 F1000.0 Z-0.1
G2 F400.0 X99.3024 Y325.2188 I-3.0507 J-1.4982
G2 X98.8414 Y323.5149 I-3.426 J0.0125
G3 X98.8412 Y323.5145 I0.0649 J-0.0376
G2 X98.3193 Y322.8258 I-2.8958 J1.6524
G3 X98.3189 Y322.8254 I0.0534 J-0.0527
G2 X97.6328 Y322.3054 I-2.0453 J1.9862
G3 X97.6304 Y322.3041 I0.0358 J-0.0659
G2 X97.587 Y322.2814 I-0.2371 J0.4011
G3 X97.584 Y322.28 I0.0312 J-0.0682
G2 X97.1898 Y322.1153 I-1.2586 J2.4588
G1 X97.0341 Y322.0661
G2 X96.7606 Y321.9949 I-1.3777 J4.7324
G1 X96.656 Y321.9718
G2 X96.2878 Y321.9023 I-2.2013 J10.6585
G1 X96.195 Y321.8868
G1 X95.9244 Y321.844
G2 X95.861 Y321.8506 I0.1881 J2.1039
G3 X95.8603 Y321.8507 I-0.0089 J-0.0745
G1 X95.5793 Y321.8816
G3 X95.5789 Y321.8817 I-0.0082 J-0.0745
G2 X95.3733 Y321.9095 I0.3577 J3.4187
G3 X95.3713 Y321.9098 I-0.0123 J-0.074
G2 X94.7654 Y322.0496 I0.4879 J3.4985
G2 X94.2378 Y322.2915 I0.9838 J2.8415
G2 X93.7619 Y322.6293 I1.855 J3.1172
G2 X93.004 Y323.5311 I2.2044 J2.6223
G2 X92.602 Y324.6382 I2.9522 J1.6983
G2 Y325.7993 I3.3677 J0.5805
G2 X93.004 Y326.9065 I3.3699 J-0.5969
G2 X93.7618 Y327.8081 I2.917 J-1.6825
G2 X94.7673 Y328.3886 I2.1751 J-2.6063
G2 X95.9269 Y328.5941 I1.157 J-3.155
G2 X97.6308 Y328.1332 I-0.0119 J-3.4239
G2 X98.8416 Y326.9224 I-1.7101 J-2.9208
G2 X98.9544 Y326.7117 I-2.9379 J-1.7089
G0 Z0.1
G0 X81.3251 Y325.4552
G1 F1000.0 Z-0.1
G2 F400.0 X81.3337 Y325.2188 I-3.3901 J-0.2416
G2 X80.8727 Y323.5149 I-3.426 J0.0125
G3 X80.8724 Y323.5145 I0.0649 J-0.0376
G2 X80.3506 Y322.8258 I-2.8958 J1.6525
G3 X80.3502 Y322.8254 I0.0534 J-0.0527
G2 X79.664 Y322.3054 I-2.0453 J1.9862
G3 X79.6616 Y322.3041 I0.0358 J-0.0659
G2 X79.6183 Y322.2814 I-0.2371 J0.4011
G3 X79.6153 Y322.28 I0.0312 J-0.0682
G2 X79.2211 Y322.1153 I-1.2585 J2.4588
G1 X79.0654 Y322.0661
G2 X78.7919 Y321.9949 I-1.3777 J4.7321
G1 X78.6872 Y321.9718
G2 X78.3191 Y321.9023 I-2.201 J10.6572
G1 X78.2263 Y321.8868
G1 X77.9557 Y321.844
G2 X77.8923 Y321.8506 I0.188 J2.1029
G3 X77.8915 Y321.8507 I-0.0089 J-0.0745
G1 X77.6106 Y321.8816
G3 X77.6102 Y321.8817 I-0.0082 J-0.0745
G2 X77.4045 Y321.9095 I0.3576 J3.4182
G3 X77.4026 Y321.9098 I-0.0123 J-0.074
G2 X76.7966 Y322.0496 I0.488 J3.4987
G2 X76.269 Y322.2915 I0.9839 J2.8417
G2 X75.7932 Y322.6293 I1.8549 J3.1171
G2 X75.0352 Y323.5311 I2.2044 J2.6222
G2 X74.6333 Y324.6382 I2.9522 J1.6983
G2 Y325.7993 I3.3677 J0.5805
G2 X75.0353 Y326.9065 I3.3699 J-0.5969
G2 X75.793 Y327.8081 I2.917 J-1.6825
G2 X76.7986 Y328.3886 I2.1751 J-2.6063
G2 X77.9582 Y328.5941 I1.157 J-3.155
G2 X79.662 Y328.1332 I-0.0119 J-3.4239
G2 X80.8728 Y326.9224 I-1.7101 J-2.9208
G2 X81.3251 Y325.4552 I-2.9379 J-1.7089
G0 Z0.1
G0 X78.4645 Y340.9282
G1 F1000.0 Z-0.1
G2 F400.0 X78.3191 Y340.9023 I-1.9783 J10.7008
G1 X78.2263 Y340.8868
G1 X77.9557 Y340.8439
G2 X77.8923 Y340.8506 I0.188 J2.1029
G3 X77.8915 Y340.8507 I-0.0089 J-0.0745
G1 X77.6106 Y340.8816
G3 X77.6102 Y340.8817 I-0.0082 J-0.0745
G2 X77.4045 Y340.9095 I0.3576 J3.4182
G3 X77.4026 Y340.9098 I-0.0123 J-0.074
G2 X76.7966 Y341.0496 I0.488 J3.4987
G2 X76.269 Y341.2915 I0.9839 J2.8417
G2 X75.7932 Y341.6293 I1.8549 J3.1171
G2 X75.0352 Y342.5311 I2.2044 J2.6222
G2 X74.6333 Y343.6382 I2.9522 J1.6983
G2 Y344.7992 I3.3677 J0.5805
G2 X75.0353 Y345.9065 I3.3699 J-0.5969
G2 X75.793 Y346.8081 I2.917 J-1.6825
G2 X76.7986 Y347.3886 I2.1751 J-2.6063
G2 X77.9582 Y347.5941 I1.157 J-3.155
G2 X79.662 Y347.1332 I-0.0119 J-3.4239
G2 X80.8728 Y345.9224 I-1.7101 J-2.9208
G2 X81.3337 Y344.2188 I-2.9379 J-1.7089
G2 X80.8727 Y342.5149 I-3.426 J0.0125
G3 X80.8724 Y342.5145 I0.0649 J-0.0376
G2 X80.3506 Y341.8258 I-2.8958 J1.6525
G3 X80.3502 Y341.8254 I0.0534 J-0.0527
G2 X79.664 Y341.3054 I-2.0453 J1.9862
G3 X79.6616 Y341.3041 I0.0358 J-0.0659
G2 X79.6183 Y341.2814 I-0.2371 J0.4011
G3 X79.6153 Y341.28 I0.0312 J-0.0682
G2 X79.2211 Y341.1153 I-1.2585 J2.4588
G1 X79.0654 Y341.0661
G2 X78.7919 Y340.9949 I-1.3777 J4.7321
G1 X78.6872 Y340.9717
G2 X78.4645 Y340.9282 I-2.201 J10.6572
G0 Z0.1
G0 X63.4984 Y337.5116
G1 F1000.0 Z-0.1
G2 F400.0 X63.5836 Y336.7605 I-3.3135 J-0.7564
G2 X63.1227 Y335.0565 I-3.426 J0.0125
G3 X63.1224 Y335.0561 I0.0649 J-0.0376
G2 X62.6006 Y334.3675 I-2.8958 J1.6525
G3 X62.6002 Y334.3671 I0.0534 J-0.0527
G2 X61.914 Y333.8471 I-2.0453 J1.9862
G3 X61.9116 Y333.8457 I0.0358 J-0.0659
G2 X61.8683 Y333.8231 I-0.2371 J0.4011
G3 X61.8653 Y333.8216 I0.0312 J-0.0682
G2 X61.471 Y333.657 I-1.2585 J2.4588
G1 X61.3154 Y333.6078
G2 X61.0418 Y333.5366 I-1.3777 J4.7321
G1 X60.9372 Y333.5134
G2 X60.569 Y333.444 I-2.201 J10.6572
G1 X60.4762 Y333.4285
G1 X60.2057 Y333.3856
G2 X60.1422 Y333.3922 I0.188 J2.1029
G3 X60.1415 Y333.3923 I-0.0089 J-0.0745
G1 X59.8606 Y333.4233
G3 X59.8602 I-0.0082 J-0.0745
G2 X59.6545 Y333.4512 I0.3576 J3.4182
G3 X59.6525 Y333.4515 I-0.0123 J-0.074
G2 X59.0466 Y333.5912 I0.488 J3.4987
G2 X58.519 Y333.8332 I0.9839 J2.8417
G2 X58.0432 Y334.171 I1.8549 J3.1171
G2 X57.2852 Y335.0728 I2.2044 J2.6222
G2 X56.8832 Y336.1799 I2.9522 J1.6983
G2 Y337.3409 I3.3677 J0.5805
G2 X57.2853 Y338.4482 I3.3699 J-0.5969
G2 X58.043 Y339.3497 I2.917 J-1.6825
G2 X59.0486 Y339.9303 I2.1751 J-2.6063
G2 X60.2082 Y340.1357 I1.157 J-3.155
G2 X61.912 Y339.6749 I-0.0119 J-3.4239
G2 X63.1228 Y338.4641 I-1.7101 J-2.9208
G2 X63.4984 Y337.5116 I-2.9379 J-1.7089
G0 Z0.1
G0 X60.722 Y352.4712
G1 F1000.0 Z-0.1
G2 F400.0 X60.569 Y352.4439 I-1.9858 J10.6994
G1 X60.4762 Y352.4285
G1 X60.2057 Y352.3856
G2 X60.1422 Y352.3922 I0.188 J2.1029
G3 X60.1415 Y352.3923 I-0.0089 J-0.0745
G1 X59.8606 Y352.4233
G3 X59.8602 I-0.0082 J-0.0745
G2 X59.6545 Y352.4512 I0.3576 J3.4182
G3 X59.6525 Y352.4514 I-0.0123 J-0.074
G2 X59.0466 Y352.5912 I0.488 J3.4987
G2 X58.519 Y352.8332 I0.9839 J2.8417
G2 X58.0432 Y353.171 I1.8549 J3.1171
G2 X57.2852 Y354.0728 I2.2044 J2.6222
G2 X56.8832 Y355.1799 I2.9522 J1.6983
G2 Y356.3409 I3.3677 J0.5805
G2 X57.2853 Y357.4482 I3.3699 J-0.5969
G2 X58.043 Y358.3497 I2.917 J-1.6825
G2 X59.0486 Y358.9303 I2.1751 J-2.6063
G2 X60.2082 Y359.1357 I1.157 J-3.155
G2 X61.912 Y358.6748 I-0.0119 J-3.4239
G2 X63.1228 Y357.464 I-1.7101 J-2.9208
G2 X63.5836 Y355.7605 I-2.9379 J-1.7089
G2 X63.1227 Y354.0565 I-3.426 J0.0125
G3 X63.1224 Y354.0561 I0.0649 J-0.0376
G2 X62.6006 Y353.3675 I-2.8958 J1.6525
G3 X62.6002 Y353.3671 I0.0534 J-0.0527
G2 X61.914 Y352.8471 I-2.0453 J1.9862
G3 X61.9116 Y352.8457 I0.0358 J-0.0659
G2 X61.8683 Y352.8231 I-0.2371 J0.4011
G3 X61.8653 Y352.8216 I0.0312 J-0.0682
G2 X61.471 Y352.657 I-1.2585 J2.4588
G1 X61.3154 Y352.6078
G2 X61.0418 Y352.5366 I-1.3777 J4.7321
G1 X60.9372 Y352.5134
G2 X60.722 Y352.4712 I-2.201 J10.6572
G0 Z0.1
G0 X48.7306 Y305.8958
G1 F1000.0 Z-0.1
G2 F400.0 X48.8178 Y305.8687 I-0.2303 J-0.8945
G2 X49.0933 Y305.7096 I-0.3188 J-0.8704
G2 X49.3011 Y305.4624 I-0.5998 J-0.715
G2 X49.4112 Y305.1593 I-0.7949 J-0.4602
G2 Y304.8407 I-0.9365 J-0.1593
G2 X49.3011 Y304.5376 I-0.9039 J0.1567
G3 X49.301 Y304.5374 I0.0649 J-0.0376
G2 X49.0934 Y304.2904 I-0.796 J0.4583
G3 X49.0927 Y304.2898 I0.048 J-0.0576
G2 X48.8196 Y304.1319 I-0.5583 J0.6507
G2 X48.6624 Y304.0951 I-0.3002 J0.9267
G3 X48.6587 Y304.0944 I0.011 J-0.0742
G2 X48.5817 Y304.0841 I-0.1183 J0.5895
G3 X48.5789 Y304.0838 I0.0052 J-0.0748
G1 X48.4988 Y304.0753
G2 X48.3391 Y304.0948 I0.1304 J1.7281
G3 X48.3374 Y304.0951 I-0.0126 J-0.0739
G2 X48.1804 Y304.1319 I0.1375 J0.9391
G2 X47.9075 Y304.2896 I0.2762 J0.7929
G3 X47.9071 Y304.29 I-0.049 J-0.0567
G2 X47.6988 Y304.5377 I0.631 J0.742
G2 X47.5887 Y304.841 I0.8094 J0.4653
G3 Y304.8411 I-0.0739 J-0.013
G2 Y305.1588 I0.8917 J0.1588
G1 Y305.1589
G2 X47.699 Y305.4626 I0.9235 J-0.1634
G2 X47.9066 Y305.7096 I0.799 J-0.4608
G2 X48.1821 Y305.8687 I0.5946 J-0.7116
G2 X48.5001 Y305.925 I0.3191 J-0.8759
G2 X48.7306 Y305.8958 I0.0002 J-0.9236
G0 Z0.1
G0 X120.5748 Y305.0111
G1 F1000.0 Z-0.1
G2 F400.0 X120.5887 Y305.1588 I0.9057 J-0.0112
G1 Y305.1589
G2 X120.699 Y305.4626 I0.9235 J-0.1634
G2 X120.9066 Y305.7096 I0.799 J-0.4608
G2 X121.1821 Y305.8687 I0.5946 J-0.7116
G2 X121.5001 Y305.925 I0.3191 J-0.8759
G2 X121.8178 Y305.8687 I0.0002 J-0.9236
G2 X122.0934 Y305.7096 I-0.3188 J-0.8704
G2 X122.3011 Y305.4624 I-0.5998 J-0.715
G2 X122.4112 Y305.1593 I-0.7949 J-0.4602
G2 Y304.8407 I-0.9365 J-0.1593
G2 X122.3011 Y304.5376 I-0.9039 J0.1567
G3 X122.301 Y304.5374 I0.0649 J-0.0376
G2 X122.0934 Y304.2904 I-0.796 J0.4583
G3 X122.0927 Y304.2898 I0.048 J-0.0576
G2 X121.8196 Y304.1319 I-0.5583 J0.6507
G2 X121.6624 Y304.0951 I-0.3002 J0.9267
G3 X121.6587 Y304.0944 I0.011 J-0.0742
G2 X121.5817 Y304.0841 I-0.1183 J0.5895
G3 X121.5789 Y304.0838 I0.0052 J-0.0748
G1 X121.4988 Y304.0753
G2 X121.3391 Y304.0948 I0.1304 J1.7281
G3 X121.3374 Y304.0951 I-0.0126 J-0.0739
G2 X121.1804 Y304.1319 I0.1375 J0.9391
G2 X120.9075 Y304.2896 I0.2762 J0.7929
G3 X120.9071 Y304.29 I-0.049 J-0.0567
G2 X120.6988 Y304.5377 I0.631 J0.742
G2 X120.5887 Y304.841 I0.8094 J0.4653
G3 Y304.8411 I-0.0739 J-0.013
G2 X120.5748 Y305.0111 I0.8917 J0.1588
G0 Z0.1
G0 X121.4988 Y458.0753
G1 F1000.0 Z-0.1
G2 F400.0 X121.3391 Y458.0948 I0.131 J1.7332
G3 X121.3374 Y458.0951 I-0.0125 J-0.0739
G2 X121.1804 Y458.1319 I0.1376 J0.9396
G2 X120.9075 Y458.2896 I0.2762 J0.7928
G3 X120.9071 Y458.29 I-0.049 J-0.0567
G2 X120.6988 Y458.5377 I0.631 J0.742
G2 X120.5887 Y458.841 I0.8095 J0.4653
G3 Y458.8411 I-0.0739 J-0.013
G2 Y459.1588 I0.8917 J0.1588
G1 Y459.1589
G2 X120.699 Y459.4626 I0.9235 J-0.1634
G2 X120.9066 Y459.7096 I0.7989 J-0.4608
G2 X121.1821 Y459.8687 I0.5946 J-0.7116
G2 X121.5001 Y459.925 I0.3191 J-0.8758
G2 X121.8178 Y459.8687 I0.0002 J-0.9237
G2 X122.0934 Y459.7096 I-0.3188 J-0.8704
G2 X122.3011 Y459.4624 I-0.5998 J-0.715
G2 X122.4112 Y459.1593 I-0.7949 J-0.4602
G2 Y458.8407 I-0.9364 J-0.1593
G2 X122.3011 Y458.5376 I-0.904 J0.1567
G3 X122.301 Y458.5374 I0.0649 J-0.0376
G2 X122.0935 Y458.2904 I-0.796 J0.4583
G3 X122.0927 Y458.2898 I0.048 J-0.0576
G2 X121.8196 Y458.1319 I-0.5583 J0.6507
G2 X121.6625 Y458.0951 I-0.3002 J0.9267
G3 X121.6587 Y458.0944 I0.011 J-0.0742
G2 X121.5817 Y458.0841 I-0.1183 J0.5895
G3 X121.5789 Y458.0838 I0.0052 J-0.0748
G1 X121.4988 Y458.0753
( Radio_1 outer )
S1000
G0 Z0.1
G0 X124.5 Y462.075
G1 F1000.0 Z-0.1
G1 F400.0 X104.8298
G1 X85.1603
G1 X65.4901
G1 X45.5
G3 X45.425 Y462.0 I0.0 J-0.075
G1 Y446.6014
G1 Y431.2028
G1 Y415.8037
G1 Y400.4051
G1 Y385.006
G1 Y369.6074
G1 Y354.2083
G1 Y338.8097
G1 Y323.4106
G1 Y308.012
G1 Y302.0
G3 X45.5 Y301.925 I0.075 J0.0
G1 X57.8403
G1 X77.5105
G1 X97.18
G1 X116.8502
G1 X124.5
G3 X124.575 Y302.0 I0.0 J0.075
G1 Y317.3991
G1 Y332.7978
G1 Y348.1969
G1 Y363.5954
G1 Y366.5442
G1 Y381.9433
G1 Y397.3419
G1 Y412.7411
G1 Y428.1396
G1 Y443.5387
G1 Y458.9374
G1 Y462.0
G3 X124.5 Y462.075 I-0.075 J0.0
( Inner )
S1000
G0 Z0.1
G0 X42.9355 Y270.483
G1 F1000.0 Z-0.1
G1 F400.0 X54.6864
G1 Y258.7321
G1 X42.9355
G1 Y270.483
G0 Z0.1
G0 X30.1074
G1 F1000.0 Z-0.1
G1 F400.0 Y259.0108
G1 X18.3566
G1 Y270.7616
G1 X30.1074
G1 Y270.483
G0 Z0.1
G0 X6.734 Y260.7423
G1 F1000.0 Z-0.1
G2 F400.0 X6.7511 Y260.6977 I-0.7914 J-0.3298
G2 X6.788 Y260.5406 I-0.9267 J-0.3002
G3 X6.7886 Y260.5369 I0.0742 J0.011
G2 X6.7989 Y260.4599 I-0.5895 J-0.1183
G3 X6.7992 Y260.4571 I0.0748 J0.0052
G1 X6.8077 Y260.3769
G2 X6.7882 Y260.2172 I-1.7281 J0.1304
G3 X6.7879 Y260.2156 I0.0739 J-0.0126
G2 X6.7511 Y260.0585 I-0.9392 J0.1375
G2 X6.5934 Y259.7857 I-0.7929 J0.2762
G3 X6.5931 Y259.7852 I0.0567 J-0.049
G2 X6.3453 Y259.577 I-0.742 J0.631
G2 X6.042 Y259.4669 I-0.4653 J0.8095
G3 X6.0419 I0.013 J-0.0739
G2 X5.7242 I-0.1588 J0.8917
G1 X5.7241
G2 X5.4205 Y259.5771 I0.1634 J0.9235
G2 X5.1735 Y259.7847 I0.4608 J0.799
G2 X5.0144 Y260.0603 I0.7116 J0.5946
G2 X4.958 Y260.3782 I0.8759 J0.3191
G2 X5.0143 Y260.696 I0.9236 J0.0002
G2 X5.1734 Y260.9715 I0.8704 J-0.3188
G2 X5.4206 Y261.1793 I0.715 J-0.5998
G2 X5.7238 Y261.2894 I0.4602 J-0.7948
G2 X6.0423 I0.1593 J-0.9365
G2 X6.3455 Y261.1793 I-0.1567 J-0.9039
G3 X6.3456 Y261.1792 I0.0376 J0.0649
G2 X6.5926 Y260.9716 I-0.4583 J-0.796
G3 X6.5933 Y260.9708 I0.0576 J0.048
G2 X6.734 Y260.7423 I-0.6507 J-0.5583
G0 Z0.1
G0 X63.833
G1 F1000.0 Z-0.1
G1 F400.0 Y270.4913
G1 X75.5839
G1 Y258.7405
G1 X63.833
G1 Y260.7423
G0 Z0.1
G0 X85.276
G1 F1000.0 Z-0.1
G1 F400.0 Y270.483
G1 X97.0268
G1 Y258.7321
G1 X85.276
G1 Y260.7423
G0 Z0.1
G0 X106.7779
G1 F1000.0 Z-0.1
G1 F400.0 Y270.483
G1 X118.5287
G1 Y258.7321
G1 X106.7779
G1 Y260.7423
G0 Z0.1
G0 X127.7948
G1 F1000.0 Z-0.1
G1 F400.0 Y270.483
G1 X139.5456
G1 Y258.7321
G1 X127.7948
G1 Y260.7423
G0 Z0.1
G0 X155.15 Y264.2296
G1 F1000.0 Z-0.1
G2 F400.0 X155.1227 Y264.6554 I3.3726 J0.4299
G2 X155.3281 Y265.8151 I3.3706 J0.0009
G2 X155.9086 Y266.8206 I3.1756 J-1.1631
G2 X156.8104 Y267.5785 I2.6079 J-2.1875
G2 X157.9174 Y267.9804 I1.6799 J-2.9015
G3 X157.9176 I-0.0128 J0.0739
G2 X159.0784 I0.5804 J-3.2967
G3 X159.0786 I0.013 J0.0739
G2 X160.1855 Y267.5786 I-0.5717 J-3.3001
G2 X161.0876 Y266.8203 I-1.7452 J-2.9922
G3 X161.088 Y266.8199 I0.0573 J0.0484
G2 X161.425 Y266.3451 I-2.4016 J-2.0617
G3 X161.4254 Y266.3443 I0.0649 J0.0376
G2 X161.6671 Y265.8174 I-2.3456 J-1.3946
G2 X161.802 Y265.243 I-3.3682 J-1.0945
G3 X161.8021 Y265.2428 I0.0742 J0.011
G2 X161.8418 Y264.9468 I-9.0345 J-1.3634
G1 X161.873 Y264.6546
G2 X161.8662 Y264.5893 I-2.1033 J0.1861
G3 X161.8661 Y264.5885 I0.0745 J-0.0089
G1 X161.8351 Y264.3076
G3 Y264.3072 I0.0745 J-0.0082
G2 X161.8073 Y264.1015 I-3.4185 J0.3576
G3 X161.807 Y264.0996 I0.074 J-0.0123
G2 X161.6672 Y263.4936 I-3.4988 J0.488
G2 X161.4252 Y262.966 I-2.8416 J0.9838
G2 X161.0874 Y262.4902 I-3.117 J1.8548
G2 X160.1856 Y261.7322 I-2.6223 J2.2045
G2 X159.0785 Y261.3303 I-1.6981 J2.9517
G2 X157.9175 I-0.5805 J3.3692
G2 X156.8103 Y261.7323 I0.596 J3.3674
G2 X155.9087 Y262.49 I1.6816 J2.916
G2 X155.3282 Y263.4955 I2.5963 J2.1693
G2 X155.15 Y264.2296 I3.1944 J1.164
G0 Z0.1
G0 X173.9751 Y260.5554
G1 F1000.0 Z-0.1
G2 F400.0 X174.0143 Y260.696 I0.9065 J-0.1769
G2 X174.1734 Y260.9715 I0.8704 J-0.3188
G2 X174.4206 Y261.1793 I0.715 J-0.5998
G2 X174.7238 Y261.2894 I0.4602 J-0.7948
G2 X175.0423 I0.1593 J-0.9365
G2 X175.3454 Y261.1793 I-0.1567 J-0.9039
G3 X175.3456 Y261.1792 I0.0376 J0.0649
G2 X175.5926 Y260.9716 I-0.4583 J-0.796
G3 X175.5933 Y260.9708 I0.0576 J0.048
G2 X175.7511 Y260.6977 I-0.6507 J-0.5583
G2 X175.788 Y260.5406 I-0.9267 J-0.3002
G3 X175.7886 Y260.5369 I0.0742 J0.011
G2 X175.7989 Y260.4599 I-0.5895 J-0.1183
G3 X175.7992 Y260.4571 I0.0748 J0.0052
G1 X175.8077 Y260.3769
G2 X175.7882 Y260.2172 I-1.7281 J0.1304
G3 X175.7879 Y260.2156 I0.0739 J-0.0126
G2 X175.7511 Y260.0585 I-0.9392 J0.1375
G2 X175.5934 Y259.7857 I-0.7929 J0.2762
G3 X175.593 Y259.7852 I0.0567 J-0.049
G2 X175.3453 Y259.577 I-0.742 J0.631
G2 X175.042 Y259.4669 I-0.4653 J0.8095
G3 X175.0419 I0.013 J-0.0739
G2 X174.7242 I-0.1588 J0.8917
G1 X174.7241
G2 X174.4205 Y259.5771 I0.1634 J0.9235
G2 X174.1735 Y259.7847 I0.4608 J0.799
G2 X174.0144 Y260.0603 I0.7116 J0.5946
G2 X173.958 Y260.3782 I0.8759 J0.3191
G2 X173.9751 Y260.5554 I0.9236 J0.0002
G0 Z0.1
G0 X174.8791 Y466.4529
G1 F1000.0 Z-0.1
G2 F400.0 X174.7242 Y466.4669 I0.004 J0.9058
G1 X174.7241
G2 X174.4205 Y466.5771 I0.1634 J0.9235
G2 X174.1735 Y466.7848 I0.4608 J0.799
G2 X174.0144 Y467.0603 I0.7116 J0.5946
G2 X173.958 Y467.3782 I0.8759 J0.3191
G2 X174.0143 Y467.696 I0.9236 J0.0002
G2 X174.1734 Y467.9715 I0.8704 J-0.3188
G2 X174.4206 Y468.1793 I0.715 J-0.5998
G2 X174.7238 Y468.2894 I0.4602 J-0.7948
G2 X175.0423 I0.1593 J-0.9365
G2 X175.3454 Y468.1793 I-0.1567 J-0.9039
G3 X175.3456 Y468.1792 I0.0376 J0.0649
G2 X175.5926 Y467.9716 I-0.4583 J-0.796
G3 X175.5933 Y467.9708 I0.0576 J0.048
G2 X175.7511 Y467.6978 I-0.6507 J-0.5583
G2 X175.788 Y467.5406 I-0.9267 J-0.3002
G3 X175.7886 Y467.5369 I0.0742 J0.011
G2 X175.7989 Y467.4599 I-0.5895 J-0.1183
G3 X175.7992 Y467.4571 I0.0748 J0.0052
G1 X175.8077 Y467.3769
G2 X175.7882 Y467.2173 I-1.7281 J0.1304
G3 X175.7879 Y467.2156 I0.0739 J-0.0126
G2 X175.7511 Y467.0585 I-0.9392 J0.1375
G2 X175.5934 Y466.7857 I-0.7929 J0.2762
G3 X175.593 Y466.7853 I0.0567 J-0.049
G2 X175.3453 Y466.577 I-0.742 J0.631
G2 X175.042 Y466.4669 I-0.4653 J0.8095
G3 X175.0419 I0.013 J-0.0739
G2 X174.8791 Y466.4529 I-0.1588 J0.8917
G0 Z0.1
G0 X6.8077 Y467.3769
G1 F1000.0 Z-0.1
G2 F400.0 X6.7882 Y467.2173 I-1.7281 J0.1304
G3 X6.7879 Y467.2156 I0.0739 J-0.0126
G2 X6.7511 Y467.0585 I-0.9392 J0.1375
G2 X6.5934 Y466.7857 I-0.7929 J0.2762
G3 X6.5931 Y466.7853 I0.0567 J-0.049
G2 X6.3453 Y466.577 I-0.742 J0.631
G2 X6.042 Y466.4669 I-0.4653 J0.8095
G3 X6.0419 I0.013 J-0.0739
G2 X5.7242 I-0.1588 J0.8917
G1 X5.7241
G2 X5.4205 Y466.5771 I0.1634 J0.9235
G2 X5.1735 Y466.7848 I0.4608 J0.799
G2 X5.0144 Y467.0603 I0.7116 J0.5946
G2 X4.958 Y467.3782 I0.8759 J0.3191
G2 X5.0143 Y467.696 I0.9236 J0.0002
G2 X5.1734 Y467.9715 I0.8704 J-0.3188
G2 X5.4206 Y468.1793 I0.715 J-0.5998
G2 X5.7238 Y468.2894 I0.4602 J-0.7948
G2 X6.0423 I0.1593 J-0.9365
G2 X6.3455 Y468.1793 I-0.1567 J-0.9039
G3 X6.3456 Y468.1792 I0.0376 J0.0649
G2 X6.5926 Y467.9716 I-0.4583 J-0.796
G3 X6.5933 Y467.9708 I0.0576 J0.048
G2 X6.7511 Y467.6978 I-0.6507 J-0.5583
G2 X6.788 Y467.5406 I-0.9267 J-0.3002
G3 X6.7886 Y467.5369 I0.0742 J0.011
G2 X6.7989 Y467.4599 I-0.5895 J-0.1183
G3 X6.7992 Y467.4571 I0.0748 J0.0052
G1 X6.8077 Y467.3769
( Screen_4 inner )
S1000
G0 Z0.1
G0 X166.8705 Y471.3468
G1 F1000.0 Z-0.1
G1 F400.0 X166.6651 Y290.4392
G1 X162.7402 Y286.5144
G1 X16.9141 Y286.4532
G1 X12.958 Y290.4092
G1 Y471.3471
G1 X16.9141 Y475.3032
G1 X162.8523
G1 X166.8705 Y471.3468
( Screen_4 outer )
S1000
G0 Z0.1
G0 X179.9361 Y483.4312
G1 F1000.0 Z-0.1
G1 F400.0 X174.9361 Y488.4312
G3 X174.883 Y488.4532 I-0.053 J-0.053
G1 X5.883
G3 X5.83 Y488.4312 I0.0 J-0.075
G1 X0.83 Y483.4312
G3 X0.808 Y483.3782 I0.053 J-0.053
G1 Y250.3782
G3 X0.83 Y250.3251 I0.075 J0.0
G1 X5.83 Y245.3251
G3 X5.883 Y245.3032 I0.053 J0.053
G1 X174.883
G3 X174.9361 Y245.3251 I0.0 J0.075
G1 X179.9361 Y250.3251
G3 X179.958 Y250.3782 I-0.053 J0.053
G1 Y483.3782
G3 X179.9361 Y483.4312 I-0.075 J0.0
G0 Z0.1
M5
M30
